(Plaque1)
(T1  D=3.175 CR=0 - ZMIN=-3 - fraise deux tailles)
G90 G94
G17
G21
G28 G91 Z0
G90

(Poche 2D1)
T1
S99999 M3
G54
G0 X301.037 Y1206.357
Z15
Z5
G1 Z2.817 F300
X301.052 Y1206.374 Z2.698
X301.096 Y1206.423 Z2.597
X301.157 Y1206.501 Z2.527
X301.223 Y1206.599 Z2.5
G3 X298.658 Y1208.185 Z2.335 I-1.283 J0.793
X301.223 Y1206.599 Z2.169 I1.283 J-0.793
X298.658 Y1208.185 Z2.004 I-1.283 J0.793
X301.223 Y1206.599 Z1.838 I1.283 J-0.793
X298.658 Y1208.185 Z1.673 I-1.283 J0.793
X301.223 Y1206.599 Z1.507 I1.283 J-0.793
X298.658 Y1208.185 Z1.342 I-1.283 J0.793
X301.223 Y1206.599 Z1.176 I1.283 J-0.793
X298.658 Y1208.185 Z1.011 I-1.283 J0.793
X301.223 Y1206.599 Z0.845 I1.283 J-0.793
X298.658 Y1208.185 Z0.68 I-1.283 J0.793
X301.223 Y1206.599 Z0.515 I1.283 J-0.793
X298.658 Y1208.185 Z0.349 I-1.283 J0.793
X301.223 Y1206.599 Z0.184 I1.283 J-0.793
X298.658 Y1208.185 Z0.018 I-1.283 J0.793
X301.223 Y1206.599 Z-0.147 I1.283 J-0.793
X298.658 Y1208.185 Z-0.313 I-1.283 J0.793
X301.223 Y1206.599 Z-0.478 I1.283 J-0.793
X298.658 Y1208.185 Z-0.644 I-1.283 J0.793
X301.223 Y1206.599 Z-0.809 I1.283 J-0.793
X298.658 Y1208.185 Z-0.974 I-1.283 J0.793
X301.223 Y1206.599 Z-1.14 I1.283 J-0.793
X298.658 Y1208.185 Z-1.305 I-1.283 J0.793
X301.223 Y1206.599 Z-1.471 I1.283 J-0.793
X301.448 Y1207.392 Z-1.5 I-1.283 J0.793
X299.359 Y1207.39 I-1.045 J-0.001
G1 Y1188.79 F1000
X299.353 Y1188.676
X299.342 Y1188.562
G3 X299.618 Y1188.261 I0.276 J-0.024
G1 X300.139
G3 X300.415 Y1188.562 I0 J0.277
G1 X300.404 Y1188.676
X300.398 Y1188.79
Y1207.39
X300.404 Y1207.504
X300.415 Y1207.619
G3 X300.139 Y1207.919 I-0.276 J0.024
G1 X299.618
G3 X299.342 Y1207.619 I0 J-0.277
G1 X299.353 Y1207.504
X299.359 Y1207.39
G3 X300.946 Y1207.005 I0.84 J0
G2 X301.832 Y1208.377 I7.481 J-3.86
X303.076 Y1208.978 I1.244 J-0.987
G1 X321.681
G2 X323.268 Y1207.39 I0 J-1.588
G1 Y1188.79
G2 X321.681 Y1187.203 I-1.587 J0
G1 X303.076
G2 X301.488 Y1188.79 I0 J1.588
G1 Y1207.39
G2 X301.832 Y1208.377 I1.587 J0
G1 X301.865 Y1208.428 Z-1.488 F600
X301.888 Y1208.484 Z-1.476
X301.899 Y1208.534 Z-1.441
X301.901 Y1208.585 Z-1.407
X301.891 Y1208.653 Z-1.304
X301.884 Y1208.677 Z-1.183
Z5
G0 X273.72 Y1208.428
G1 Z2.817 F300
X273.705 Y1208.411 Z2.698
X273.661 Y1208.361 Z2.597
X273.6 Y1208.283 Z2.527
X273.534 Y1208.185 Z2.5
G3 X276.099 Y1206.599 Z2.335 I1.283 J-0.793
X273.534 Y1208.185 Z2.169 I-1.283 J0.793
X276.099 Y1206.599 Z2.004 I1.283 J-0.793
X273.534 Y1208.185 Z1.838 I-1.283 J0.793
X276.099 Y1206.599 Z1.673 I1.283 J-0.793
X273.534 Y1208.185 Z1.507 I-1.283 J0.793
X276.099 Y1206.599 Z1.342 I1.283 J-0.793
X273.534 Y1208.185 Z1.176 I-1.283 J0.793
X276.099 Y1206.599 Z1.011 I1.283 J-0.793
X273.534 Y1208.185 Z0.845 I-1.283 J0.793
X276.099 Y1206.599 Z0.68 I1.283 J-0.793
X273.534 Y1208.185 Z0.515 I-1.283 J0.793
X276.099 Y1206.599 Z0.349 I1.283 J-0.793
X273.534 Y1208.185 Z0.184 I-1.283 J0.793
X276.099 Y1206.599 Z0.018 I1.283 J-0.793
X273.534 Y1208.185 Z-0.147 I-1.283 J0.793
X276.099 Y1206.599 Z-0.313 I1.283 J-0.793
X273.534 Y1208.185 Z-0.478 I-1.283 J0.793
X276.099 Y1206.599 Z-0.644 I1.283 J-0.793
X273.534 Y1208.185 Z-0.809 I-1.283 J0.793
X276.099 Y1206.599 Z-0.974 I1.283 J-0.793
X273.534 Y1208.185 Z-1.14 I-1.283 J0.793
X276.099 Y1206.599 Z-1.305 I1.283 J-0.793
X273.534 Y1208.185 Z-1.471 I-1.283 J0.793
X273.309 Y1207.392 Z-1.5 I1.283 J-0.793
X274.352 Y1206.347 I1.045 J-0.001
X275.398 Y1207.39 I0.001 J1.045
G1 X275.404 Y1207.504 F1000
X275.415 Y1207.619
G3 X275.139 Y1207.919 I-0.276 J0.024
G1 X274.618
G3 X274.342 Y1207.619 I0 J-0.277
G1 X274.353 Y1207.504
X274.359 Y1207.39
Y1188.79
X274.353 Y1188.676
X274.342 Y1188.562
G3 X274.618 Y1188.261 I0.276 J-0.024
G1 X275.139
G3 X275.415 Y1188.562 I0 J0.277
G1 X275.404 Y1188.676
X275.398 Y1188.79
Y1207.39
G2 X276.149 Y1208.316 I0.946 J0
G3 X277.26 Y1208.752 I-0.741 J3.524
G2 X278.076 Y1208.978 I0.816 J-1.362
G1 X296.681
G2 X298.268 Y1207.39 I0 J-1.588
G1 Y1188.79
G2 X296.681 Y1187.203 I-1.587 J0
G1 X278.076
G2 X276.488 Y1188.79 I0 J1.588
G1 Y1207.39
G2 X277.26 Y1208.752 I1.587 J0
G1 X277.366 Y1208.81 Z-1.476 F600
X277.46 Y1208.853 Z-1.407
X277.524 Y1208.878 Z-1.304
X277.546 Y1208.887 Z-1.183
Z5
G0 X251.039 Y1187.754
G1 Z2.817 F300
X251.055 Y1187.771 Z2.698
X251.098 Y1187.821 Z2.597
X251.16 Y1187.899 Z2.527
X251.226 Y1187.997 Z2.5
G3 X248.66 Y1189.583 Z2.335 I-1.283 J0.793
X251.226 Y1187.997 Z2.169 I1.283 J-0.793
X248.66 Y1189.583 Z2.004 I-1.283 J0.793
X251.226 Y1187.997 Z1.838 I1.283 J-0.793
X248.66 Y1189.583 Z1.673 I-1.283 J0.793
X251.226 Y1187.997 Z1.507 I1.283 J-0.793
X248.66 Y1189.583 Z1.342 I-1.283 J0.793
X251.226 Y1187.997 Z1.176 I1.283 J-0.793
X248.66 Y1189.583 Z1.011 I-1.283 J0.793
X251.226 Y1187.997 Z0.845 I1.283 J-0.793
X248.66 Y1189.583 Z0.68 I-1.283 J0.793
X251.226 Y1187.997 Z0.515 I1.283 J-0.793
X248.66 Y1189.583 Z0.349 I-1.283 J0.793
X251.226 Y1187.997 Z0.184 I1.283 J-0.793
X248.66 Y1189.583 Z0.018 I-1.283 J0.793
X251.226 Y1187.997 Z-0.147 I1.283 J-0.793
X248.66 Y1189.583 Z-0.313 I-1.283 J0.793
X251.226 Y1187.997 Z-0.478 I1.283 J-0.793
X248.66 Y1189.583 Z-0.644 I-1.283 J0.793
X251.226 Y1187.997 Z-0.809 I1.283 J-0.793
X248.66 Y1189.583 Z-0.974 I-1.283 J0.793
X251.226 Y1187.997 Z-1.14 I1.283 J-0.793
X248.66 Y1189.583 Z-1.305 I-1.283 J0.793
X251.226 Y1187.997 Z-1.471 I1.283 J-0.793
X251.451 Y1188.79 Z-1.5 I-1.283 J0.793
X249.361 Y1188.79 I-1.045 J0
G1 X249.355 Y1188.676 F1000
X249.344 Y1188.563
G3 X249.62 Y1188.263 I0.276 J-0.024
G1 X250.142
G3 X250.418 Y1188.563 I0 J0.277
G1 X250.407 Y1188.676
X250.401 Y1188.79
Y1207.39
X250.407 Y1207.504
X250.418 Y1207.617
G3 X250.142 Y1207.917 I-0.276 J0.023
G1 X249.881
G2 X249.595 Y1207.932 I0 J2.673
G3 X249.339 Y1207.676 I-0.025 J-0.232
G1 X249.355 Y1207.533
X249.361 Y1207.462
X249.363 Y1207.39
X249.361 Y1188.79
X249.367 Y1188.73 Z-1.488 F600
X249.384 Y1188.671 Z-1.476
X249.407 Y1188.625 Z-1.441
X249.437 Y1188.584 Z-1.407
X249.487 Y1188.537 Z-1.304
X249.507 Y1188.523 Z-1.183
Z5
G0 X251.082 Y1187.754
G1 Z2.817 F300
X251.097 Y1187.771 Z2.698
X251.141 Y1187.821 Z2.597
X251.202 Y1187.899 Z2.527
X251.268 Y1187.997 Z2.5
G3 X248.703 Y1189.583 Z2.335 I-1.283 J0.793
X251.268 Y1187.997 Z2.169 I1.283 J-0.793
X248.703 Y1189.583 Z2.004 I-1.283 J0.793
X251.268 Y1187.997 Z1.838 I1.283 J-0.793
X248.703 Y1189.583 Z1.673 I-1.283 J0.793
X251.268 Y1187.997 Z1.507 I1.283 J-0.793
X248.703 Y1189.583 Z1.342 I-1.283 J0.793
X251.268 Y1187.997 Z1.176 I1.283 J-0.793
X248.703 Y1189.583 Z1.011 I-1.283 J0.793
X251.268 Y1187.997 Z0.845 I1.283 J-0.793
X248.703 Y1189.583 Z0.68 I-1.283 J0.793
X251.268 Y1187.997 Z0.515 I1.283 J-0.793
X248.703 Y1189.583 Z0.349 I-1.283 J0.793
X251.268 Y1187.997 Z0.184 I1.283 J-0.793
X248.703 Y1189.583 Z0.018 I-1.283 J0.793
X251.268 Y1187.997 Z-0.147 I1.283 J-0.793
X248.703 Y1189.583 Z-0.313 I-1.283 J0.793
X251.268 Y1187.997 Z-0.478 I1.283 J-0.793
X248.703 Y1189.583 Z-0.644 I-1.283 J0.793
X251.268 Y1187.997 Z-0.809 I1.283 J-0.793
X248.703 Y1189.583 Z-0.974 I-1.283 J0.793
X251.268 Y1187.997 Z-1.14 I1.283 J-0.793
X248.703 Y1189.583 Z-1.305 I-1.283 J0.793
X251.268 Y1187.997 Z-1.471 I1.283 J-0.793
X251.493 Y1188.79 Z-1.5 I-1.283 J0.793
G1 Y1207.39 F1000
G2 X253.081 Y1208.978 I1.587 J0
G1 X271.681
G2 X273.268 Y1207.39 I0 J-1.588
G1 Y1188.79
G2 X271.681 Y1187.203 I-1.587 J0
G1 X253.081
G2 X251.493 Y1188.79 I0 J1.588
G1 X251.488 Y1188.85 Z-1.488 F600
X251.471 Y1188.909 Z-1.476
X251.448 Y1188.955 Z-1.441
X251.417 Y1188.996 Z-1.407
X251.367 Y1189.043 Z-1.304
X251.348 Y1189.057 Z-1.183
Z5
G0 X229.116 Y1211.748
G1 Z2.817 F300
X229.1 Y1211.764 Z2.698
X229.05 Y1211.807 Z2.597
X228.972 Y1211.869 Z2.527
X228.874 Y1211.935 Z2.5
G3 X227.288 Y1209.369 Z2.335 I-0.793 J-1.283
X228.874 Y1211.935 Z2.169 I0.793 J1.283
X227.288 Y1209.369 Z2.004 I-0.793 J-1.283
X228.874 Y1211.935 Z1.838 I0.793 J1.283
X227.288 Y1209.369 Z1.673 I-0.793 J-1.283
X228.874 Y1211.935 Z1.507 I0.793 J1.283
X227.288 Y1209.369 Z1.342 I-0.793 J-1.283
X228.874 Y1211.935 Z1.176 I0.793 J1.283
X227.288 Y1209.369 Z1.011 I-0.793 J-1.283
X228.874 Y1211.935 Z0.845 I0.793 J1.283
X227.288 Y1209.369 Z0.68 I-0.793 J-1.283
X228.874 Y1211.935 Z0.515 I0.793 J1.283
X227.288 Y1209.369 Z0.349 I-0.793 J-1.283
X228.874 Y1211.935 Z0.184 I0.793 J1.283
X227.288 Y1209.369 Z0.018 I-0.793 J-1.283
X228.874 Y1211.935 Z-0.147 I0.793 J1.283
X227.288 Y1209.369 Z-0.313 I-0.793 J-1.283
X228.874 Y1211.935 Z-0.478 I0.793 J1.283
X227.288 Y1209.369 Z-0.644 I-0.793 J-1.283
X228.874 Y1211.935 Z-0.809 I0.793 J1.283
X227.288 Y1209.369 Z-0.974 I-0.793 J-1.283
X228.874 Y1211.935 Z-1.14 I0.793 J1.283
X227.288 Y1209.369 Z-1.305 I-0.793 J-1.283
X228.874 Y1211.935 Z-1.471 I0.793 J1.283
X228.081 Y1212.16 Z-1.5 I-0.793 J-1.283
X227.036 Y1211.115 I0 J-1.045
X228.081 Y1210.07 I1.045 J0
G1 X246.681 Y1210.072 F1000
X246.753 Y1210.07
X246.824 Y1210.063
X246.967 Y1210.048
G3 X247.223 Y1210.304 I0.025 J0.232
G2 X247.208 Y1210.59 I2.658 J0.286
G1 Y1210.851
G3 X246.908 Y1211.127 I-0.277 J0
G1 X246.795 Y1211.116
X246.681 Y1211.11
X228.081
X227.967 Y1211.116
X227.854 Y1211.127
G3 X227.554 Y1210.851 I-0.023 J-0.276
G1 Y1210.329
G3 X227.854 Y1210.053 I0.277 J0
G1 X227.967 Y1210.064
X228.081 Y1210.07
G2 X228.9 Y1209.524 I0 J-0.888
G3 X229.72 Y1208.978 I0.819 J0.341
G1 X246.681
G2 X248.268 Y1207.39 I0 J-1.588
G1 Y1188.79
G2 X246.681 Y1187.203 I-1.587 J0
G1 X228.081
G2 X226.493 Y1188.79 I0 J1.588
G1 Y1207.39
G2 X228.081 Y1208.978 I1.587 J0
G1 X229.72
X229.78 Y1208.983 Z-1.488 F600
X229.838 Y1209 Z-1.476
X229.884 Y1209.023 Z-1.441
X229.926 Y1209.054 Z-1.407
X229.973 Y1209.104 Z-1.304
X229.987 Y1209.123 Z-1.183
Z5
G0 X245.645 Y1234.432
G1 Z2.817 F300
X245.662 Y1234.416 Z2.698
X245.712 Y1234.373 Z2.597
X245.79 Y1234.311 Z2.527
X245.888 Y1234.245 Z2.5
G3 X247.474 Y1236.811 Z2.335 I0.793 J1.283
X245.888 Y1234.245 Z2.169 I-0.793 J-1.283
X247.474 Y1236.811 Z2.004 I0.793 J1.283
X245.888 Y1234.245 Z1.838 I-0.793 J-1.283
X247.474 Y1236.811 Z1.673 I0.793 J1.283
X245.888 Y1234.245 Z1.507 I-0.793 J-1.283
X247.474 Y1236.811 Z1.342 I0.793 J1.283
X245.888 Y1234.245 Z1.176 I-0.793 J-1.283
X247.474 Y1236.811 Z1.011 I0.793 J1.283
X245.888 Y1234.245 Z0.845 I-0.793 J-1.283
X247.474 Y1236.811 Z0.68 I0.793 J1.283
X245.888 Y1234.245 Z0.515 I-0.793 J-1.283
X247.474 Y1236.811 Z0.349 I0.793 J1.283
X245.888 Y1234.245 Z0.184 I-0.793 J-1.283
X247.474 Y1236.811 Z0.018 I0.793 J1.283
X245.888 Y1234.245 Z-0.147 I-0.793 J-1.283
X247.474 Y1236.811 Z-0.313 I0.793 J1.283
X245.888 Y1234.245 Z-0.478 I-0.793 J-1.283
X247.474 Y1236.811 Z-0.644 I0.793 J1.283
X245.888 Y1234.245 Z-0.809 I-0.793 J-1.283
X247.474 Y1236.811 Z-0.974 I0.793 J1.283
X245.888 Y1234.245 Z-1.14 I-0.793 J-1.283
X247.474 Y1236.811 Z-1.305 I0.793 J1.283
X245.888 Y1234.245 Z-1.471 I-0.793 J-1.283
X246.681 Y1234.02 Z-1.5 I0.793 J1.283
X246.681 Y1236.11 I0 J1.045
G1 X228.081 F1000
X227.967 Y1236.116
X227.854 Y1236.127
G3 X227.554 Y1235.851 I-0.023 J-0.276
G1 Y1235.329
G3 X227.854 Y1235.053 I0.277 J0
G1 X227.967 Y1235.064
X228.081 Y1235.07
X246.681
X246.795 Y1235.064
X246.908 Y1235.053
G3 X247.208 Y1235.329 I0.023 J0.276
G1 Y1235.851
G3 X246.908 Y1236.127 I-0.277 J0
G1 X246.795 Y1236.116
X246.681 Y1236.11
G2 X245.862 Y1236.656 I0 J0.888
G3 X245.042 Y1237.203 I-0.819 J-0.341
G1 X228.081
G2 X226.493 Y1238.79 I0 J1.588
G1 Y1257.39
G2 X228.081 Y1258.978 I1.587 J0
G1 X246.681
G2 X248.268 Y1257.39 I0 J-1.588
G1 Y1238.79
G2 X246.681 Y1237.203 I-1.587 J0
G1 X245.042
X244.982 Y1237.197 Z-1.488 F600
X244.924 Y1237.18 Z-1.476
X244.878 Y1237.157 Z-1.441
X244.836 Y1237.126 Z-1.407
X244.789 Y1237.076 Z-1.304
X244.775 Y1237.057 Z-1.183
Z5
G0 X227.045 Y1234.389
G1 Z2.817 F300
X227.062 Y1234.374 Z2.698
X227.112 Y1234.33 Z2.597
X227.19 Y1234.269 Z2.527
X227.288 Y1234.203 Z2.5
G3 X228.874 Y1236.768 Z2.335 I0.793 J1.283
X227.288 Y1234.203 Z2.169 I-0.793 J-1.283
X228.874 Y1236.768 Z2.004 I0.793 J1.283
X227.288 Y1234.203 Z1.838 I-0.793 J-1.283
X228.874 Y1236.768 Z1.673 I0.793 J1.283
X227.288 Y1234.203 Z1.507 I-0.793 J-1.283
X228.874 Y1236.768 Z1.342 I0.793 J1.283
X227.288 Y1234.203 Z1.176 I-0.793 J-1.283
X228.874 Y1236.768 Z1.011 I0.793 J1.283
X227.288 Y1234.203 Z0.845 I-0.793 J-1.283
X228.874 Y1236.768 Z0.68 I0.793 J1.283
X227.288 Y1234.203 Z0.515 I-0.793 J-1.283
X228.874 Y1236.768 Z0.349 I0.793 J1.283
X227.288 Y1234.203 Z0.184 I-0.793 J-1.283
X228.874 Y1236.768 Z0.018 I0.793 J1.283
X227.288 Y1234.203 Z-0.147 I-0.793 J-1.283
X228.874 Y1236.768 Z-0.313 I0.793 J1.283
X227.288 Y1234.203 Z-0.478 I-0.793 J-1.283
X228.874 Y1236.768 Z-0.644 I0.793 J1.283
X227.288 Y1234.203 Z-0.809 I-0.793 J-1.283
X228.874 Y1236.768 Z-0.974 I0.793 J1.283
X227.288 Y1234.203 Z-1.14 I-0.793 J-1.283
X228.874 Y1236.768 Z-1.305 I0.793 J1.283
X227.288 Y1234.203 Z-1.471 I-0.793 J-1.283
X228.081 Y1233.978 Z-1.5 I0.793 J1.283
G1 X246.681 F1000
G2 X248.268 Y1232.39 I0 J-1.588
G1 Y1213.79
G2 X246.681 Y1212.203 I-1.587 J0
G1 X228.081
G2 X226.493 Y1213.79 I0 J1.588
G1 Y1232.39
G2 X228.081 Y1233.978 I1.587 J0
G1 X228.141 Y1233.983 Z-1.488 F600
X228.2 Y1234 Z-1.476
X228.246 Y1234.023 Z-1.441
X228.287 Y1234.054 Z-1.407
X228.334 Y1234.104 Z-1.304
X228.348 Y1234.123 Z-1.183
Z5
G0 X226.88 Y1236.626
G1 Z2.817 F300
X226.865 Y1236.609 Z2.698
X226.821 Y1236.559 Z2.597
X226.76 Y1236.481 Z2.527
X226.694 Y1236.383 Z2.5
G3 X229.259 Y1234.797 Z2.335 I1.283 J-0.793
X226.694 Y1236.383 Z2.169 I-1.283 J0.793
X229.259 Y1234.797 Z2.004 I1.283 J-0.793
X226.694 Y1236.383 Z1.838 I-1.283 J0.793
X229.259 Y1234.797 Z1.673 I1.283 J-0.793
X226.694 Y1236.383 Z1.507 I-1.283 J0.793
X229.259 Y1234.797 Z1.342 I1.283 J-0.793
X226.694 Y1236.383 Z1.176 I-1.283 J0.793
X229.259 Y1234.797 Z1.011 I1.283 J-0.793
X226.694 Y1236.383 Z0.845 I-1.283 J0.793
X229.259 Y1234.797 Z0.68 I1.283 J-0.793
X226.694 Y1236.383 Z0.515 I-1.283 J0.793
X229.259 Y1234.797 Z0.349 I1.283 J-0.793
X226.694 Y1236.383 Z0.184 I-1.283 J0.793
X229.259 Y1234.797 Z0.018 I1.283 J-0.793
X226.694 Y1236.383 Z-0.147 I-1.283 J0.793
X229.259 Y1234.797 Z-0.313 I1.283 J-0.793
X226.694 Y1236.383 Z-0.478 I-1.283 J0.793
X229.259 Y1234.797 Z-0.644 I1.283 J-0.793
X226.694 Y1236.383 Z-0.809 I-1.283 J0.793
X229.259 Y1234.797 Z-0.974 I1.283 J-0.793
X226.694 Y1236.383 Z-1.14 I-1.283 J0.793
X229.259 Y1234.797 Z-1.305 I1.283 J-0.793
X226.694 Y1236.383 Z-1.471 I-1.283 J0.793
X226.469 Y1235.59 Z-1.5 I1.283 J-0.793
G1 Y1187.177 F1000
X323.293
Y1209.002
X249.881
G2 X248.294 Y1210.59 I0 J1.588
G1 Y1259.002
X226.469
Y1235.59
X226.474 Y1235.53 Z-1.488 F600
X226.491 Y1235.471 Z-1.476
X226.514 Y1235.425 Z-1.441
X226.545 Y1235.384 Z-1.407
X226.595 Y1235.337 Z-1.304
X226.614 Y1235.323 Z-1.183
Z5
G0 X245.645 Y1234.432
G1 Z1.317 F300
X245.662 Y1234.416 Z1.198
X245.712 Y1234.373 Z1.097
X245.79 Y1234.311 Z1.027
X245.888 Y1234.245 Z1
G3 X247.474 Y1236.811 Z0.835 I0.793 J1.283
X245.888 Y1234.245 Z0.669 I-0.793 J-1.283
X247.474 Y1236.811 Z0.504 I0.793 J1.283
X245.888 Y1234.245 Z0.338 I-0.793 J-1.283
X247.474 Y1236.811 Z0.173 I0.793 J1.283
X245.888 Y1234.245 Z0.007 I-0.793 J-1.283
X247.474 Y1236.811 Z-0.158 I0.793 J1.283
X245.888 Y1234.245 Z-0.324 I-0.793 J-1.283
X247.474 Y1236.811 Z-0.489 I0.793 J1.283
X245.888 Y1234.245 Z-0.655 I-0.793 J-1.283
X247.474 Y1236.811 Z-0.82 I0.793 J1.283
X245.888 Y1234.245 Z-0.985 I-0.793 J-1.283
X247.474 Y1236.811 Z-1.151 I0.793 J1.283
X245.888 Y1234.245 Z-1.316 I-0.793 J-1.283
X247.474 Y1236.811 Z-1.482 I0.793 J1.283
X245.888 Y1234.245 Z-1.647 I-0.793 J-1.283
X247.474 Y1236.811 Z-1.813 I0.793 J1.283
X245.888 Y1234.245 Z-1.978 I-0.793 J-1.283
X247.474 Y1236.811 Z-2.144 I0.793 J1.283
X245.888 Y1234.245 Z-2.309 I-0.793 J-1.283
X247.474 Y1236.811 Z-2.474 I0.793 J1.283
X245.888 Y1234.245 Z-2.64 I-0.793 J-1.283
X247.474 Y1236.811 Z-2.805 I0.793 J1.283
X245.888 Y1234.245 Z-2.971 I-0.793 J-1.283
X246.681 Y1234.02 Z-3 I0.793 J1.283
X246.681 Y1236.11 I0 J1.045
G1 X228.081 F1000
X227.967 Y1236.116
X227.854 Y1236.127
G3 X227.554 Y1235.851 I-0.023 J-0.276
G1 Y1235.329
G3 X227.854 Y1235.053 I0.277 J0
G1 X227.967 Y1235.064
X228.081 Y1235.07
X246.681
X246.795 Y1235.064
X246.908 Y1235.053
G3 X247.208 Y1235.329 I0.023 J0.276
G1 Y1235.851
G3 X246.908 Y1236.127 I-0.277 J0
G1 X246.795 Y1236.116
X246.681 Y1236.11
G2 X245.862 Y1236.656 I0 J0.888
G3 X245.042 Y1237.203 I-0.819 J-0.341
G1 X228.081
G2 X226.493 Y1238.79 I0 J1.588
G1 Y1257.39
G2 X228.081 Y1258.978 I1.587 J0
G1 X246.681
G2 X248.268 Y1257.39 I0 J-1.588
G1 Y1238.79
G2 X246.681 Y1237.203 I-1.587 J0
G1 X245.042
X244.982 Y1237.197 Z-2.988 F600
X244.924 Y1237.18 Z-2.976
X244.878 Y1237.157 Z-2.941
X244.836 Y1237.126 Z-2.907
X244.789 Y1237.076 Z-2.804
X244.775 Y1237.057 Z-2.683
Z5
G0 X229.116 Y1211.748
G1 Z1.317 F300
X229.1 Y1211.764 Z1.198
X229.05 Y1211.807 Z1.097
X228.972 Y1211.869 Z1.027
X228.874 Y1211.935 Z1
G3 X227.288 Y1209.369 Z0.835 I-0.793 J-1.283
X228.874 Y1211.935 Z0.669 I0.793 J1.283
X227.288 Y1209.369 Z0.504 I-0.793 J-1.283
X228.874 Y1211.935 Z0.338 I0.793 J1.283
X227.288 Y1209.369 Z0.173 I-0.793 J-1.283
X228.874 Y1211.935 Z0.007 I0.793 J1.283
X227.288 Y1209.369 Z-0.158 I-0.793 J-1.283
X228.874 Y1211.935 Z-0.324 I0.793 J1.283
X227.288 Y1209.369 Z-0.489 I-0.793 J-1.283
X228.874 Y1211.935 Z-0.655 I0.793 J1.283
X227.288 Y1209.369 Z-0.82 I-0.793 J-1.283
X228.874 Y1211.935 Z-0.985 I0.793 J1.283
X227.288 Y1209.369 Z-1.151 I-0.793 J-1.283
X228.874 Y1211.935 Z-1.316 I0.793 J1.283
X227.288 Y1209.369 Z-1.482 I-0.793 J-1.283
X228.874 Y1211.935 Z-1.647 I0.793 J1.283
X227.288 Y1209.369 Z-1.813 I-0.793 J-1.283
X228.874 Y1211.935 Z-1.978 I0.793 J1.283
X227.288 Y1209.369 Z-2.144 I-0.793 J-1.283
X228.874 Y1211.935 Z-2.309 I0.793 J1.283
X227.288 Y1209.369 Z-2.474 I-0.793 J-1.283
X228.874 Y1211.935 Z-2.64 I0.793 J1.283
X227.288 Y1209.369 Z-2.805 I-0.793 J-1.283
X228.874 Y1211.935 Z-2.971 I0.793 J1.283
X228.081 Y1212.16 Z-3 I-0.793 J-1.283
X227.036 Y1211.115 I0 J-1.045
X228.081 Y1210.07 I1.045 J0
G1 X246.681 Y1210.072 F1000
X246.753 Y1210.07
X246.824 Y1210.063
X246.967 Y1210.048
G3 X247.223 Y1210.304 I0.025 J0.232
G2 X247.208 Y1210.59 I2.658 J0.286
G1 Y1210.851
G3 X246.908 Y1211.127 I-0.277 J0
G1 X246.795 Y1211.116
X246.681 Y1211.11
X228.081
X227.967 Y1211.116
X227.854 Y1211.127
G3 X227.554 Y1210.851 I-0.023 J-0.276
G1 Y1210.329
G3 X227.854 Y1210.053 I0.277 J0
G1 X227.967 Y1210.064
X228.081 Y1210.07
G3 X228.467 Y1211.659 I0 J0.842
G2 X227.093 Y1212.547 I3.839 J7.444
X226.493 Y1213.79 I0.988 J1.243
G1 Y1232.39
G2 X228.081 Y1233.978 I1.587 J0
G1 X246.681
G2 X248.268 Y1232.39 I0 J-1.588
G1 Y1213.79
G2 X246.681 Y1212.203 I-1.587 J0
G1 X228.081
G2 X227.093 Y1212.547 I0 J1.588
G1 X227.042 Y1212.58 Z-2.988 F600
X226.986 Y1212.603 Z-2.976
X226.936 Y1212.614 Z-2.941
X226.884 Y1212.616 Z-2.907
X226.816 Y1212.606 Z-2.804
X226.793 Y1212.599 Z-2.683
Z5
G0 X251.039 Y1187.754
G1 Z1.317 F300
X251.055 Y1187.771 Z1.198
X251.098 Y1187.821 Z1.097
X251.16 Y1187.899 Z1.027
X251.226 Y1187.997 Z1
G3 X248.66 Y1189.583 Z0.835 I-1.283 J0.793
X251.226 Y1187.997 Z0.669 I1.283 J-0.793
X248.66 Y1189.583 Z0.504 I-1.283 J0.793
X251.226 Y1187.997 Z0.338 I1.283 J-0.793
X248.66 Y1189.583 Z0.173 I-1.283 J0.793
X251.226 Y1187.997 Z0.007 I1.283 J-0.793
X248.66 Y1189.583 Z-0.158 I-1.283 J0.793
X251.226 Y1187.997 Z-0.324 I1.283 J-0.793
X248.66 Y1189.583 Z-0.489 I-1.283 J0.793
X251.226 Y1187.997 Z-0.655 I1.283 J-0.793
X248.66 Y1189.583 Z-0.82 I-1.283 J0.793
X251.226 Y1187.997 Z-0.985 I1.283 J-0.793
X248.66 Y1189.583 Z-1.151 I-1.283 J0.793
X251.226 Y1187.997 Z-1.316 I1.283 J-0.793
X248.66 Y1189.583 Z-1.482 I-1.283 J0.793
X251.226 Y1187.997 Z-1.647 I1.283 J-0.793
X248.66 Y1189.583 Z-1.813 I-1.283 J0.793
X251.226 Y1187.997 Z-1.978 I1.283 J-0.793
X248.66 Y1189.583 Z-2.144 I-1.283 J0.793
X251.226 Y1187.997 Z-2.309 I1.283 J-0.793
X248.66 Y1189.583 Z-2.474 I-1.283 J0.793
X251.226 Y1187.997 Z-2.64 I1.283 J-0.793
X248.66 Y1189.583 Z-2.805 I-1.283 J0.793
X251.226 Y1187.997 Z-2.971 I1.283 J-0.793
X251.451 Y1188.79 Z-3 I-1.283 J0.793
X249.361 Y1188.79 I-1.045 J0
G1 X249.355 Y1188.676 F1000
X249.344 Y1188.563
G3 X249.62 Y1188.263 I0.276 J-0.024
G1 X250.142
G3 X250.418 Y1188.563 I0 J0.277
G1 X250.407 Y1188.676
X250.401 Y1188.79
Y1207.39
X250.407 Y1207.504
X250.418 Y1207.617
G3 X250.142 Y1207.917 I-0.276 J0.023
G1 X249.881
G2 X249.595 Y1207.932 I0 J2.673
G3 X249.339 Y1207.676 I-0.025 J-0.232
G1 X249.355 Y1207.533
X249.361 Y1207.462
X249.363 Y1207.39
X249.361 Y1188.79
G2 X248.608 Y1187.862 I-0.948 J0
G3 X247.495 Y1187.427 I0.744 J-3.543
G2 X246.681 Y1187.203 I-0.814 J1.363
G1 X228.081
G2 X226.493 Y1188.79 I0 J1.588
G1 Y1207.39
G2 X228.081 Y1208.978 I1.587 J0
G1 X246.681
G2 X248.268 Y1207.39 I0 J-1.588
G1 Y1188.79
G2 X247.495 Y1187.427 I-1.587 J0
G1 X247.389 Y1187.369 Z-2.976 F600
X247.295 Y1187.326 Z-2.907
X247.231 Y1187.301 Z-2.804
X247.208 Y1187.293 Z-2.683
Z5
G0 X273.72 Y1189.823
G1 Z1.317 F300
X273.705 Y1189.806 Z1.198
X273.661 Y1189.757 Z1.097
X273.6 Y1189.679 Z1.027
X273.534 Y1189.581 Z1
G3 X276.099 Y1187.995 Z0.835 I1.283 J-0.793
X273.534 Y1189.581 Z0.669 I-1.283 J0.793
X276.099 Y1187.995 Z0.504 I1.283 J-0.793
X273.534 Y1189.581 Z0.338 I-1.283 J0.793
X276.099 Y1187.995 Z0.173 I1.283 J-0.793
X273.534 Y1189.581 Z0.007 I-1.283 J0.793
X276.099 Y1187.995 Z-0.158 I1.283 J-0.793
X273.534 Y1189.581 Z-0.324 I-1.283 J0.793
X276.099 Y1187.995 Z-0.489 I1.283 J-0.793
X273.534 Y1189.581 Z-0.655 I-1.283 J0.793
X276.099 Y1187.995 Z-0.82 I1.283 J-0.793
X273.534 Y1189.581 Z-0.985 I-1.283 J0.793
X276.099 Y1187.995 Z-1.151 I1.283 J-0.793
X273.534 Y1189.581 Z-1.316 I-1.283 J0.793
X276.099 Y1187.995 Z-1.482 I1.283 J-0.793
X273.534 Y1189.581 Z-1.647 I-1.283 J0.793
X276.099 Y1187.995 Z-1.813 I1.283 J-0.793
X273.534 Y1189.581 Z-1.978 I-1.283 J0.793
X276.099 Y1187.995 Z-2.144 I1.283 J-0.793
X273.534 Y1189.581 Z-2.309 I-1.283 J0.793
X276.099 Y1187.995 Z-2.474 I1.283 J-0.793
X273.534 Y1189.581 Z-2.64 I-1.283 J0.793
X276.099 Y1187.995 Z-2.805 I1.283 J-0.793
X273.534 Y1189.581 Z-2.971 I-1.283 J0.793
X273.309 Y1188.788 Z-3 I1.283 J-0.793
X274.354 Y1187.744 I1.045 J0.001
X275.398 Y1188.79 I-0.001 J1.045
G1 Y1207.39 F1000
X275.404 Y1207.504
X275.415 Y1207.619
G3 X275.139 Y1207.919 I-0.276 J0.024
G1 X274.618
G3 X274.342 Y1207.619 I0 J-0.277
G1 X274.353 Y1207.504
X274.359 Y1207.39
Y1188.79
X274.353 Y1188.676
X274.342 Y1188.562
G3 X274.618 Y1188.261 I0.276 J-0.024
G1 X275.139
G3 X275.415 Y1188.562 I0 J0.277
G1 X275.404 Y1188.676
X275.398 Y1188.79
G3 X273.811 Y1189.175 I-0.84 J0
G2 X272.925 Y1187.803 I-7.481 J3.86
X271.681 Y1187.203 I-1.244 J0.987
G1 X253.081
G2 X251.493 Y1188.79 I0 J1.588
G1 Y1207.39
G2 X253.081 Y1208.978 I1.587 J0
G1 X271.681
G2 X273.268 Y1207.39 I0 J-1.588
G1 Y1188.79
G2 X272.925 Y1187.803 I-1.587 J0
G1 X272.892 Y1187.753 Z-2.988 F600
X272.869 Y1187.696 Z-2.976
X272.858 Y1187.646 Z-2.941
X272.856 Y1187.594 Z-2.907
X272.866 Y1187.527 Z-2.804
X272.873 Y1187.503 Z-2.683
Z5
G0 X301.037 Y1187.752
G1 Z1.317 F300
X301.052 Y1187.769 Z1.198
X301.096 Y1187.819 Z1.097
X301.157 Y1187.897 Z1.027
X301.223 Y1187.995 Z1
G3 X298.658 Y1189.581 Z0.835 I-1.283 J0.793
X301.223 Y1187.995 Z0.669 I1.283 J-0.793
X298.658 Y1189.581 Z0.504 I-1.283 J0.793
X301.223 Y1187.995 Z0.338 I1.283 J-0.793
X298.658 Y1189.581 Z0.173 I-1.283 J0.793
X301.223 Y1187.995 Z0.007 I1.283 J-0.793
X298.658 Y1189.581 Z-0.158 I-1.283 J0.793
X301.223 Y1187.995 Z-0.324 I1.283 J-0.793
X298.658 Y1189.581 Z-0.489 I-1.283 J0.793
X301.223 Y1187.995 Z-0.655 I1.283 J-0.793
X298.658 Y1189.581 Z-0.82 I-1.283 J0.793
X301.223 Y1187.995 Z-0.985 I1.283 J-0.793
X298.658 Y1189.581 Z-1.151 I-1.283 J0.793
X301.223 Y1187.995 Z-1.316 I1.283 J-0.793
X298.658 Y1189.581 Z-1.482 I-1.283 J0.793
X301.223 Y1187.995 Z-1.647 I1.283 J-0.793
X298.658 Y1189.581 Z-1.813 I-1.283 J0.793
X301.223 Y1187.995 Z-1.978 I1.283 J-0.793
X298.658 Y1189.581 Z-2.144 I-1.283 J0.793
X301.223 Y1187.995 Z-2.309 I1.283 J-0.793
X298.658 Y1189.581 Z-2.474 I-1.283 J0.793
X301.223 Y1187.995 Z-2.64 I1.283 J-0.793
X298.658 Y1189.581 Z-2.805 I-1.283 J0.793
X301.223 Y1187.995 Z-2.971 I1.283 J-0.793
X301.448 Y1188.788 Z-3 I-1.283 J0.793
X300.405 Y1189.833 I-1.045 J0.001
X299.359 Y1188.79 I-0.001 J-1.045
G1 X299.353 Y1188.676 F1000
X299.342 Y1188.562
G3 X299.618 Y1188.261 I0.276 J-0.024
G1 X300.139
G3 X300.415 Y1188.562 I0 J0.277
G1 X300.404 Y1188.676
X300.398 Y1188.79
Y1207.39
X300.404 Y1207.504
X300.415 Y1207.619
G3 X300.139 Y1207.919 I-0.276 J0.024
G1 X299.618
G3 X299.342 Y1207.619 I0 J-0.277
G1 X299.353 Y1207.504
X299.359 Y1207.39
Y1188.79
G3 X299.428 Y1187.817 I6.882 J0
X300.166 Y1187.177 I0.737 J0.105
G1 X323.293
Y1209.002
X249.881
G2 X248.294 Y1210.59 I0 J1.588
G1 Y1259.002
X226.469
Y1187.177
X300.166
X300.226 Y1187.183 Z-2.988 F600
X300.284 Y1187.2 Z-2.976
X300.33 Y1187.223 Z-2.941
X300.372 Y1187.254 Z-2.907
X300.419 Y1187.304 Z-2.804
X300.433 Y1187.323 Z-2.683
Z5
G0 X301.077 Y1187.754
G1 Z1.317 F300
X301.092 Y1187.771 Z1.198
X301.136 Y1187.821 Z1.097
X301.197 Y1187.899 Z1.027
X301.263 Y1187.997 Z1
G3 X298.698 Y1189.583 Z0.835 I-1.283 J0.793
X301.263 Y1187.997 Z0.669 I1.283 J-0.793
X298.698 Y1189.583 Z0.504 I-1.283 J0.793
X301.263 Y1187.997 Z0.338 I1.283 J-0.793
X298.698 Y1189.583 Z0.173 I-1.283 J0.793
X301.263 Y1187.997 Z0.007 I1.283 J-0.793
X298.698 Y1189.583 Z-0.158 I-1.283 J0.793
X301.263 Y1187.997 Z-0.324 I1.283 J-0.793
X298.698 Y1189.583 Z-0.489 I-1.283 J0.793
X301.263 Y1187.997 Z-0.655 I1.283 J-0.793
X298.698 Y1189.583 Z-0.82 I-1.283 J0.793
X301.263 Y1187.997 Z-0.985 I1.283 J-0.793
X298.698 Y1189.583 Z-1.151 I-1.283 J0.793
X301.263 Y1187.997 Z-1.316 I1.283 J-0.793
X298.698 Y1189.583 Z-1.482 I-1.283 J0.793
X301.263 Y1187.997 Z-1.647 I1.283 J-0.793
X298.698 Y1189.583 Z-1.813 I-1.283 J0.793
X301.263 Y1187.997 Z-1.978 I1.283 J-0.793
X298.698 Y1189.583 Z-2.144 I-1.283 J0.793
X301.263 Y1187.997 Z-2.309 I1.283 J-0.793
X298.698 Y1189.583 Z-2.474 I-1.283 J0.793
X301.263 Y1187.997 Z-2.64 I1.283 J-0.793
X298.698 Y1189.583 Z-2.805 I-1.283 J0.793
X301.263 Y1187.997 Z-2.971 I1.283 J-0.793
X301.488 Y1188.79 Z-3 I-1.283 J0.793
G1 Y1207.39 F1000
G2 X303.076 Y1208.978 I1.587 J0
G1 X321.681
G2 X323.268 Y1207.39 I0 J-1.588
G1 Y1188.79
G2 X321.681 Y1187.203 I-1.587 J0
G1 X303.076
G2 X301.488 Y1188.79 I0 J1.588
G1 X301.483 Y1188.85 Z-2.988 F600
X301.466 Y1188.909 Z-2.976
X301.443 Y1188.955 Z-2.941
X301.412 Y1188.996 Z-2.907
X301.362 Y1189.043 Z-2.804
X301.343 Y1189.057 Z-2.683
Z5
G0 X298.68 Y1189.826
G1 Z1.317 F300
X298.665 Y1189.809 Z1.198
X298.621 Y1189.759 Z1.097
X298.56 Y1189.681 Z1.027
X298.494 Y1189.583 Z1
G3 X301.059 Y1187.997 Z0.835 I1.283 J-0.793
X298.494 Y1189.583 Z0.669 I-1.283 J0.793
X301.059 Y1187.997 Z0.504 I1.283 J-0.793
X298.494 Y1189.583 Z0.338 I-1.283 J0.793
X301.059 Y1187.997 Z0.173 I1.283 J-0.793
X298.494 Y1189.583 Z0.007 I-1.283 J0.793
X301.059 Y1187.997 Z-0.158 I1.283 J-0.793
X298.494 Y1189.583 Z-0.324 I-1.283 J0.793
X301.059 Y1187.997 Z-0.489 I1.283 J-0.793
X298.494 Y1189.583 Z-0.655 I-1.283 J0.793
X301.059 Y1187.997 Z-0.82 I1.283 J-0.793
X298.494 Y1189.583 Z-0.985 I-1.283 J0.793
X301.059 Y1187.997 Z-1.151 I1.283 J-0.793
X298.494 Y1189.583 Z-1.316 I-1.283 J0.793
X301.059 Y1187.997 Z-1.482 I1.283 J-0.793
X298.494 Y1189.583 Z-1.647 I-1.283 J0.793
X301.059 Y1187.997 Z-1.813 I1.283 J-0.793
X298.494 Y1189.583 Z-1.978 I-1.283 J0.793
X301.059 Y1187.997 Z-2.144 I1.283 J-0.793
X298.494 Y1189.583 Z-2.309 I-1.283 J0.793
X301.059 Y1187.997 Z-2.474 I1.283 J-0.793
X298.494 Y1189.583 Z-2.64 I-1.283 J0.793
X301.059 Y1187.997 Z-2.805 I1.283 J-0.793
X298.494 Y1189.583 Z-2.971 I-1.283 J0.793
X298.268 Y1188.79 Z-3 I1.283 J-0.793
G2 X296.681 Y1187.203 I-1.587 J0 F1000
G1 X278.076
G2 X276.488 Y1188.79 I0 J1.588
G1 Y1207.39
G2 X278.076 Y1208.978 I1.587 J0
G1 X296.681
G2 X298.268 Y1207.39 I0 J-1.588
G1 Y1188.79
X298.274 Y1188.73 Z-2.988 F600
X298.291 Y1188.671 Z-2.976
X298.314 Y1188.625 Z-2.941
X298.345 Y1188.584 Z-2.907
X298.395 Y1188.537 Z-2.804
X298.414 Y1188.523 Z-2.683
Z5
G0 X276.442 Y1287.682
G1 Z2.817 F300
X276.457 Y1287.699 Z2.698
X276.501 Y1287.749 Z2.597
X276.562 Y1287.827 Z2.527
X276.628 Y1287.925 Z2.5
G3 X274.063 Y1289.511 Z2.335 I-1.283 J0.793
X276.628 Y1287.925 Z2.169 I1.283 J-0.793
X274.063 Y1289.511 Z2.004 I-1.283 J0.793
X276.628 Y1287.925 Z1.838 I1.283 J-0.793
X274.063 Y1289.511 Z1.673 I-1.283 J0.793
X276.628 Y1287.925 Z1.507 I1.283 J-0.793
X274.063 Y1289.511 Z1.342 I-1.283 J0.793
X276.628 Y1287.925 Z1.176 I1.283 J-0.793
X274.063 Y1289.511 Z1.011 I-1.283 J0.793
X276.628 Y1287.925 Z0.845 I1.283 J-0.793
X274.063 Y1289.511 Z0.68 I-1.283 J0.793
X276.628 Y1287.925 Z0.515 I1.283 J-0.793
X274.063 Y1289.511 Z0.349 I-1.283 J0.793
X276.628 Y1287.925 Z0.184 I1.283 J-0.793
X274.063 Y1289.511 Z0.018 I-1.283 J0.793
X276.628 Y1287.925 Z-0.147 I1.283 J-0.793
X274.063 Y1289.511 Z-0.313 I-1.283 J0.793
X276.628 Y1287.925 Z-0.478 I1.283 J-0.793
X274.063 Y1289.511 Z-0.644 I-1.283 J0.793
X276.628 Y1287.925 Z-0.809 I1.283 J-0.793
X274.063 Y1289.511 Z-0.974 I-1.283 J0.793
X276.628 Y1287.925 Z-1.14 I1.283 J-0.793
X274.063 Y1289.511 Z-1.305 I-1.283 J0.793
X276.628 Y1287.925 Z-1.471 I1.283 J-0.793
X276.853 Y1288.718 Z-1.5 I-1.283 J0.793
X275.81 Y1289.763 I-1.045 J0.001
X274.764 Y1288.72 I-0.001 J-1.045
G1 X274.758 Y1288.606 F1000
X274.747 Y1288.491
G3 X275.023 Y1288.191 I0.276 J-0.024
G1 X275.544
G3 X275.82 Y1288.491 I0 J0.277
G1 X275.809 Y1288.606
X275.803 Y1288.72
Y1307.32
X275.809 Y1307.434
X275.82 Y1307.548
G3 X275.544 Y1307.849 I-0.276 J0.024
G1 X275.023
G3 X274.747 Y1307.548 I0 J-0.277
G1 X274.758 Y1307.434
X274.764 Y1307.32
Y1288.72
G2 X274.013 Y1287.794 I-0.946 J0
G3 X272.902 Y1287.358 I0.741 J-3.524
G2 X272.086 Y1287.132 I-0.816 J1.362
G1 X253.481
G2 X251.893 Y1288.72 I0 J1.588
G1 Y1307.32
G2 X253.481 Y1308.907 I1.588 J0
G1 X272.086
G2 X273.673 Y1307.32 I0 J-1.588
G1 Y1288.72
G2 X272.902 Y1287.358 I-1.587 J0
G1 X272.796 Y1287.3 Z-1.476 F600
X272.702 Y1287.257 Z-1.407
X272.638 Y1287.232 Z-1.304
X272.616 Y1287.223 Z-1.183
Z5
G0 X299.125 Y1289.753
G1 Z2.817 F300
X299.11 Y1289.736 Z2.698
X299.066 Y1289.687 Z2.597
X299.005 Y1289.609 Z2.527
X298.939 Y1289.511 Z2.5
G3 X301.504 Y1287.925 Z2.335 I1.283 J-0.793
X298.939 Y1289.511 Z2.169 I-1.283 J0.793
X301.504 Y1287.925 Z2.004 I1.283 J-0.793
X298.939 Y1289.511 Z1.838 I-1.283 J0.793
X301.504 Y1287.925 Z1.673 I1.283 J-0.793
X298.939 Y1289.511 Z1.507 I-1.283 J0.793
X301.504 Y1287.925 Z1.342 I1.283 J-0.793
X298.939 Y1289.511 Z1.176 I-1.283 J0.793
X301.504 Y1287.925 Z1.011 I1.283 J-0.793
X298.939 Y1289.511 Z0.845 I-1.283 J0.793
X301.504 Y1287.925 Z0.68 I1.283 J-0.793
X298.939 Y1289.511 Z0.515 I-1.283 J0.793
X301.504 Y1287.925 Z0.349 I1.283 J-0.793
X298.939 Y1289.511 Z0.184 I-1.283 J0.793
X301.504 Y1287.925 Z0.018 I1.283 J-0.793
X298.939 Y1289.511 Z-0.147 I-1.283 J0.793
X301.504 Y1287.925 Z-0.313 I1.283 J-0.793
X298.939 Y1289.511 Z-0.478 I-1.283 J0.793
X301.504 Y1287.925 Z-0.644 I1.283 J-0.793
X298.939 Y1289.511 Z-0.809 I-1.283 J0.793
X301.504 Y1287.925 Z-0.974 I1.283 J-0.793
X298.939 Y1289.511 Z-1.14 I-1.283 J0.793
X301.504 Y1287.925 Z-1.305 I1.283 J-0.793
X298.939 Y1289.511 Z-1.471 I-1.283 J0.793
X298.714 Y1288.718 Z-1.5 I1.283 J-0.793
X300.803 Y1288.72 I1.045 J0.001
G1 Y1307.32 F1000
X300.809 Y1307.434
X300.82 Y1307.548
G3 X300.544 Y1307.849 I-0.276 J0.024
G1 X300.023
G3 X299.747 Y1307.548 I0 J-0.277
G1 X299.758 Y1307.434
X299.764 Y1307.32
Y1288.72
X299.758 Y1288.606
X299.747 Y1288.491
G3 X300.023 Y1288.191 I0.276 J-0.024
G1 X300.544
G3 X300.82 Y1288.491 I0 J0.277
G1 X300.809 Y1288.606
X300.803 Y1288.72
G3 X299.216 Y1289.105 I-0.84 J0
G2 X298.33 Y1287.733 I-7.481 J3.86
X297.086 Y1287.132 I-1.244 J0.987
G1 X278.481
G2 X276.893 Y1288.72 I0 J1.588
G1 Y1307.32
G2 X278.481 Y1308.907 I1.587 J0
G1 X297.086
G2 X298.673 Y1307.32 I0 J-1.588
G1 Y1288.72
G2 X298.33 Y1287.733 I-1.587 J0
G1 X298.297 Y1287.682 Z-1.488 F600
X298.274 Y1287.626 Z-1.476
X298.263 Y1287.576 Z-1.441
X298.261 Y1287.525 Z-1.407
X298.271 Y1287.457 Z-1.304
X298.278 Y1287.433 Z-1.183
Z5
G0 X324.123 Y1289.756
G1 Z2.817 F300
X324.107 Y1289.739 Z2.698
X324.064 Y1289.689 Z2.597
X324.002 Y1289.611 Z2.527
X323.936 Y1289.513 Z2.5
G3 X323.711 Y1288.72 Z2.471 I1.283 J-0.793
X326.727 Y1288.72 Z2.305 I1.508 J0
X323.711 Y1288.72 Z2.14 I-1.508 J0
X326.727 Y1288.72 Z1.974 I1.508 J0
X323.711 Y1288.72 Z1.809 I-1.508 J0
X326.727 Y1288.72 Z1.644 I1.508 J0
X323.711 Y1288.72 Z1.478 I-1.508 J0
X326.727 Y1288.72 Z1.313 I1.508 J0
X323.711 Y1288.72 Z1.147 I-1.508 J0
X326.727 Y1288.72 Z0.982 I1.508 J0
X323.711 Y1288.72 Z0.816 I-1.508 J0
X326.727 Y1288.72 Z0.651 I1.508 J0
X323.711 Y1288.72 Z0.485 I-1.508 J0
X326.727 Y1288.72 Z0.32 I1.508 J0
X323.711 Y1288.72 Z0.155 I-1.508 J0
X326.727 Y1288.72 Z-0.011 I1.508 J0
X323.711 Y1288.72 Z-0.176 I-1.508 J0
X326.727 Y1288.72 Z-0.342 I1.508 J0
X323.711 Y1288.72 Z-0.507 I-1.508 J0
X326.727 Y1288.72 Z-0.673 I1.508 J0
X323.711 Y1288.72 Z-0.838 I-1.508 J0
X326.727 Y1288.72 Z-1.004 I1.508 J0
X323.711 Y1288.72 Z-1.169 I-1.508 J0
X326.727 Y1288.72 Z-1.335 I1.508 J0
X323.711 Y1288.72 Z-1.5 I-1.508 J0
X325.799 Y1288.72 I1.044 J0
G1 X325.801 Y1307.32 F1000
X325.807 Y1307.434
X325.818 Y1307.547
G3 X325.542 Y1307.847 I-0.276 J0.024
G1 X325.02
G3 X324.744 Y1307.547 I0 J-0.277
G1 X324.755 Y1307.434
X324.761 Y1307.32
Y1288.72
X324.755 Y1288.606
X324.744 Y1288.493
G3 X325.02 Y1288.193 I0.276 J-0.023
G1 X325.281
G2 X325.567 Y1288.178 I0 J-2.673
G3 X325.823 Y1288.434 I0.025 J0.232
G1 X325.807 Y1288.577
X325.801 Y1288.648
X325.799 Y1288.72
G3 X324.211 Y1289.105 I-0.841 J0
G2 X323.324 Y1287.733 I-7.464 J3.85
X322.081 Y1287.132 I-1.243 J0.987
G1 X303.481
G2 X301.893 Y1288.72 I0 J1.588
G1 Y1307.32
G2 X303.481 Y1308.907 I1.587 J0
G1 X322.081
G2 X323.668 Y1307.32 I0 J-1.588
G1 Y1288.72
G2 X323.324 Y1287.733 I-1.587 J0
G1 X323.291 Y1287.682 Z-1.488 F600
X323.268 Y1287.626 Z-1.476
X323.258 Y1287.575 Z-1.441
X323.256 Y1287.524 Z-1.407
X323.265 Y1287.456 Z-1.304
X323.272 Y1287.433 Z-1.183
Z5
G0 X327.445 Y1284.362
G1 Z2.817 F300
X327.462 Y1284.346 Z2.698
X327.512 Y1284.302 Z2.597
X327.59 Y1284.241 Z2.527
X327.688 Y1284.175 Z2.5
G3 X329.274 Y1286.741 Z2.335 I0.793 J1.283
X327.688 Y1284.175 Z2.169 I-0.793 J-1.283
X329.274 Y1286.741 Z2.004 I0.793 J1.283
X327.688 Y1284.175 Z1.838 I-0.793 J-1.283
X329.274 Y1286.741 Z1.673 I0.793 J1.283
X327.688 Y1284.175 Z1.507 I-0.793 J-1.283
X329.274 Y1286.741 Z1.342 I0.793 J1.283
X327.688 Y1284.175 Z1.176 I-0.793 J-1.283
X329.274 Y1286.741 Z1.011 I0.793 J1.283
X327.688 Y1284.175 Z0.845 I-0.793 J-1.283
X329.274 Y1286.741 Z0.68 I0.793 J1.283
X327.688 Y1284.175 Z0.515 I-0.793 J-1.283
X329.274 Y1286.741 Z0.349 I0.793 J1.283
X327.688 Y1284.175 Z0.184 I-0.793 J-1.283
X329.274 Y1286.741 Z0.018 I0.793 J1.283
X327.688 Y1284.175 Z-0.147 I-0.793 J-1.283
X329.274 Y1286.741 Z-0.313 I0.793 J1.283
X327.688 Y1284.175 Z-0.478 I-0.793 J-1.283
X329.274 Y1286.741 Z-0.644 I0.793 J1.283
X327.688 Y1284.175 Z-0.809 I-0.793 J-1.283
X329.274 Y1286.741 Z-0.974 I0.793 J1.283
X327.688 Y1284.175 Z-1.14 I-0.793 J-1.283
X329.274 Y1286.741 Z-1.305 I0.793 J1.283
X327.688 Y1284.175 Z-1.471 I-0.793 J-1.283
X328.481 Y1283.95 Z-1.5 I0.793 J1.283
X328.481 Y1286.038 I0 J1.044
G1 X328.409 Y1286.04 F1000
X328.338 Y1286.047
X328.195 Y1286.062
G3 X327.939 Y1285.806 I-0.025 J-0.232
G2 X327.954 Y1285.52 I-2.658 J-0.286
G1 Y1285.259
G3 X328.254 Y1284.983 I0.277 J0
G1 X328.367 Y1284.994
X328.481 Y1285
X347.081
X347.195 Y1284.994
X347.308 Y1284.983
G3 X347.608 Y1285.259 I0.023 J0.276
G1 Y1285.781
G3 X347.308 Y1286.057 I-0.277 J0
G1 X347.195 Y1286.046
X347.081 Y1286.04
X328.481 Y1286.038
G2 X327.552 Y1286.793 I0 J0.949
G3 X327.117 Y1287.908 I-3.567 J-0.748
G2 X326.893 Y1288.72 I1.364 J0.812
G1 Y1307.32
G2 X328.481 Y1308.907 I1.587 J0
G1 X347.081
G2 X348.668 Y1307.32 I0 J-1.588
G1 Y1288.72
G2 X347.081 Y1287.132 I-1.587 J0
G1 X328.481
G2 X327.117 Y1287.908 I0 J1.588
G1 X327.081 Y1287.957 Z-1.488 F600
X327.036 Y1287.998 Z-1.476
X326.993 Y1288.026 Z-1.441
X326.946 Y1288.047 Z-1.407
X326.879 Y1288.062 Z-1.304
X326.855 Y1288.063 Z-1.183
Z5
G0 X348.117 Y1261.678
G1 Z2.817 F300
X348.1 Y1261.694 Z2.698
X348.05 Y1261.737 Z2.597
X347.972 Y1261.799 Z2.527
X347.874 Y1261.865 Z2.5
G3 X346.288 Y1259.299 Z2.335 I-0.793 J-1.283
X347.874 Y1261.865 Z2.169 I0.793 J1.283
X346.288 Y1259.299 Z2.004 I-0.793 J-1.283
X347.874 Y1261.864 Z1.838 I0.793 J1.283
X346.288 Y1259.299 Z1.673 I-0.793 J-1.283
X347.874 Y1261.864 Z1.507 I0.793 J1.283
X346.288 Y1259.299 Z1.342 I-0.793 J-1.283
X347.874 Y1261.864 Z1.176 I0.793 J1.283
X346.288 Y1259.299 Z1.011 I-0.793 J-1.283
X347.874 Y1261.864 Z0.845 I0.793 J1.283
X346.288 Y1259.299 Z0.68 I-0.793 J-1.283
X347.874 Y1261.864 Z0.515 I0.793 J1.283
X346.288 Y1259.299 Z0.349 I-0.793 J-1.283
X347.874 Y1261.864 Z0.184 I0.793 J1.283
X346.288 Y1259.299 Z0.018 I-0.793 J-1.283
X347.874 Y1261.864 Z-0.147 I0.793 J1.283
X346.288 Y1259.299 Z-0.313 I-0.793 J-1.283
X347.874 Y1261.864 Z-0.478 I0.793 J1.283
X346.288 Y1259.299 Z-0.644 I-0.793 J-1.283
X347.874 Y1261.864 Z-0.809 I0.793 J1.283
X346.288 Y1259.299 Z-0.974 I-0.793 J-1.283
X347.874 Y1261.864 Z-1.14 I0.793 J1.283
X346.288 Y1259.299 Z-1.305 I-0.793 J-1.283
X347.874 Y1261.864 Z-1.471 I0.793 J1.283
X347.081 Y1262.09 Z-1.5 I-0.793 J-1.283
X347.081 Y1260 I0 J-1.045
G1 X347.195 Y1259.994 F1000
X347.308 Y1259.983
G3 X347.608 Y1260.259 I0.023 J0.276
G1 Y1260.781
G3 X347.308 Y1261.057 I-0.277 J0
G1 X347.195 Y1261.046
X347.081 Y1261.04
X328.481
X328.367 Y1261.046
X328.254 Y1261.057
G3 X327.954 Y1260.781 I-0.023 J-0.276
G1 Y1260.259
G3 X328.254 Y1259.983 I0.277 J0
G1 X328.367 Y1259.994
X328.481 Y1260
X347.081
G2 X348.009 Y1259.247 I0 J-0.948
G3 X348.444 Y1258.134 I3.543 J0.744
G2 X348.668 Y1257.32 I-1.363 J-0.814
G1 Y1238.72
G2 X347.081 Y1237.132 I-1.587 J0
G1 X328.481
G2 X326.893 Y1238.72 I0 J1.588
G1 Y1257.32
G2 X328.481 Y1258.907 I1.587 J0
G1 X347.081
G2 X348.444 Y1258.134 I0 J-1.588
G1 X348.502 Y1258.028 Z-1.476 F600
X348.545 Y1257.934 Z-1.407
X348.57 Y1257.87 Z-1.304
X348.578 Y1257.847 Z-1.183
Z5
G0 X348.282 Y1259.484
G1 Z2.817 F300
X348.297 Y1259.501 Z2.698
X348.341 Y1259.551 Z2.597
X348.402 Y1259.629 Z2.527
X348.468 Y1259.727 Z2.5
G3 X345.903 Y1261.313 Z2.335 I-1.283 J0.793
X348.468 Y1259.727 Z2.169 I1.283 J-0.793
X345.903 Y1261.313 Z2.004 I-1.283 J0.793
X348.468 Y1259.727 Z1.838 I1.283 J-0.793
X345.903 Y1261.313 Z1.673 I-1.283 J0.793
X348.468 Y1259.727 Z1.507 I1.283 J-0.793
X345.903 Y1261.313 Z1.342 I-1.283 J0.793
X348.468 Y1259.727 Z1.176 I1.283 J-0.793
X345.903 Y1261.313 Z1.011 I-1.283 J0.793
X348.468 Y1259.727 Z0.845 I1.283 J-0.793
X345.903 Y1261.313 Z0.68 I-1.283 J0.793
X348.468 Y1259.727 Z0.515 I1.283 J-0.793
X345.903 Y1261.313 Z0.349 I-1.283 J0.793
X348.468 Y1259.727 Z0.184 I1.283 J-0.793
X345.903 Y1261.313 Z0.018 I-1.283 J0.793
X348.468 Y1259.727 Z-0.147 I1.283 J-0.793
X345.903 Y1261.313 Z-0.313 I-1.283 J0.793
X348.468 Y1259.727 Z-0.478 I1.283 J-0.793
X345.903 Y1261.313 Z-0.644 I-1.283 J0.793
X348.468 Y1259.727 Z-0.809 I1.283 J-0.793
X345.903 Y1261.313 Z-0.974 I-1.283 J0.793
X348.468 Y1259.727 Z-1.14 I1.283 J-0.793
X345.903 Y1261.313 Z-1.305 I-1.283 J0.793
X348.468 Y1259.727 Z-1.471 I1.283 J-0.793
X348.694 Y1260.52 Z-1.5 I-1.283 J0.793
G1 Y1308.932 F1000
X347.081
X251.868
Y1287.108
X325.281
G2 X326.868 Y1285.52 I0 J-1.588
G1 Y1237.108
X348.694
Y1260.52
X348.688 Y1260.58 Z-1.488 F600
X348.671 Y1260.639 Z-1.476
X348.648 Y1260.685 Z-1.441
X348.617 Y1260.726 Z-1.407
X348.567 Y1260.773 Z-1.304
X348.548 Y1260.787 Z-1.183
Z5
G0 X348.117 Y1261.721
G1 Z2.817 F300
X348.1 Y1261.736 Z2.698
X348.05 Y1261.78 Z2.597
X347.972 Y1261.841 Z2.527
X347.874 Y1261.907 Z2.5
G3 X346.288 Y1259.342 Z2.335 I-0.793 J-1.283
X347.874 Y1261.907 Z2.169 I0.793 J1.283
X346.288 Y1259.342 Z2.004 I-0.793 J-1.283
X347.874 Y1261.907 Z1.838 I0.793 J1.283
X346.288 Y1259.342 Z1.673 I-0.793 J-1.283
X347.874 Y1261.907 Z1.507 I0.793 J1.283
X346.288 Y1259.342 Z1.342 I-0.793 J-1.283
X347.874 Y1261.907 Z1.176 I0.793 J1.283
X346.288 Y1259.342 Z1.011 I-0.793 J-1.283
X347.874 Y1261.907 Z0.845 I0.793 J1.283
X346.288 Y1259.342 Z0.68 I-0.793 J-1.283
X347.874 Y1261.907 Z0.515 I0.793 J1.283
X346.288 Y1259.342 Z0.349 I-0.793 J-1.283
X347.874 Y1261.907 Z0.184 I0.793 J1.283
X346.288 Y1259.342 Z0.018 I-0.793 J-1.283
X347.874 Y1261.907 Z-0.147 I0.793 J1.283
X346.288 Y1259.342 Z-0.313 I-0.793 J-1.283
X347.874 Y1261.907 Z-0.478 I0.793 J1.283
X346.288 Y1259.342 Z-0.644 I-0.793 J-1.283
X347.874 Y1261.907 Z-0.809 I0.793 J1.283
X346.288 Y1259.342 Z-0.974 I-0.793 J-1.283
X347.874 Y1261.907 Z-1.14 I0.793 J1.283
X346.288 Y1259.342 Z-1.305 I-0.793 J-1.283
X347.874 Y1261.907 Z-1.471 I0.793 J1.283
X347.081 Y1262.132 Z-1.5 I-0.793 J-1.283
G1 X328.481 F1000
G2 X326.893 Y1263.72 I0 J1.588
G1 Y1282.32
G2 X328.481 Y1283.907 I1.587 J0
G1 X347.081
G2 X348.668 Y1282.32 I0 J-1.588
G1 Y1263.72
G2 X347.081 Y1262.132 I-1.587 J0
G1 X347.021 Y1262.127 Z-1.488 F600
X346.962 Y1262.109 Z-1.476
X346.916 Y1262.087 Z-1.441
X346.875 Y1262.056 Z-1.407
X346.828 Y1262.006 Z-1.304
X346.814 Y1261.987 Z-1.183
Z5
G0 X348.117 Y1261.678
G1 Z1.317 F300
X348.1 Y1261.694 Z1.198
X348.05 Y1261.737 Z1.097
X347.972 Y1261.799 Z1.027
X347.874 Y1261.865 Z1
G3 X346.288 Y1259.299 Z0.835 I-0.793 J-1.283
X347.874 Y1261.865 Z0.669 I0.793 J1.283
X346.288 Y1259.299 Z0.504 I-0.793 J-1.283
X347.874 Y1261.864 Z0.338 I0.793 J1.283
X346.288 Y1259.299 Z0.173 I-0.793 J-1.283
X347.874 Y1261.864 Z0.007 I0.793 J1.283
X346.288 Y1259.299 Z-0.158 I-0.793 J-1.283
X347.874 Y1261.864 Z-0.324 I0.793 J1.283
X346.288 Y1259.299 Z-0.489 I-0.793 J-1.283
X347.874 Y1261.864 Z-0.655 I0.793 J1.283
X346.288 Y1259.299 Z-0.82 I-0.793 J-1.283
X347.874 Y1261.864 Z-0.985 I0.793 J1.283
X346.288 Y1259.299 Z-1.151 I-0.793 J-1.283
X347.874 Y1261.864 Z-1.316 I0.793 J1.283
X346.288 Y1259.299 Z-1.482 I-0.793 J-1.283
X347.874 Y1261.864 Z-1.647 I0.793 J1.283
X346.288 Y1259.299 Z-1.813 I-0.793 J-1.283
X347.874 Y1261.864 Z-1.978 I0.793 J1.283
X346.288 Y1259.299 Z-2.144 I-0.793 J-1.283
X347.874 Y1261.864 Z-2.309 I0.793 J1.283
X346.288 Y1259.299 Z-2.474 I-0.793 J-1.283
X347.874 Y1261.864 Z-2.64 I0.793 J1.283
X346.288 Y1259.299 Z-2.805 I-0.793 J-1.283
X347.874 Y1261.864 Z-2.971 I0.793 J1.283
X347.081 Y1262.09 Z-3 I-0.793 J-1.283
X347.081 Y1260 I0 J-1.045
G1 X347.195 Y1259.994 F1000
X347.308 Y1259.983
G3 X347.608 Y1260.259 I0.023 J0.276
G1 Y1260.781
G3 X347.308 Y1261.057 I-0.277 J0
G1 X347.195 Y1261.046
X347.081 Y1261.04
X328.481
X328.367 Y1261.046
X328.254 Y1261.057
G3 X327.954 Y1260.781 I-0.023 J-0.276
G1 Y1260.259
G3 X328.254 Y1259.983 I0.277 J0
G1 X328.367 Y1259.994
X328.481 Y1260
X347.081
G2 X348.009 Y1259.247 I0 J-0.948
G3 X348.444 Y1258.134 I3.543 J0.744
G2 X348.668 Y1257.32 I-1.363 J-0.814
G1 Y1238.72
G2 X347.081 Y1237.132 I-1.587 J0
G1 X328.481
G2 X326.893 Y1238.72 I0 J1.588
G1 Y1257.32
G2 X328.481 Y1258.907 I1.587 J0
G1 X347.081
G2 X348.444 Y1258.134 I0 J-1.588
G1 X348.502 Y1258.028 Z-2.976 F600
X348.545 Y1257.934 Z-2.907
X348.57 Y1257.87 Z-2.804
X348.578 Y1257.847 Z-2.683
Z5
G0 X327.445 Y1284.362
G1 Z1.317 F300
X327.462 Y1284.346 Z1.198
X327.512 Y1284.302 Z1.097
X327.59 Y1284.241 Z1.027
X327.688 Y1284.175 Z1
G3 X329.274 Y1286.741 Z0.835 I0.793 J1.283
X327.688 Y1284.175 Z0.669 I-0.793 J-1.283
X329.274 Y1286.741 Z0.504 I0.793 J1.283
X327.688 Y1284.175 Z0.338 I-0.793 J-1.283
X329.274 Y1286.741 Z0.173 I0.793 J1.283
X327.688 Y1284.175 Z0.007 I-0.793 J-1.283
X329.274 Y1286.741 Z-0.158 I0.793 J1.283
X327.688 Y1284.175 Z-0.324 I-0.793 J-1.283
X329.274 Y1286.741 Z-0.489 I0.793 J1.283
X327.688 Y1284.175 Z-0.655 I-0.793 J-1.283
X329.274 Y1286.741 Z-0.82 I0.793 J1.283
X327.688 Y1284.175 Z-0.985 I-0.793 J-1.283
X329.274 Y1286.741 Z-1.151 I0.793 J1.283
X327.688 Y1284.175 Z-1.316 I-0.793 J-1.283
X329.274 Y1286.741 Z-1.482 I0.793 J1.283
X327.688 Y1284.175 Z-1.647 I-0.793 J-1.283
X329.274 Y1286.741 Z-1.813 I0.793 J1.283
X327.688 Y1284.175 Z-1.978 I-0.793 J-1.283
X329.274 Y1286.741 Z-2.144 I0.793 J1.283
X327.688 Y1284.175 Z-2.309 I-0.793 J-1.283
X329.274 Y1286.741 Z-2.474 I0.793 J1.283
X327.688 Y1284.175 Z-2.64 I-0.793 J-1.283
X329.274 Y1286.741 Z-2.805 I0.793 J1.283
X327.688 Y1284.175 Z-2.971 I-0.793 J-1.283
X328.481 Y1283.95 Z-3 I0.793 J1.283
X328.481 Y1286.038 I0 J1.044
G1 X328.409 Y1286.04 F1000
X328.338 Y1286.047
X328.195 Y1286.062
G3 X327.939 Y1285.806 I-0.025 J-0.232
G2 X327.954 Y1285.52 I-2.658 J-0.286
G1 Y1285.259
G3 X328.254 Y1284.983 I0.277 J0
G1 X328.367 Y1284.994
X328.481 Y1285
X347.081
X347.195 Y1284.994
X347.308 Y1284.983
G3 X347.608 Y1285.259 I0.023 J0.276
G1 Y1285.781
G3 X347.308 Y1286.057 I-0.277 J0
G1 X347.195 Y1286.046
X347.081 Y1286.04
X328.481 Y1286.038
G3 X327.948 Y1284.44 I0 J-0.888
X329.546 Y1283.907 I1.598 J2.13
G1 X347.081
G2 X348.668 Y1282.32 I0 J-1.588
G1 Y1263.72
G2 X347.081 Y1262.132 I-1.587 J0
G1 X328.481
G2 X326.893 Y1263.72 I0 J1.588
G1 Y1282.32
G2 X328.481 Y1283.907 I1.587 J0
G1 X329.546
X329.607 Y1283.913 Z-2.988 F600
X329.665 Y1283.93 Z-2.976
X329.711 Y1283.953 Z-2.941
X329.753 Y1283.984 Z-2.907
X329.8 Y1284.034 Z-2.804
X329.814 Y1284.053 Z-2.683
Z5
G0 X324.123 Y1289.756
G1 Z1.317 F300
X324.107 Y1289.739 Z1.198
X324.064 Y1289.689 Z1.097
X324.002 Y1289.611 Z1.027
X323.936 Y1289.513 Z1
G3 X323.711 Y1288.72 Z0.971 I1.283 J-0.793
X326.727 Y1288.72 Z0.805 I1.508 J0
X323.711 Y1288.72 Z0.64 I-1.508 J0
X326.727 Y1288.72 Z0.474 I1.508 J0
X323.711 Y1288.72 Z0.309 I-1.508 J0
X326.727 Y1288.72 Z0.144 I1.508 J0
X323.711 Y1288.72 Z-0.022 I-1.508 J0
X326.727 Y1288.72 Z-0.187 I1.508 J0
X323.711 Y1288.72 Z-0.353 I-1.508 J0
X326.727 Y1288.72 Z-0.518 I1.508 J0
X323.711 Y1288.72 Z-0.684 I-1.508 J0
X326.727 Y1288.72 Z-0.849 I1.508 J0
X323.711 Y1288.72 Z-1.015 I-1.508 J0
X326.727 Y1288.72 Z-1.18 I1.508 J0
X323.711 Y1288.72 Z-1.345 I-1.508 J0
X326.727 Y1288.72 Z-1.511 I1.508 J0
X323.711 Y1288.72 Z-1.676 I-1.508 J0
X326.727 Y1288.72 Z-1.842 I1.508 J0
X323.711 Y1288.72 Z-2.007 I-1.508 J0
X326.727 Y1288.72 Z-2.173 I1.508 J0
X323.711 Y1288.72 Z-2.338 I-1.508 J0
X326.727 Y1288.72 Z-2.504 I1.508 J0
X323.711 Y1288.72 Z-2.669 I-1.508 J0
X326.727 Y1288.72 Z-2.835 I1.508 J0
X323.711 Y1288.72 Z-3 I-1.508 J0
X325.799 Y1288.72 I1.044 J0
G1 X325.801 Y1307.32 F1000
X325.807 Y1307.434
X325.818 Y1307.547
G3 X325.542 Y1307.847 I-0.276 J0.024
G1 X325.02
G3 X324.744 Y1307.547 I0 J-0.277
G1 X324.755 Y1307.434
X324.761 Y1307.32
Y1288.72
X324.755 Y1288.606
X324.744 Y1288.493
G3 X325.02 Y1288.193 I0.276 J-0.023
G1 X325.281
G2 X325.567 Y1288.178 I0 J-2.673
G3 X325.823 Y1288.434 I0.025 J0.232
G1 X325.807 Y1288.577
X325.801 Y1288.648
X325.799 Y1288.72
G2 X326.346 Y1289.541 I0.889 J0
G3 X326.893 Y1290.361 I-0.342 J0.821
G1 Y1307.32
G2 X328.481 Y1308.907 I1.587 J0
G1 X347.081
G2 X348.668 Y1307.32 I0 J-1.588
G1 Y1288.72
G2 X347.081 Y1287.132 I-1.587 J0
G1 X328.481
G2 X326.893 Y1288.72 I0 J1.588
G1 Y1290.361
X326.888 Y1290.422 Z-2.988 F600
X326.871 Y1290.48 Z-2.976
X326.848 Y1290.526 Z-2.941
X326.817 Y1290.568 Z-2.907
X326.767 Y1290.615 Z-2.804
X326.748 Y1290.629 Z-2.683
Z5
G0 X299.125 Y1289.756
G1 Z1.317 F300
X299.11 Y1289.739 Z1.198
X299.066 Y1289.689 Z1.097
X299.005 Y1289.611 Z1.027
X298.939 Y1289.513 Z1
G3 X301.504 Y1287.927 Z0.835 I1.283 J-0.793
X298.939 Y1289.513 Z0.669 I-1.283 J0.793
X301.504 Y1287.927 Z0.504 I1.283 J-0.793
X298.939 Y1289.513 Z0.338 I-1.283 J0.793
X301.504 Y1287.927 Z0.173 I1.283 J-0.793
X298.939 Y1289.513 Z0.007 I-1.283 J0.793
X301.504 Y1287.927 Z-0.158 I1.283 J-0.793
X298.939 Y1289.513 Z-0.324 I-1.283 J0.793
X301.504 Y1287.927 Z-0.489 I1.283 J-0.793
X298.939 Y1289.513 Z-0.655 I-1.283 J0.793
X301.504 Y1287.927 Z-0.82 I1.283 J-0.793
X298.939 Y1289.513 Z-0.985 I-1.283 J0.793
X301.504 Y1287.927 Z-1.151 I1.283 J-0.793
X298.939 Y1289.513 Z-1.316 I-1.283 J0.793
X301.504 Y1287.927 Z-1.482 I1.283 J-0.793
X298.939 Y1289.513 Z-1.647 I-1.283 J0.793
X301.504 Y1287.927 Z-1.813 I1.283 J-0.793
X298.939 Y1289.513 Z-1.978 I-1.283 J0.793
X301.504 Y1287.927 Z-2.144 I1.283 J-0.793
X298.939 Y1289.513 Z-2.309 I-1.283 J0.793
X301.504 Y1287.927 Z-2.474 I1.283 J-0.793
X298.939 Y1289.513 Z-2.64 I-1.283 J0.793
X301.504 Y1287.927 Z-2.805 I1.283 J-0.793
X298.939 Y1289.513 Z-2.971 I-1.283 J0.793
X298.714 Y1288.72 Z-3 I1.283 J-0.793
X300.803 Y1288.72 I1.045 J0
G1 Y1307.32 F1000
X300.809 Y1307.434
X300.82 Y1307.548
G3 X300.544 Y1307.849 I-0.276 J0.024
G1 X300.023
G3 X299.747 Y1307.548 I0 J-0.277
G1 X299.758 Y1307.434
X299.764 Y1307.32
Y1288.72
X299.758 Y1288.606
X299.747 Y1288.491
G3 X300.023 Y1288.191 I0.276 J-0.024
G1 X300.544
G3 X300.82 Y1288.491 I0 J0.277
G1 X300.809 Y1288.606
X300.803 Y1288.72
G2 X301.348 Y1289.538 I0.886 J0
G3 X301.893 Y1290.356 I-0.341 J0.818
G1 Y1307.32
G2 X303.481 Y1308.907 I1.587 J0
G1 X322.081
G2 X323.668 Y1307.32 I0 J-1.588
G1 Y1288.72
G2 X322.081 Y1287.132 I-1.587 J0
G1 X303.481
G2 X301.893 Y1288.72 I0 J1.588
G1 Y1290.356
X301.888 Y1290.417 Z-2.988 F600
X301.871 Y1290.475 Z-2.976
X301.848 Y1290.521 Z-2.941
X301.817 Y1290.563 Z-2.907
X301.767 Y1290.61 Z-2.804
X301.748 Y1290.623 Z-2.683
Z5
G0 X276.442 Y1287.684
G1 Z1.317 F300
X276.457 Y1287.701 Z1.198
X276.501 Y1287.751 Z1.097
X276.562 Y1287.829 Z1.027
X276.628 Y1287.927 Z1
G3 X274.063 Y1289.513 Z0.835 I-1.283 J0.793
X276.628 Y1287.927 Z0.669 I1.283 J-0.793
X274.063 Y1289.513 Z0.504 I-1.283 J0.793
X276.628 Y1287.927 Z0.338 I1.283 J-0.793
X274.063 Y1289.513 Z0.173 I-1.283 J0.793
X276.628 Y1287.927 Z0.007 I1.283 J-0.793
X274.063 Y1289.513 Z-0.158 I-1.283 J0.793
X276.628 Y1287.927 Z-0.324 I1.283 J-0.793
X274.063 Y1289.513 Z-0.489 I-1.283 J0.793
X276.628 Y1287.927 Z-0.655 I1.283 J-0.793
X274.063 Y1289.513 Z-0.82 I-1.283 J0.793
X276.628 Y1287.927 Z-0.985 I1.283 J-0.793
X274.063 Y1289.513 Z-1.151 I-1.283 J0.793
X276.628 Y1287.927 Z-1.316 I1.283 J-0.793
X274.063 Y1289.513 Z-1.482 I-1.283 J0.793
X276.628 Y1287.927 Z-1.647 I1.283 J-0.793
X274.063 Y1289.513 Z-1.813 I-1.283 J0.793
X276.628 Y1287.927 Z-1.978 I1.283 J-0.793
X274.063 Y1289.513 Z-2.144 I-1.283 J0.793
X276.628 Y1287.927 Z-2.309 I1.283 J-0.793
X274.063 Y1289.513 Z-2.474 I-1.283 J0.793
X276.628 Y1287.927 Z-2.64 I1.283 J-0.793
X274.063 Y1289.513 Z-2.805 I-1.283 J0.793
X276.628 Y1287.927 Z-2.971 I1.283 J-0.793
X276.853 Y1288.72 Z-3 I-1.283 J0.793
X274.764 Y1288.72 I-1.045 J0
G1 X274.758 Y1288.606 F1000
X274.747 Y1288.491
G3 X275.023 Y1288.191 I0.276 J-0.024
G1 X275.544
G3 X275.82 Y1288.491 I0 J0.277
G1 X275.809 Y1288.606
X275.803 Y1288.72
Y1307.32
X275.809 Y1307.434
X275.82 Y1307.548
G3 X275.544 Y1307.849 I-0.276 J0.024
G1 X275.023
G3 X274.747 Y1307.548 I0 J-0.277
G1 X274.758 Y1307.434
X274.764 Y1307.32
Y1288.72
G2 X274.013 Y1287.794 I-0.946 J0
G3 X272.902 Y1287.358 I0.741 J-3.524
G2 X272.086 Y1287.132 I-0.816 J1.362
G1 X253.481
G2 X251.893 Y1288.72 I0 J1.588
G1 Y1307.32
G2 X253.481 Y1308.907 I1.588 J0
G1 X272.086
G2 X273.673 Y1307.32 I0 J-1.588
G1 Y1288.72
G2 X272.902 Y1287.358 I-1.587 J0
G1 X272.796 Y1287.3 Z-2.976 F600
X272.702 Y1287.257 Z-2.907
X272.638 Y1287.232 Z-2.804
X272.616 Y1287.223 Z-2.683
Z5
G0 X274.248 Y1287.519
G1 Z1.317 F300
X274.265 Y1287.504 Z1.198
X274.314 Y1287.46 Z1.097
X274.393 Y1287.399 Z1.027
X274.49 Y1287.333 Z1
G3 X276.077 Y1289.898 Z0.835 I0.793 J1.283
X274.49 Y1287.333 Z0.669 I-0.793 J-1.283
X276.077 Y1289.898 Z0.504 I0.793 J1.283
X274.49 Y1287.333 Z0.338 I-0.793 J-1.283
X276.077 Y1289.898 Z0.173 I0.793 J1.283
X274.49 Y1287.333 Z0.007 I-0.793 J-1.283
X276.077 Y1289.898 Z-0.158 I0.793 J1.283
X274.49 Y1287.333 Z-0.324 I-0.793 J-1.283
X276.077 Y1289.898 Z-0.489 I0.793 J1.283
X274.49 Y1287.333 Z-0.655 I-0.793 J-1.283
X276.077 Y1289.898 Z-0.82 I0.793 J1.283
X274.49 Y1287.333 Z-0.985 I-0.793 J-1.283
X276.077 Y1289.898 Z-1.151 I0.793 J1.283
X274.49 Y1287.333 Z-1.316 I-0.793 J-1.283
X276.077 Y1289.898 Z-1.482 I0.793 J1.283
X274.49 Y1287.333 Z-1.647 I-0.793 J-1.283
X276.077 Y1289.898 Z-1.813 I0.793 J1.283
X274.49 Y1287.333 Z-1.978 I-0.793 J-1.283
X276.077 Y1289.898 Z-2.144 I0.793 J1.283
X274.49 Y1287.333 Z-2.309 I-0.793 J-1.283
X276.077 Y1289.898 Z-2.474 I0.793 J1.283
X274.49 Y1287.333 Z-2.64 I-0.793 J-1.283
X276.077 Y1289.898 Z-2.805 I0.793 J1.283
X274.49 Y1287.333 Z-2.971 I-0.793 J-1.283
X275.284 Y1287.108 Z-3 I0.793 J1.283
G1 X325.281 F1000
G2 X326.868 Y1285.52 I0 J-1.588
G1 Y1237.108
X348.694
Y1308.932
X347.081
X251.868
Y1287.108
X275.284
X275.344 Y1287.113 Z-2.988 F600
X275.402 Y1287.13 Z-2.976
X275.448 Y1287.153 Z-2.941
X275.49 Y1287.184 Z-2.907
X275.537 Y1287.234 Z-2.804
X275.551 Y1287.253 Z-2.683
Z5
G0 X276.482 Y1287.684
G1 Z1.317 F300
X276.497 Y1287.701 Z1.198
X276.541 Y1287.751 Z1.097
X276.602 Y1287.829 Z1.027
X276.668 Y1287.927 Z1
G3 X274.103 Y1289.513 Z0.835 I-1.283 J0.793
X276.668 Y1287.927 Z0.669 I1.283 J-0.793
X274.103 Y1289.513 Z0.504 I-1.283 J0.793
X276.668 Y1287.927 Z0.338 I1.283 J-0.793
X274.103 Y1289.513 Z0.173 I-1.283 J0.793
X276.668 Y1287.927 Z0.007 I1.283 J-0.793
X274.103 Y1289.513 Z-0.158 I-1.283 J0.793
X276.668 Y1287.927 Z-0.324 I1.283 J-0.793
X274.103 Y1289.513 Z-0.489 I-1.283 J0.793
X276.668 Y1287.927 Z-0.655 I1.283 J-0.793
X274.103 Y1289.513 Z-0.82 I-1.283 J0.793
X276.668 Y1287.927 Z-0.985 I1.283 J-0.793
X274.103 Y1289.513 Z-1.151 I-1.283 J0.793
X276.668 Y1287.927 Z-1.316 I1.283 J-0.793
X274.103 Y1289.513 Z-1.482 I-1.283 J0.793
X276.668 Y1287.927 Z-1.647 I1.283 J-0.793
X274.103 Y1289.513 Z-1.813 I-1.283 J0.793
X276.668 Y1287.927 Z-1.978 I1.283 J-0.793
X274.103 Y1289.513 Z-2.144 I-1.283 J0.793
X276.668 Y1287.927 Z-2.309 I1.283 J-0.793
X274.103 Y1289.513 Z-2.474 I-1.283 J0.793
X276.668 Y1287.927 Z-2.64 I1.283 J-0.793
X274.103 Y1289.513 Z-2.805 I-1.283 J0.793
X276.668 Y1287.927 Z-2.971 I1.283 J-0.793
X276.893 Y1288.72 Z-3 I-1.283 J0.793
G1 Y1307.32 F1000
G2 X278.481 Y1308.907 I1.587 J0
G1 X297.086
G2 X298.673 Y1307.32 I0 J-1.588
G1 Y1288.72
G2 X297.086 Y1287.132 I-1.587 J0
G1 X278.481
G2 X276.893 Y1288.72 I0 J1.588
G1 X276.888 Y1288.78 Z-2.988 F600
X276.871 Y1288.839 Z-2.976
X276.848 Y1288.885 Z-2.941
X276.817 Y1288.926 Z-2.907
X276.767 Y1288.973 Z-2.804
X276.748 Y1288.987 Z-2.683
Z5
G0 Z15

(Poche 2D2)
X497.273 Y1272.612
Z15
Z5
G1 Z2.817 F300
X497.289 Y1272.629 Z2.698
X497.332 Y1272.678 Z2.597
X497.394 Y1272.756 Z2.527
X497.46 Y1272.854 Z2.5
G3 X494.894 Y1274.44 Z2.335 I-1.283 J0.793
X497.46 Y1272.854 Z2.169 I1.283 J-0.793
X494.894 Y1274.44 Z2.004 I-1.283 J0.793
X497.46 Y1272.854 Z1.838 I1.283 J-0.793
X494.894 Y1274.44 Z1.673 I-1.283 J0.793
X497.46 Y1272.854 Z1.507 I1.283 J-0.793
X494.894 Y1274.44 Z1.342 I-1.283 J0.793
X497.46 Y1272.854 Z1.176 I1.283 J-0.793
X494.894 Y1274.44 Z1.011 I-1.283 J0.793
X497.46 Y1272.854 Z0.845 I1.283 J-0.793
X494.894 Y1274.44 Z0.68 I-1.283 J0.793
X497.46 Y1272.854 Z0.515 I1.283 J-0.793
X494.894 Y1274.44 Z0.349 I-1.283 J0.793
X497.46 Y1272.854 Z0.184 I1.283 J-0.793
X494.894 Y1274.44 Z0.018 I-1.283 J0.793
X497.46 Y1272.854 Z-0.147 I1.283 J-0.793
X494.894 Y1274.44 Z-0.313 I-1.283 J0.793
X497.46 Y1272.854 Z-0.478 I1.283 J-0.793
X494.894 Y1274.44 Z-0.644 I-1.283 J0.793
X497.46 Y1272.854 Z-0.809 I1.283 J-0.793
X494.894 Y1274.44 Z-0.974 I-1.283 J0.793
X497.46 Y1272.854 Z-1.14 I1.283 J-0.793
X494.894 Y1274.44 Z-1.305 I-1.283 J0.793
X497.46 Y1272.854 Z-1.471 I1.283 J-0.793
X497.685 Y1273.647 Z-1.5 I-1.283 J0.793
X495.596 Y1273.65 I-1.044 J0.001
G1 X495.59 Y1273.535 F1000
X495.579 Y1273.421
G3 X495.855 Y1273.121 I0.276 J-0.024
G1 X496.375
G3 X496.651 Y1273.421 I0 J0.277
G1 X496.64 Y1273.535
X496.634 Y1273.65
Y1292.25
X496.64 Y1292.365
X496.651 Y1292.479
G3 X496.375 Y1292.779 I-0.276 J0.024
G1 X495.855
G3 X495.579 Y1292.479 I0 J-0.277
G1 X495.59 Y1292.365
X495.596 Y1292.25
Y1273.65
G2 X494.845 Y1272.724 I-0.946 J0
G3 X493.735 Y1272.289 I0.74 J-3.52
G2 X492.918 Y1272.063 I-0.817 J1.361
G1 X474.312
G2 X472.724 Y1273.65 I0 J1.588
G1 Y1292.25
G2 X474.312 Y1293.838 I1.588 J0
G1 X492.918
G2 X494.505 Y1292.25 I0 J-1.588
G1 Y1273.65
G2 X493.735 Y1272.289 I-1.587 J0
G1 X493.628 Y1272.23 Z-1.476 F600
X493.535 Y1272.187 Z-1.407
X493.471 Y1272.162 Z-1.304
X493.448 Y1272.154 Z-1.183
Z5
G0 X522.273 Y1272.612
G1 Z2.817 F300
X522.289 Y1272.629 Z2.698
X522.332 Y1272.678 Z2.597
X522.394 Y1272.756 Z2.527
X522.46 Y1272.854 Z2.5
G3 X519.894 Y1274.44 Z2.335 I-1.283 J0.793
X522.46 Y1272.854 Z2.169 I1.283 J-0.793
X519.894 Y1274.44 Z2.004 I-1.283 J0.793
X522.46 Y1272.854 Z1.838 I1.283 J-0.793
X519.894 Y1274.44 Z1.673 I-1.283 J0.793
X522.46 Y1272.854 Z1.507 I1.283 J-0.793
X519.894 Y1274.44 Z1.342 I-1.283 J0.793
X522.46 Y1272.854 Z1.176 I1.283 J-0.793
X519.894 Y1274.44 Z1.011 I-1.283 J0.793
X522.46 Y1272.854 Z0.845 I1.283 J-0.793
X519.894 Y1274.44 Z0.68 I-1.283 J0.793
X522.46 Y1272.854 Z0.515 I1.283 J-0.793
X519.894 Y1274.44 Z0.349 I-1.283 J0.793
X522.46 Y1272.854 Z0.184 I1.283 J-0.793
X519.894 Y1274.44 Z0.018 I-1.283 J0.793
X522.46 Y1272.854 Z-0.147 I1.283 J-0.793
X519.894 Y1274.44 Z-0.313 I-1.283 J0.793
X522.46 Y1272.854 Z-0.478 I1.283 J-0.793
X519.894 Y1274.44 Z-0.644 I-1.283 J0.793
X522.46 Y1272.854 Z-0.809 I1.283 J-0.793
X519.894 Y1274.44 Z-0.974 I-1.283 J0.793
X522.46 Y1272.854 Z-1.14 I1.283 J-0.793
X519.894 Y1274.44 Z-1.305 I-1.283 J0.793
X522.46 Y1272.854 Z-1.471 I1.283 J-0.793
X522.685 Y1273.647 Z-1.5 I-1.283 J0.793
X520.596 Y1273.65 I-1.044 J0.001
G1 X520.59 Y1273.535 F1000
X520.579 Y1273.421
G3 X520.855 Y1273.121 I0.276 J-0.024
G1 X521.375
G3 X521.651 Y1273.421 I0 J0.277
G1 X521.64 Y1273.535
X521.634 Y1273.65
Y1292.25
X521.64 Y1292.365
X521.651 Y1292.479
G3 X521.375 Y1292.779 I-0.276 J0.024
G1 X520.855
G3 X520.579 Y1292.479 I0 J-0.277
G1 X520.59 Y1292.365
X520.596 Y1292.25
Y1273.65
G2 X519.845 Y1272.724 I-0.946 J0
G3 X518.735 Y1272.289 I0.74 J-3.52
G2 X517.918 Y1272.063 I-0.817 J1.361
G1 X499.312
G2 X497.724 Y1273.65 I0 J1.588
G1 Y1292.25
G2 X499.312 Y1293.838 I1.588 J0
G1 X517.918
G2 X519.505 Y1292.25 I0 J-1.588
G1 Y1273.65
G2 X518.735 Y1272.289 I-1.587 J0
G1 X518.628 Y1272.23 Z-1.476 F600
X518.535 Y1272.187 Z-1.407
X518.471 Y1272.162 Z-1.304
X518.448 Y1272.154 Z-1.183
Z5
G0 X544.954 Y1274.686
G1 Z2.817 F300
X544.938 Y1274.669 Z2.698
X544.895 Y1274.619 Z2.597
X544.833 Y1274.541 Z2.527
X544.767 Y1274.443 Z2.5
G3 X544.542 Y1273.65 Z2.471 I1.283 J-0.793
X547.558 Y1273.65 Z2.305 I1.508 J0
X544.542 Y1273.65 Z2.14 I-1.508 J0
X547.558 Y1273.65 Z1.974 I1.508 J0
X544.542 Y1273.65 Z1.809 I-1.508 J0
X547.558 Y1273.65 Z1.644 I1.508 J0
X544.542 Y1273.65 Z1.478 I-1.508 J0
X547.558 Y1273.65 Z1.313 I1.508 J0
X544.542 Y1273.65 Z1.147 I-1.508 J0
X547.558 Y1273.65 Z0.982 I1.508 J0
X544.542 Y1273.65 Z0.816 I-1.508 J0
X547.558 Y1273.65 Z0.651 I1.508 J0
X544.542 Y1273.65 Z0.485 I-1.508 J0
X547.558 Y1273.65 Z0.32 I1.508 J0
X544.542 Y1273.65 Z0.155 I-1.508 J0
X547.558 Y1273.65 Z-0.011 I1.508 J0
X544.542 Y1273.65 Z-0.176 I-1.508 J0
X547.558 Y1273.65 Z-0.342 I1.508 J0
X544.542 Y1273.65 Z-0.507 I-1.508 J0
X547.558 Y1273.65 Z-0.673 I1.508 J0
X544.542 Y1273.65 Z-0.838 I-1.508 J0
X547.558 Y1273.65 Z-1.004 I1.508 J0
X544.542 Y1273.65 Z-1.169 I-1.508 J0
X547.558 Y1273.65 Z-1.335 I1.508 J0
X544.542 Y1273.65 Z-1.5 I-1.508 J0
X545.586 Y1272.606 I1.044 J0
X546.63 Y1273.65 I0 J1.044
G1 X546.632 Y1292.25 F1000
X546.638 Y1292.364
X546.649 Y1292.477
G3 X546.373 Y1292.777 I-0.276 J0.023
G1 X545.851
G3 X545.575 Y1292.477 I0 J-0.277
G1 X545.586 Y1292.364
X545.592 Y1292.25
Y1273.65
X545.586 Y1273.536
X545.575 Y1273.423
G3 X545.851 Y1273.123 I0.276 J-0.023
G1 X546.112
G2 X546.398 Y1273.108 I0 J-2.673
G3 X546.654 Y1273.365 I0.025 J0.232
G1 X546.638 Y1273.507
X546.632 Y1273.578
X546.63 Y1273.65
G3 X545.042 Y1274.035 I-0.841 J0
G2 X544.155 Y1272.663 I-7.464 J3.85
X542.912 Y1272.063 I-1.243 J0.987
G1 X524.312
G2 X522.724 Y1273.65 I0 J1.588
G1 Y1292.25
G2 X524.312 Y1293.838 I1.588 J0
G1 X542.912
G2 X544.5 Y1292.25 I0 J-1.588
G1 Y1273.65
G2 X544.155 Y1272.663 I-1.588 J0
G1 X544.122 Y1272.612 Z-1.488 F600
X544.099 Y1272.556 Z-1.476
X544.089 Y1272.505 Z-1.441
X544.087 Y1272.454 Z-1.407
X544.096 Y1272.386 Z-1.304
X544.103 Y1272.363 Z-1.183
Z5
G0 X548.276 Y1269.292
G1 Z2.817 F300
X548.293 Y1269.276 Z2.698
X548.343 Y1269.233 Z2.597
X548.421 Y1269.171 Z2.527
X548.519 Y1269.105 Z2.5
G3 X550.105 Y1271.671 Z2.335 I0.793 J1.283
X548.519 Y1269.105 Z2.169 I-0.793 J-1.283
X550.105 Y1271.671 Z2.004 I0.793 J1.283
X548.519 Y1269.105 Z1.838 I-0.793 J-1.283
X550.105 Y1271.671 Z1.673 I0.793 J1.283
X548.519 Y1269.105 Z1.507 I-0.793 J-1.283
X550.105 Y1271.671 Z1.342 I0.793 J1.283
X548.519 Y1269.105 Z1.176 I-0.793 J-1.283
X550.105 Y1271.671 Z1.011 I0.793 J1.283
X548.519 Y1269.105 Z0.845 I-0.793 J-1.283
X550.105 Y1271.671 Z0.68 I0.793 J1.283
X548.519 Y1269.105 Z0.515 I-0.793 J-1.283
X550.105 Y1271.671 Z0.349 I0.793 J1.283
X548.519 Y1269.105 Z0.184 I-0.793 J-1.283
X550.105 Y1271.671 Z0.018 I0.793 J1.283
X548.519 Y1269.105 Z-0.147 I-0.793 J-1.283
X550.105 Y1271.671 Z-0.313 I0.793 J1.283
X548.519 Y1269.105 Z-0.478 I-0.793 J-1.283
X550.105 Y1271.671 Z-0.644 I0.793 J1.283
X548.519 Y1269.105 Z-0.809 I-0.793 J-1.283
X550.105 Y1271.671 Z-0.974 I0.793 J1.283
X548.519 Y1269.105 Z-1.14 I-0.793 J-1.283
X550.105 Y1271.671 Z-1.305 I0.793 J1.283
X548.519 Y1269.105 Z-1.471 I-0.793 J-1.283
X549.312 Y1268.88 Z-1.5 I0.793 J1.283
X549.312 Y1270.968 I0 J1.044
G1 X549.24 Y1270.97 F1000
X549.169 Y1270.976
X549.026 Y1270.992
G3 X548.77 Y1270.735 I-0.025 J-0.232
G2 X548.785 Y1270.45 I-2.658 J-0.286
G1 Y1270.189
G3 X549.085 Y1269.913 I0.277 J0
G1 X549.198 Y1269.924
X549.312 Y1269.93
X567.912
X568.026 Y1269.924
X568.139 Y1269.913
G3 X568.439 Y1270.189 I0.023 J0.276
G1 Y1270.711
G3 X568.139 Y1270.987 I-0.277 J0
G1 X568.026 Y1270.976
X567.912 Y1270.97
X549.312 Y1270.968
G2 X548.383 Y1271.723 I0 J0.95
G3 X547.948 Y1272.838 I-3.567 J-0.748
G2 X547.724 Y1273.65 I1.364 J0.812
G1 Y1292.25
G2 X549.312 Y1293.838 I1.588 J0
G1 X567.912
G2 X569.5 Y1292.25 I0 J-1.588
G1 Y1273.65
G2 X567.912 Y1272.063 I-1.588 J0
G1 X549.312
G2 X547.948 Y1272.838 I0 J1.588
G1 X547.912 Y1272.887 Z-1.488 F600
X547.867 Y1272.928 Z-1.476
X547.824 Y1272.956 Z-1.441
X547.777 Y1272.977 Z-1.407
X547.71 Y1272.991 Z-1.304
X547.686 Y1272.993 Z-1.183
Z5
G0 X568.948 Y1246.608
G1 Z2.817 F300
X568.931 Y1246.624 Z2.698
X568.881 Y1246.667 Z2.597
X568.803 Y1246.729 Z2.527
X568.705 Y1246.795 Z2.5
G3 X567.119 Y1244.229 Z2.335 I-0.793 J-1.283
X568.705 Y1246.795 Z2.169 I0.793 J1.283
X567.119 Y1244.229 Z2.004 I-0.793 J-1.283
X568.705 Y1246.795 Z1.838 I0.793 J1.283
X567.119 Y1244.229 Z1.673 I-0.793 J-1.283
X568.705 Y1246.795 Z1.507 I0.793 J1.283
X567.119 Y1244.229 Z1.342 I-0.793 J-1.283
X568.705 Y1246.795 Z1.176 I0.793 J1.283
X567.119 Y1244.229 Z1.011 I-0.793 J-1.283
X568.705 Y1246.795 Z0.845 I0.793 J1.283
X567.119 Y1244.229 Z0.68 I-0.793 J-1.283
X568.705 Y1246.795 Z0.515 I0.793 J1.283
X567.119 Y1244.229 Z0.349 I-0.793 J-1.283
X568.705 Y1246.795 Z0.184 I0.793 J1.283
X567.119 Y1244.229 Z0.018 I-0.793 J-1.283
X568.705 Y1246.795 Z-0.147 I0.793 J1.283
X567.119 Y1244.229 Z-0.313 I-0.793 J-1.283
X568.705 Y1246.795 Z-0.478 I0.793 J1.283
X567.119 Y1244.229 Z-0.644 I-0.793 J-1.283
X568.705 Y1246.795 Z-0.809 I0.793 J1.283
X567.119 Y1244.229 Z-0.974 I-0.793 J-1.283
X568.705 Y1246.795 Z-1.14 I0.793 J1.283
X567.119 Y1244.229 Z-1.305 I-0.793 J-1.283
X568.705 Y1246.795 Z-1.471 I0.793 J1.283
X567.912 Y1247.02 Z-1.5 I-0.793 J-1.283
X567.912 Y1244.93 I0 J-1.045
G1 X568.026 Y1244.924 F1000
X568.139 Y1244.913
G3 X568.439 Y1245.189 I0.023 J0.276
G1 Y1245.711
G3 X568.139 Y1245.987 I-0.277 J0
G1 X568.026 Y1245.976
X567.912 Y1245.97
X549.312
X549.198 Y1245.976
X549.085 Y1245.987
G3 X548.785 Y1245.711 I-0.023 J-0.276
G1 Y1245.189
G3 X549.085 Y1244.913 I0.277 J0
G1 X549.198 Y1244.924
X549.312 Y1244.93
X567.912
G2 X568.84 Y1244.177 I0 J-0.948
G3 X569.275 Y1243.064 I3.543 J0.744
G2 X569.5 Y1242.25 I-1.363 J-0.814
G1 Y1223.65
G2 X567.912 Y1222.063 I-1.588 J0
G1 X549.312
G2 X547.724 Y1223.65 I0 J1.588
G1 Y1242.25
G2 X549.312 Y1243.838 I1.588 J0
G1 X567.912
G2 X569.275 Y1243.064 I0 J-1.588
G1 X569.333 Y1242.958 Z-1.476 F600
X569.376 Y1242.864 Z-1.407
X569.401 Y1242.8 Z-1.304
X569.409 Y1242.777 Z-1.183
Z5
G0 X569.113 Y1244.414
G1 Z2.817 F300
X569.128 Y1244.431 Z2.698
X569.172 Y1244.481 Z2.597
X569.233 Y1244.559 Z2.527
X569.299 Y1244.657 Z2.5
G3 X566.734 Y1246.243 Z2.335 I-1.283 J0.793
X569.299 Y1244.657 Z2.169 I1.283 J-0.793
X566.734 Y1246.243 Z2.004 I-1.283 J0.793
X569.299 Y1244.657 Z1.838 I1.283 J-0.793
X566.734 Y1246.243 Z1.673 I-1.283 J0.793
X569.299 Y1244.657 Z1.507 I1.283 J-0.793
X566.734 Y1246.243 Z1.342 I-1.283 J0.793
X569.299 Y1244.657 Z1.176 I1.283 J-0.793
X566.734 Y1246.243 Z1.011 I-1.283 J0.793
X569.299 Y1244.657 Z0.845 I1.283 J-0.793
X566.734 Y1246.243 Z0.68 I-1.283 J0.793
X569.299 Y1244.657 Z0.515 I1.283 J-0.793
X566.734 Y1246.243 Z0.349 I-1.283 J0.793
X569.299 Y1244.657 Z0.184 I1.283 J-0.793
X566.734 Y1246.243 Z0.018 I-1.283 J0.793
X569.299 Y1244.657 Z-0.147 I1.283 J-0.793
X566.734 Y1246.243 Z-0.313 I-1.283 J0.793
X569.299 Y1244.657 Z-0.478 I1.283 J-0.793
X566.734 Y1246.243 Z-0.644 I-1.283 J0.793
X569.299 Y1244.657 Z-0.809 I1.283 J-0.793
X566.734 Y1246.243 Z-0.974 I-1.283 J0.793
X569.299 Y1244.657 Z-1.14 I1.283 J-0.793
X566.734 Y1246.243 Z-1.305 I-1.283 J0.793
X569.299 Y1244.657 Z-1.471 I1.283 J-0.793
X569.524 Y1245.45 Z-1.5 I-1.283 J0.793
G1 Y1293.863 F1000
X472.699
Y1272.037
X546.112
G2 X547.7 Y1270.45 I0 J-1.588
G1 Y1222.037
X569.524
Y1245.45
X569.519 Y1245.51 Z-1.488 F600
X569.502 Y1245.569 Z-1.476
X569.479 Y1245.615 Z-1.441
X569.448 Y1245.656 Z-1.407
X569.398 Y1245.703 Z-1.304
X569.379 Y1245.717 Z-1.183
Z5
G0 X568.948 Y1246.651
G1 Z2.817 F300
X568.931 Y1246.667 Z2.698
X568.881 Y1246.71 Z2.597
X568.803 Y1246.771 Z2.527
X568.705 Y1246.837 Z2.5
G3 X567.119 Y1244.271 Z2.335 I-0.793 J-1.283
X568.705 Y1246.837 Z2.169 I0.793 J1.283
X567.119 Y1244.271 Z2.004 I-0.793 J-1.283
X568.705 Y1246.837 Z1.838 I0.793 J1.283
X567.119 Y1244.271 Z1.673 I-0.793 J-1.283
X568.705 Y1246.837 Z1.507 I0.793 J1.283
X567.119 Y1244.271 Z1.342 I-0.793 J-1.283
X568.705 Y1246.837 Z1.176 I0.793 J1.283
X567.119 Y1244.271 Z1.011 I-0.793 J-1.283
X568.705 Y1246.837 Z0.845 I0.793 J1.283
X567.119 Y1244.271 Z0.68 I-0.793 J-1.283
X568.705 Y1246.837 Z0.515 I0.793 J1.283
X567.119 Y1244.271 Z0.349 I-0.793 J-1.283
X568.705 Y1246.837 Z0.184 I0.793 J1.283
X567.119 Y1244.271 Z0.018 I-0.793 J-1.283
X568.705 Y1246.837 Z-0.147 I0.793 J1.283
X567.119 Y1244.271 Z-0.313 I-0.793 J-1.283
X568.705 Y1246.837 Z-0.478 I0.793 J1.283
X567.119 Y1244.271 Z-0.644 I-0.793 J-1.283
X568.705 Y1246.837 Z-0.809 I0.793 J1.283
X567.119 Y1244.271 Z-0.974 I-0.793 J-1.283
X568.705 Y1246.837 Z-1.14 I0.793 J1.283
X567.119 Y1244.271 Z-1.305 I-0.793 J-1.283
X568.705 Y1246.837 Z-1.471 I0.793 J1.283
X567.912 Y1247.063 Z-1.5 I-0.793 J-1.283
G1 X549.312 F1000
G2 X547.724 Y1248.65 I0 J1.588
G1 Y1267.25
G2 X549.312 Y1268.838 I1.588 J0
G1 X567.912
G2 X569.5 Y1267.25 I0 J-1.588
G1 Y1248.65
G2 X567.912 Y1247.063 I-1.588 J0
G1 X567.852 Y1247.057 Z-1.488 F600
X567.793 Y1247.04 Z-1.476
X567.747 Y1247.017 Z-1.441
X567.706 Y1246.986 Z-1.407
X567.659 Y1246.936 Z-1.304
X567.645 Y1246.917 Z-1.183
Z5
G0 X568.948 Y1246.608
G1 Z1.317 F300
X568.931 Y1246.624 Z1.198
X568.881 Y1246.667 Z1.097
X568.803 Y1246.729 Z1.027
X568.705 Y1246.795 Z1
G3 X567.119 Y1244.229 Z0.835 I-0.793 J-1.283
X568.705 Y1246.795 Z0.669 I0.793 J1.283
X567.119 Y1244.229 Z0.504 I-0.793 J-1.283
X568.705 Y1246.795 Z0.338 I0.793 J1.283
X567.119 Y1244.229 Z0.173 I-0.793 J-1.283
X568.705 Y1246.795 Z0.007 I0.793 J1.283
X567.119 Y1244.229 Z-0.158 I-0.793 J-1.283
X568.705 Y1246.795 Z-0.324 I0.793 J1.283
X567.119 Y1244.229 Z-0.489 I-0.793 J-1.283
X568.705 Y1246.795 Z-0.655 I0.793 J1.283
X567.119 Y1244.229 Z-0.82 I-0.793 J-1.283
X568.705 Y1246.795 Z-0.985 I0.793 J1.283
X567.119 Y1244.229 Z-1.151 I-0.793 J-1.283
X568.705 Y1246.795 Z-1.316 I0.793 J1.283
X567.119 Y1244.229 Z-1.482 I-0.793 J-1.283
X568.705 Y1246.795 Z-1.647 I0.793 J1.283
X567.119 Y1244.229 Z-1.813 I-0.793 J-1.283
X568.705 Y1246.795 Z-1.978 I0.793 J1.283
X567.119 Y1244.229 Z-2.144 I-0.793 J-1.283
X568.705 Y1246.795 Z-2.309 I0.793 J1.283
X567.119 Y1244.229 Z-2.474 I-0.793 J-1.283
X568.705 Y1246.795 Z-2.64 I0.793 J1.283
X567.119 Y1244.229 Z-2.805 I-0.793 J-1.283
X568.705 Y1246.795 Z-2.971 I0.793 J1.283
X567.912 Y1247.02 Z-3 I-0.793 J-1.283
X567.912 Y1244.93 I0 J-1.045
G1 X568.026 Y1244.924 F1000
X568.139 Y1244.913
G3 X568.439 Y1245.189 I0.023 J0.276
G1 Y1245.711
G3 X568.139 Y1245.987 I-0.277 J0
G1 X568.026 Y1245.976
X567.912 Y1245.97
X549.312
X549.198 Y1245.976
X549.085 Y1245.987
G3 X548.785 Y1245.711 I-0.023 J-0.276
G1 Y1245.189
G3 X549.085 Y1244.913 I0.277 J0
G1 X549.198 Y1244.924
X549.312 Y1244.93
X567.912
G2 X568.84 Y1244.177 I0 J-0.948
G3 X569.275 Y1243.064 I3.543 J0.744
G2 X569.5 Y1242.25 I-1.363 J-0.814
G1 Y1223.65
G2 X567.912 Y1222.063 I-1.588 J0
G1 X549.312
G2 X547.724 Y1223.65 I0 J1.588
G1 Y1242.25
G2 X549.312 Y1243.838 I1.588 J0
G1 X567.912
G2 X569.275 Y1243.064 I0 J-1.588
G1 X569.333 Y1242.958 Z-2.976 F600
X569.376 Y1242.864 Z-2.907
X569.401 Y1242.8 Z-2.804
X569.409 Y1242.777 Z-2.683
Z5
G0 X548.276 Y1269.292
G1 Z1.317 F300
X548.293 Y1269.276 Z1.198
X548.343 Y1269.233 Z1.097
X548.421 Y1269.171 Z1.027
X548.519 Y1269.105 Z1
G3 X550.105 Y1271.671 Z0.835 I0.793 J1.283
X548.519 Y1269.105 Z0.669 I-0.793 J-1.283
X550.105 Y1271.671 Z0.504 I0.793 J1.283
X548.519 Y1269.105 Z0.338 I-0.793 J-1.283
X550.105 Y1271.671 Z0.173 I0.793 J1.283
X548.519 Y1269.105 Z0.007 I-0.793 J-1.283
X550.105 Y1271.671 Z-0.158 I0.793 J1.283
X548.519 Y1269.105 Z-0.324 I-0.793 J-1.283
X550.105 Y1271.671 Z-0.489 I0.793 J1.283
X548.519 Y1269.105 Z-0.655 I-0.793 J-1.283
X550.105 Y1271.671 Z-0.82 I0.793 J1.283
X548.519 Y1269.105 Z-0.985 I-0.793 J-1.283
X550.105 Y1271.671 Z-1.151 I0.793 J1.283
X548.519 Y1269.105 Z-1.316 I-0.793 J-1.283
X550.105 Y1271.671 Z-1.482 I0.793 J1.283
X548.519 Y1269.105 Z-1.647 I-0.793 J-1.283
X550.105 Y1271.671 Z-1.813 I0.793 J1.283
X548.519 Y1269.105 Z-1.978 I-0.793 J-1.283
X550.105 Y1271.671 Z-2.144 I0.793 J1.283
X548.519 Y1269.105 Z-2.309 I-0.793 J-1.283
X550.105 Y1271.671 Z-2.474 I0.793 J1.283
X548.519 Y1269.105 Z-2.64 I-0.793 J-1.283
X550.105 Y1271.671 Z-2.805 I0.793 J1.283
X548.519 Y1269.105 Z-2.971 I-0.793 J-1.283
X549.312 Y1268.88 Z-3 I0.793 J1.283
X549.312 Y1270.968 I0 J1.044
G1 X549.24 Y1270.97 F1000
X549.169 Y1270.976
X549.026 Y1270.992
G3 X548.77 Y1270.735 I-0.025 J-0.232
G2 X548.785 Y1270.45 I-2.658 J-0.286
G1 Y1270.189
G3 X549.085 Y1269.913 I0.277 J0
G1 X549.198 Y1269.924
X549.312 Y1269.93
X567.912
X568.026 Y1269.924
X568.139 Y1269.913
G3 X568.439 Y1270.189 I0.023 J0.276
G1 Y1270.711
G3 X568.139 Y1270.987 I-0.277 J0
G1 X568.026 Y1270.976
X567.912 Y1270.97
X549.312 Y1270.968
G3 X548.779 Y1269.37 I0 J-0.888
X550.377 Y1268.838 I1.598 J2.13
G1 X567.912
G2 X569.5 Y1267.25 I0 J-1.588
G1 Y1248.65
G2 X567.912 Y1247.063 I-1.588 J0
G1 X549.312
G2 X547.724 Y1248.65 I0 J1.588
G1 Y1267.25
G2 X549.312 Y1268.838 I1.588 J0
G1 X550.377
X550.438 Y1268.843 Z-2.988 F600
X550.496 Y1268.86 Z-2.976
X550.542 Y1268.883 Z-2.941
X550.584 Y1268.914 Z-2.907
X550.631 Y1268.964 Z-2.804
X550.645 Y1268.983 Z-2.683
Z5
G0 X544.954 Y1274.686
G1 Z1.317 F300
X544.938 Y1274.669 Z1.198
X544.895 Y1274.619 Z1.097
X544.833 Y1274.541 Z1.027
X544.767 Y1274.443 Z1
G3 X544.542 Y1273.65 Z0.971 I1.283 J-0.793
X547.558 Y1273.65 Z0.805 I1.508 J0
X544.542 Y1273.65 Z0.64 I-1.508 J0
X547.558 Y1273.65 Z0.474 I1.508 J0
X544.542 Y1273.65 Z0.309 I-1.508 J0
X547.558 Y1273.65 Z0.144 I1.508 J0
X544.542 Y1273.65 Z-0.022 I-1.508 J0
X547.558 Y1273.65 Z-0.187 I1.508 J0
X544.542 Y1273.65 Z-0.353 I-1.508 J0
X547.558 Y1273.65 Z-0.518 I1.508 J0
X544.542 Y1273.65 Z-0.684 I-1.508 J0
X547.558 Y1273.65 Z-0.849 I1.508 J0
X544.542 Y1273.65 Z-1.015 I-1.508 J0
X547.558 Y1273.65 Z-1.18 I1.508 J0
X544.542 Y1273.65 Z-1.345 I-1.508 J0
X547.558 Y1273.65 Z-1.511 I1.508 J0
X544.542 Y1273.65 Z-1.676 I-1.508 J0
X547.558 Y1273.65 Z-1.842 I1.508 J0
X544.542 Y1273.65 Z-2.007 I-1.508 J0
X547.558 Y1273.65 Z-2.173 I1.508 J0
X544.542 Y1273.65 Z-2.338 I-1.508 J0
X547.558 Y1273.65 Z-2.504 I1.508 J0
X544.542 Y1273.65 Z-2.669 I-1.508 J0
X547.558 Y1273.65 Z-2.835 I1.508 J0
X544.542 Y1273.65 Z-3 I-1.508 J0
X545.586 Y1272.606 I1.044 J0
X546.63 Y1273.65 I0 J1.044
G1 X546.632 Y1292.25 F1000
X546.638 Y1292.364
X546.649 Y1292.477
G3 X546.373 Y1292.777 I-0.276 J0.023
G1 X545.851
G3 X545.575 Y1292.477 I0 J-0.277
G1 X545.586 Y1292.364
X545.592 Y1292.25
Y1273.65
X545.586 Y1273.536
X545.575 Y1273.423
G3 X545.851 Y1273.123 I0.276 J-0.023
G1 X546.112
G2 X546.398 Y1273.108 I0 J-2.673
G3 X546.654 Y1273.365 I0.025 J0.232
G1 X546.638 Y1273.507
X546.632 Y1273.578
X546.63 Y1273.65
G2 X547.177 Y1274.471 I0.889 J0
G3 X547.724 Y1275.292 I-0.342 J0.821
G1 Y1292.25
G2 X549.312 Y1293.838 I1.588 J0
G1 X567.912
G2 X569.5 Y1292.25 I0 J-1.588
G1 Y1273.65
G2 X567.912 Y1272.063 I-1.588 J0
G1 X549.312
G2 X547.724 Y1273.65 I0 J1.588
G1 Y1275.292
X547.719 Y1275.352 Z-2.988 F600
X547.702 Y1275.41 Z-2.976
X547.679 Y1275.456 Z-2.941
X547.648 Y1275.498 Z-2.907
X547.598 Y1275.545 Z-2.804
X547.579 Y1275.559 Z-2.683
Z5
G0 X522.273 Y1272.612
G1 Z1.317 F300
X522.289 Y1272.629 Z1.198
X522.332 Y1272.678 Z1.097
X522.394 Y1272.756 Z1.027
X522.46 Y1272.854 Z1
G3 X519.894 Y1274.44 Z0.835 I-1.283 J0.793
X522.46 Y1272.854 Z0.669 I1.283 J-0.793
X519.894 Y1274.44 Z0.504 I-1.283 J0.793
X522.46 Y1272.854 Z0.338 I1.283 J-0.793
X519.894 Y1274.44 Z0.173 I-1.283 J0.793
X522.46 Y1272.854 Z0.007 I1.283 J-0.793
X519.894 Y1274.44 Z-0.158 I-1.283 J0.793
X522.46 Y1272.854 Z-0.324 I1.283 J-0.793
X519.894 Y1274.44 Z-0.489 I-1.283 J0.793
X522.46 Y1272.854 Z-0.655 I1.283 J-0.793
X519.894 Y1274.44 Z-0.82 I-1.283 J0.793
X522.46 Y1272.854 Z-0.985 I1.283 J-0.793
X519.894 Y1274.44 Z-1.151 I-1.283 J0.793
X522.46 Y1272.854 Z-1.316 I1.283 J-0.793
X519.894 Y1274.44 Z-1.482 I-1.283 J0.793
X522.46 Y1272.854 Z-1.647 I1.283 J-0.793
X519.894 Y1274.44 Z-1.813 I-1.283 J0.793
X522.46 Y1272.854 Z-1.978 I1.283 J-0.793
X519.894 Y1274.44 Z-2.144 I-1.283 J0.793
X522.46 Y1272.854 Z-2.309 I1.283 J-0.793
X519.894 Y1274.44 Z-2.474 I-1.283 J0.793
X522.46 Y1272.854 Z-2.64 I1.283 J-0.793
X519.894 Y1274.44 Z-2.805 I-1.283 J0.793
X522.46 Y1272.854 Z-2.971 I1.283 J-0.793
X522.685 Y1273.647 Z-3 I-1.283 J0.793
X520.596 Y1273.65 I-1.044 J0.001
G1 X520.59 Y1273.535 F1000
X520.579 Y1273.421
G3 X520.855 Y1273.121 I0.276 J-0.024
G1 X521.375
G3 X521.651 Y1273.421 I0 J0.277
G1 X521.64 Y1273.535
X521.634 Y1273.65
Y1292.25
X521.64 Y1292.365
X521.651 Y1292.479
G3 X521.375 Y1292.779 I-0.276 J0.024
G1 X520.855
G3 X520.579 Y1292.479 I0 J-0.277
G1 X520.59 Y1292.365
X520.596 Y1292.25
Y1273.65
G3 X522.192 Y1273.118 I0.887 J0
X522.724 Y1274.714 I-2.128 J1.596
G1 Y1292.25
G2 X524.312 Y1293.838 I1.588 J0
G1 X542.912
G2 X544.5 Y1292.25 I0 J-1.588
G1 Y1273.65
G2 X542.912 Y1272.063 I-1.588 J0
G1 X524.312
G2 X522.724 Y1273.65 I0 J1.588
G1 Y1274.714
X522.719 Y1274.775 Z-2.988 F600
X522.702 Y1274.833 Z-2.976
X522.679 Y1274.879 Z-2.941
X522.648 Y1274.921 Z-2.907
X522.598 Y1274.968 Z-2.804
X522.579 Y1274.981 Z-2.683
Z5
G0 X497.273 Y1272.612
G1 Z1.317 F300
X497.289 Y1272.629 Z1.198
X497.332 Y1272.678 Z1.097
X497.394 Y1272.756 Z1.027
X497.46 Y1272.854 Z1
G3 X494.894 Y1274.44 Z0.835 I-1.283 J0.793
X497.46 Y1272.854 Z0.669 I1.283 J-0.793
X494.894 Y1274.44 Z0.504 I-1.283 J0.793
X497.46 Y1272.854 Z0.338 I1.283 J-0.793
X494.894 Y1274.44 Z0.173 I-1.283 J0.793
X497.46 Y1272.854 Z0.007 I1.283 J-0.793
X494.894 Y1274.44 Z-0.158 I-1.283 J0.793
X497.46 Y1272.854 Z-0.324 I1.283 J-0.793
X494.894 Y1274.44 Z-0.489 I-1.283 J0.793
X497.46 Y1272.854 Z-0.655 I1.283 J-0.793
X494.894 Y1274.44 Z-0.82 I-1.283 J0.793
X497.46 Y1272.854 Z-0.985 I1.283 J-0.793
X494.894 Y1274.44 Z-1.151 I-1.283 J0.793
X497.46 Y1272.854 Z-1.316 I1.283 J-0.793
X494.894 Y1274.44 Z-1.482 I-1.283 J0.793
X497.46 Y1272.854 Z-1.647 I1.283 J-0.793
X494.894 Y1274.44 Z-1.813 I-1.283 J0.793
X497.46 Y1272.854 Z-1.978 I1.283 J-0.793
X494.894 Y1274.44 Z-2.144 I-1.283 J0.793
X497.46 Y1272.854 Z-2.309 I1.283 J-0.793
X494.894 Y1274.44 Z-2.474 I-1.283 J0.793
X497.46 Y1272.854 Z-2.64 I1.283 J-0.793
X494.894 Y1274.44 Z-2.805 I-1.283 J0.793
X497.46 Y1272.854 Z-2.971 I1.283 J-0.793
X497.685 Y1273.647 Z-3 I-1.283 J0.793
X495.596 Y1273.65 I-1.044 J0.001
G1 X495.59 Y1273.535 F1000
X495.579 Y1273.421
G3 X495.855 Y1273.121 I0.276 J-0.024
G1 X496.375
G3 X496.651 Y1273.421 I0 J0.277
G1 X496.64 Y1273.535
X496.634 Y1273.65
Y1292.25
X496.64 Y1292.365
X496.651 Y1292.479
G3 X496.375 Y1292.779 I-0.276 J0.024
G1 X495.855
G3 X495.579 Y1292.479 I0 J-0.277
G1 X495.59 Y1292.365
X495.596 Y1292.25
Y1273.65
G2 X494.845 Y1272.724 I-0.946 J0
G3 X493.735 Y1272.289 I0.74 J-3.52
G2 X492.918 Y1272.063 I-0.817 J1.361
G1 X474.312
G2 X472.724 Y1273.65 I0 J1.588
G1 Y1292.25
G2 X474.312 Y1293.838 I1.588 J0
G1 X492.918
G2 X494.505 Y1292.25 I0 J-1.588
G1 Y1273.65
G2 X493.735 Y1272.289 I-1.587 J0
G1 X493.628 Y1272.23 Z-2.976 F600
X493.535 Y1272.187 Z-2.907
X493.471 Y1272.162 Z-2.804
X493.448 Y1272.154 Z-2.683
Z5
G0 X495.079 Y1272.449
G1 Z1.317 F300
X495.096 Y1272.433 Z1.198
X495.146 Y1272.39 Z1.097
X495.224 Y1272.329 Z1.027
X495.322 Y1272.263 Z1
G3 X496.908 Y1274.828 Z0.835 I0.793 J1.283
X495.322 Y1272.263 Z0.669 I-0.793 J-1.283
X496.908 Y1274.828 Z0.504 I0.793 J1.283
X495.322 Y1272.263 Z0.338 I-0.793 J-1.283
X496.908 Y1274.828 Z0.173 I0.793 J1.283
X495.322 Y1272.263 Z0.007 I-0.793 J-1.283
X496.908 Y1274.828 Z-0.158 I0.793 J1.283
X495.322 Y1272.263 Z-0.324 I-0.793 J-1.283
X496.908 Y1274.828 Z-0.489 I0.793 J1.283
X495.322 Y1272.263 Z-0.655 I-0.793 J-1.283
X496.908 Y1274.828 Z-0.82 I0.793 J1.283
X495.322 Y1272.263 Z-0.985 I-0.793 J-1.283
X496.908 Y1274.828 Z-1.151 I0.793 J1.283
X495.322 Y1272.263 Z-1.316 I-0.793 J-1.283
X496.908 Y1274.828 Z-1.482 I0.793 J1.283
X495.322 Y1272.263 Z-1.647 I-0.793 J-1.283
X496.908 Y1274.828 Z-1.813 I0.793 J1.283
X495.322 Y1272.263 Z-1.978 I-0.793 J-1.283
X496.908 Y1274.828 Z-2.144 I0.793 J1.283
X495.322 Y1272.263 Z-2.309 I-0.793 J-1.283
X496.908 Y1274.829 Z-2.474 I0.793 J1.283
X495.322 Y1272.263 Z-2.64 I-0.793 J-1.283
X496.908 Y1274.829 Z-2.805 I0.793 J1.283
X495.322 Y1272.263 Z-2.971 I-0.793 J-1.283
X496.115 Y1272.037 Z-3 I0.793 J1.283
G1 X546.112 F1000
G2 X547.7 Y1270.45 I0 J-1.588
G1 Y1222.037
X569.524
Y1293.863
X472.699
Y1272.037
X496.115
X496.175 Y1272.043 Z-2.988 F600
X496.234 Y1272.06 Z-2.976
X496.28 Y1272.083 Z-2.941
X496.321 Y1272.114 Z-2.907
X496.368 Y1272.164 Z-2.804
X496.382 Y1272.183 Z-2.683
Z5
G0 X497.313 Y1272.614
G1 Z1.317 F300
X497.328 Y1272.631 Z1.198
X497.372 Y1272.681 Z1.097
X497.433 Y1272.759 Z1.027
X497.499 Y1272.857 Z1
G3 X494.934 Y1274.443 Z0.835 I-1.283 J0.793
X497.499 Y1272.857 Z0.669 I1.283 J-0.793
X494.934 Y1274.443 Z0.504 I-1.283 J0.793
X497.499 Y1272.857 Z0.338 I1.283 J-0.793
X494.934 Y1274.443 Z0.173 I-1.283 J0.793
X497.499 Y1272.857 Z0.007 I1.283 J-0.793
X494.934 Y1274.443 Z-0.158 I-1.283 J0.793
X497.499 Y1272.857 Z-0.324 I1.283 J-0.793
X494.934 Y1274.443 Z-0.489 I-1.283 J0.793
X497.499 Y1272.857 Z-0.655 I1.283 J-0.793
X494.934 Y1274.443 Z-0.82 I-1.283 J0.793
X497.499 Y1272.857 Z-0.985 I1.283 J-0.793
X494.934 Y1274.443 Z-1.151 I-1.283 J0.793
X497.499 Y1272.857 Z-1.316 I1.283 J-0.793
X494.934 Y1274.443 Z-1.482 I-1.283 J0.793
X497.499 Y1272.857 Z-1.647 I1.283 J-0.793
X494.934 Y1274.443 Z-1.813 I-1.283 J0.793
X497.499 Y1272.857 Z-1.978 I1.283 J-0.793
X494.934 Y1274.443 Z-2.144 I-1.283 J0.793
X497.499 Y1272.857 Z-2.309 I1.283 J-0.793
X494.934 Y1274.443 Z-2.474 I-1.283 J0.793
X497.499 Y1272.857 Z-2.64 I1.283 J-0.793
X494.934 Y1274.443 Z-2.805 I-1.283 J0.793
X497.499 Y1272.857 Z-2.971 I1.283 J-0.793
X497.724 Y1273.65 Z-3 I-1.283 J0.793
G1 Y1292.25 F1000
G2 X499.312 Y1293.838 I1.588 J0
G1 X517.918
G2 X519.505 Y1292.25 I0 J-1.588
G1 Y1273.65
G2 X517.918 Y1272.063 I-1.587 J0
G1 X499.312
G2 X497.724 Y1273.65 I0 J1.588
G1 X497.719 Y1273.71 Z-2.988 F600
X497.702 Y1273.769 Z-2.976
X497.679 Y1273.815 Z-2.941
X497.648 Y1273.856 Z-2.907
X497.598 Y1273.903 Z-2.804
X497.579 Y1273.917 Z-2.683
Z5
G0 X521.868 Y1191.297
G1 Z2.817 F300
X521.883 Y1191.314 Z2.698
X521.927 Y1191.363 Z2.597
X521.988 Y1191.441 Z2.527
X522.054 Y1191.539 Z2.5
G3 X519.489 Y1193.125 Z2.335 I-1.283 J0.793
X522.054 Y1191.539 Z2.169 I1.283 J-0.793
X519.489 Y1193.125 Z2.004 I-1.283 J0.793
X522.054 Y1191.539 Z1.838 I1.283 J-0.793
X519.489 Y1193.125 Z1.673 I-1.283 J0.793
X522.054 Y1191.539 Z1.507 I1.283 J-0.793
X519.489 Y1193.125 Z1.342 I-1.283 J0.793
X522.054 Y1191.539 Z1.176 I1.283 J-0.793
X519.489 Y1193.125 Z1.011 I-1.283 J0.793
X522.054 Y1191.539 Z0.845 I1.283 J-0.793
X519.489 Y1193.125 Z0.68 I-1.283 J0.793
X522.054 Y1191.539 Z0.515 I1.283 J-0.793
X519.489 Y1193.125 Z0.349 I-1.283 J0.793
X522.054 Y1191.539 Z0.184 I1.283 J-0.793
X519.489 Y1193.125 Z0.018 I-1.283 J0.793
X522.054 Y1191.539 Z-0.147 I1.283 J-0.793
X519.489 Y1193.125 Z-0.313 I-1.283 J0.793
X522.054 Y1191.539 Z-0.478 I1.283 J-0.793
X519.489 Y1193.125 Z-0.644 I-1.283 J0.793
X522.054 Y1191.539 Z-0.809 I1.283 J-0.793
X519.489 Y1193.125 Z-0.974 I-1.283 J0.793
X522.054 Y1191.539 Z-1.14 I1.283 J-0.793
X519.489 Y1193.125 Z-1.305 I-1.283 J0.793
X522.054 Y1191.539 Z-1.471 I1.283 J-0.793
X522.279 Y1192.332 Z-1.5 I-1.283 J0.793
X521.234 Y1193.376 I-1.045 J-0.001
X520.19 Y1192.33 I0.001 J-1.045
G1 Y1173.73 F1000
X520.184 Y1173.616
X520.173 Y1173.501
G3 X520.449 Y1173.201 I0.276 J-0.024
G1 X520.97
G3 X521.246 Y1173.501 I0 J0.277
G1 X521.235 Y1173.616
X521.229 Y1173.73
Y1192.33
X521.235 Y1192.444
X521.246 Y1192.558
G3 X520.97 Y1192.859 I-0.276 J0.024
G1 X520.449
G3 X520.173 Y1192.558 I0 J-0.277
G1 X520.184 Y1192.444
X520.19 Y1192.33
G3 X521.777 Y1191.945 I0.84 J0
G2 X522.663 Y1193.317 I7.481 J-3.86
X523.907 Y1193.917 I1.244 J-0.987
G1 X542.512
G2 X544.099 Y1192.33 I0 J-1.588
G1 Y1173.73
G2 X542.512 Y1172.142 I-1.587 J0
G1 X523.907
G2 X522.32 Y1173.73 I0 J1.588
G1 Y1192.33
G2 X522.663 Y1193.317 I1.587 J0
G1 X522.696 Y1193.367 Z-1.488 F600
X522.719 Y1193.424 Z-1.476
X522.73 Y1193.474 Z-1.441
X522.732 Y1193.526 Z-1.407
X522.722 Y1193.593 Z-1.304
X522.715 Y1193.617 Z-1.183
Z5
G0 X496.868 Y1191.297
G1 Z2.817 F300
X496.883 Y1191.314 Z2.698
X496.927 Y1191.363 Z2.597
X496.988 Y1191.441 Z2.527
X497.054 Y1191.539 Z2.5
G3 X494.489 Y1193.125 Z2.335 I-1.283 J0.793
X497.054 Y1191.539 Z2.169 I1.283 J-0.793
X494.489 Y1193.125 Z2.004 I-1.283 J0.793
X497.054 Y1191.539 Z1.838 I1.283 J-0.793
X494.489 Y1193.125 Z1.673 I-1.283 J0.793
X497.054 Y1191.539 Z1.507 I1.283 J-0.793
X494.489 Y1193.125 Z1.342 I-1.283 J0.793
X497.054 Y1191.539 Z1.176 I1.283 J-0.793
X494.489 Y1193.125 Z1.011 I-1.283 J0.793
X497.054 Y1191.539 Z0.845 I1.283 J-0.793
X494.489 Y1193.125 Z0.68 I-1.283 J0.793
X497.054 Y1191.539 Z0.515 I1.283 J-0.793
X494.489 Y1193.125 Z0.349 I-1.283 J0.793
X497.054 Y1191.539 Z0.184 I1.283 J-0.793
X494.489 Y1193.125 Z0.018 I-1.283 J0.793
X497.054 Y1191.539 Z-0.147 I1.283 J-0.793
X494.489 Y1193.125 Z-0.313 I-1.283 J0.793
X497.054 Y1191.539 Z-0.478 I1.283 J-0.793
X494.489 Y1193.125 Z-0.644 I-1.283 J0.793
X497.054 Y1191.539 Z-0.809 I1.283 J-0.793
X494.489 Y1193.125 Z-0.974 I-1.283 J0.793
X497.054 Y1191.539 Z-1.14 I1.283 J-0.793
X494.489 Y1193.125 Z-1.305 I-1.283 J0.793
X497.054 Y1191.539 Z-1.471 I1.283 J-0.793
X497.279 Y1192.332 Z-1.5 I-1.283 J0.793
X495.19 Y1192.33 I-1.045 J-0.001
G1 Y1173.73 F1000
X495.184 Y1173.616
X495.173 Y1173.501
G3 X495.449 Y1173.201 I0.276 J-0.024
G1 X495.97
G3 X496.246 Y1173.501 I0 J0.277
G1 X496.235 Y1173.616
X496.229 Y1173.73
Y1192.33
X496.235 Y1192.444
X496.246 Y1192.558
G3 X495.97 Y1192.859 I-0.276 J0.024
G1 X495.449
G3 X495.173 Y1192.558 I0 J-0.277
G1 X495.184 Y1192.444
X495.19 Y1192.33
G3 X496.777 Y1191.945 I0.84 J0
G2 X497.663 Y1193.317 I7.481 J-3.86
X498.907 Y1193.917 I1.244 J-0.987
G1 X517.512
G2 X519.099 Y1192.33 I0 J-1.588
G1 Y1173.73
G2 X517.512 Y1172.142 I-1.587 J0
G1 X498.907
G2 X497.319 Y1173.73 I0 J1.588
G1 Y1192.33
G2 X497.663 Y1193.317 I1.588 J0
G1 X497.696 Y1193.367 Z-1.488 F600
X497.719 Y1193.424 Z-1.476
X497.73 Y1193.474 Z-1.441
X497.732 Y1193.526 Z-1.407
X497.722 Y1193.593 Z-1.304
X497.715 Y1193.617 Z-1.183
Z5
G0 X471.87 Y1172.694
G1 Z2.817 F300
X471.886 Y1172.711 Z2.698
X471.929 Y1172.761 Z2.597
X471.991 Y1172.839 Z2.527
X472.057 Y1172.937 Z2.5
G3 X472.282 Y1173.73 Z2.471 I-1.283 J0.793
X469.266 Y1173.73 Z2.305 I-1.508 J0
X472.282 Y1173.73 Z2.14 I1.508 J0
X469.266 Y1173.73 Z1.974 I-1.508 J0
X472.282 Y1173.73 Z1.809 I1.508 J0
X469.266 Y1173.73 Z1.644 I-1.508 J0
X472.282 Y1173.73 Z1.478 I1.508 J0
X469.266 Y1173.73 Z1.313 I-1.508 J0
X472.282 Y1173.73 Z1.147 I1.508 J0
X469.266 Y1173.73 Z0.982 I-1.508 J0
X472.282 Y1173.73 Z0.816 I1.508 J0
X469.266 Y1173.73 Z0.651 I-1.508 J0
X472.282 Y1173.73 Z0.485 I1.508 J0
X469.266 Y1173.73 Z0.32 I-1.508 J0
X472.282 Y1173.73 Z0.155 I1.508 J0
X469.266 Y1173.73 Z-0.011 I-1.508 J0
X472.282 Y1173.73 Z-0.176 I1.508 J0
X469.266 Y1173.73 Z-0.342 I-1.508 J0
X472.282 Y1173.73 Z-0.507 I1.508 J0
X469.266 Y1173.73 Z-0.673 I-1.508 J0
X472.282 Y1173.73 Z-0.838 I1.508 J0
X469.266 Y1173.73 Z-1.004 I-1.508 J0
X472.282 Y1173.73 Z-1.169 I1.508 J0
X469.266 Y1173.73 Z-1.335 I-1.508 J0
X472.282 Y1173.73 Z-1.5 I1.508 J0
X470.192 Y1173.73 I-1.045 J0
G1 X470.186 Y1173.616 F1000
X470.175 Y1173.503
G3 X470.451 Y1173.203 I0.276 J-0.023
G1 X470.973
G3 X471.249 Y1173.503 I0 J0.277
G1 X471.238 Y1173.616
X471.232 Y1173.73
Y1192.33
X471.238 Y1192.444
X471.249 Y1192.557
G3 X470.973 Y1192.857 I-0.276 J0.024
G1 X470.712
G2 X470.426 Y1192.872 I0 J2.673
G3 X470.17 Y1192.615 I-0.025 J-0.232
G1 X470.186 Y1192.473
X470.192 Y1192.402
X470.194 Y1192.33
X470.192 Y1173.73
X470.198 Y1173.67 Z-1.488 F600
X470.215 Y1173.611 Z-1.476
X470.238 Y1173.565 Z-1.441
X470.268 Y1173.524 Z-1.407
X470.318 Y1173.477 Z-1.304
X470.338 Y1173.463 Z-1.183
Z5
G0 X471.913 Y1172.694
G1 Z2.817 F300
X471.928 Y1172.711 Z2.698
X471.972 Y1172.761 Z2.597
X472.033 Y1172.839 Z2.527
X472.099 Y1172.937 Z2.5
G3 X469.534 Y1174.523 Z2.335 I-1.283 J0.793
X472.099 Y1172.937 Z2.169 I1.283 J-0.793
X469.534 Y1174.523 Z2.004 I-1.283 J0.793
X472.099 Y1172.937 Z1.838 I1.283 J-0.793
X469.534 Y1174.523 Z1.673 I-1.283 J0.793
X472.099 Y1172.937 Z1.507 I1.283 J-0.793
X469.534 Y1174.523 Z1.342 I-1.283 J0.793
X472.099 Y1172.937 Z1.176 I1.283 J-0.793
X469.534 Y1174.523 Z1.011 I-1.283 J0.793
X472.099 Y1172.937 Z0.845 I1.283 J-0.793
X469.534 Y1174.523 Z0.68 I-1.283 J0.793
X472.099 Y1172.937 Z0.515 I1.283 J-0.793
X469.534 Y1174.523 Z0.349 I-1.283 J0.793
X472.099 Y1172.937 Z0.184 I1.283 J-0.793
X469.534 Y1174.523 Z0.018 I-1.283 J0.793
X472.099 Y1172.937 Z-0.147 I1.283 J-0.793
X469.534 Y1174.523 Z-0.313 I-1.283 J0.793
X472.099 Y1172.937 Z-0.478 I1.283 J-0.793
X469.534 Y1174.523 Z-0.644 I-1.283 J0.793
X472.099 Y1172.937 Z-0.809 I1.283 J-0.793
X469.534 Y1174.523 Z-0.974 I-1.283 J0.793
X472.099 Y1172.937 Z-1.14 I1.283 J-0.793
X469.534 Y1174.523 Z-1.305 I-1.283 J0.793
X472.099 Y1172.937 Z-1.471 I1.283 J-0.793
X472.324 Y1173.73 Z-1.5 I-1.283 J0.793
G1 Y1192.33 F1000
G2 X473.912 Y1193.917 I1.587 J0
G1 X492.512
G2 X494.099 Y1192.33 I0 J-1.588
G1 Y1173.73
G2 X492.512 Y1172.142 I-1.587 J0
G1 X473.912
G2 X472.324 Y1173.73 I0 J1.588
G1 X472.319 Y1173.79 Z-1.488 F600
X472.302 Y1173.849 Z-1.476
X472.279 Y1173.895 Z-1.441
X472.248 Y1173.936 Z-1.407
X472.198 Y1173.983 Z-1.304
X472.179 Y1173.997 Z-1.183
Z5
G0 X449.947 Y1196.688
G1 Z2.817 F300
X449.931 Y1196.704 Z2.698
X449.881 Y1196.747 Z2.597
X449.803 Y1196.809 Z2.527
X449.705 Y1196.875 Z2.5
G3 X448.119 Y1194.309 Z2.335 I-0.793 J-1.283
X449.705 Y1196.875 Z2.169 I0.793 J1.283
X448.119 Y1194.309 Z2.004 I-0.793 J-1.283
X449.705 Y1196.875 Z1.838 I0.793 J1.283
X448.119 Y1194.309 Z1.673 I-0.793 J-1.283
X449.705 Y1196.875 Z1.507 I0.793 J1.283
X448.119 Y1194.309 Z1.342 I-0.793 J-1.283
X449.705 Y1196.875 Z1.176 I0.793 J1.283
X448.119 Y1194.309 Z1.011 I-0.793 J-1.283
X449.705 Y1196.875 Z0.845 I0.793 J1.283
X448.119 Y1194.309 Z0.68 I-0.793 J-1.283
X449.705 Y1196.875 Z0.515 I0.793 J1.283
X448.119 Y1194.309 Z0.349 I-0.793 J-1.283
X449.705 Y1196.875 Z0.184 I0.793 J1.283
X448.119 Y1194.309 Z0.018 I-0.793 J-1.283
X449.705 Y1196.875 Z-0.147 I0.793 J1.283
X448.119 Y1194.309 Z-0.313 I-0.793 J-1.283
X449.705 Y1196.875 Z-0.478 I0.793 J1.283
X448.119 Y1194.309 Z-0.644 I-0.793 J-1.283
X449.705 Y1196.875 Z-0.809 I0.793 J1.283
X448.119 Y1194.309 Z-0.974 I-0.793 J-1.283
X449.705 Y1196.875 Z-1.14 I0.793 J1.283
X448.119 Y1194.309 Z-1.305 I-0.793 J-1.283
X449.705 Y1196.875 Z-1.471 I0.793 J1.283
X448.912 Y1197.1 Z-1.5 I-0.793 J-1.283
X448.912 Y1195.01 I0 J-1.045
G1 X467.512 Y1195.012 F1000
X467.584 Y1195.01
X467.655 Y1195.004
X467.798 Y1194.988
G3 X468.054 Y1195.245 I0.025 J0.232
G2 X468.039 Y1195.53 I2.658 J0.286
G1 Y1195.791
G3 X467.739 Y1196.067 I-0.277 J0
G1 X467.626 Y1196.056
X467.512 Y1196.05
X448.912
X448.798 Y1196.056
X448.685 Y1196.067
G3 X448.385 Y1195.791 I-0.023 J-0.276
G1 Y1195.269
G3 X448.685 Y1194.993 I0.277 J0
G1 X448.798 Y1195.004
X448.912 Y1195.01
G2 X449.731 Y1194.464 I0 J-0.888
G3 X450.551 Y1193.917 I0.819 J0.341
G1 X467.512
G2 X469.099 Y1192.33 I0 J-1.588
G1 Y1173.73
G2 X467.512 Y1172.142 I-1.587 J0
G1 X448.912
G2 X447.324 Y1173.73 I0 J1.588
G1 Y1192.33
G2 X448.912 Y1193.917 I1.587 J0
G1 X450.551
X450.611 Y1193.923 Z-1.488 F600
X450.669 Y1193.94 Z-1.476
X450.715 Y1193.963 Z-1.441
X450.757 Y1193.994 Z-1.407
X450.804 Y1194.044 Z-1.304
X450.818 Y1194.063 Z-1.183
Z5
G0 X447.876 Y1219.372
G1 Z2.817 F300
X447.893 Y1219.356 Z2.698
X447.943 Y1219.313 Z2.597
X448.021 Y1219.251 Z2.527
X448.119 Y1219.185 Z2.5
G3 X449.705 Y1221.751 Z2.335 I0.793 J1.283
X448.119 Y1219.185 Z2.169 I-0.793 J-1.283
X449.705 Y1221.751 Z2.004 I0.793 J1.283
X448.119 Y1219.185 Z1.838 I-0.793 J-1.283
X449.705 Y1221.751 Z1.673 I0.793 J1.283
X448.119 Y1219.185 Z1.507 I-0.793 J-1.283
X449.705 Y1221.751 Z1.342 I0.793 J1.283
X448.119 Y1219.185 Z1.176 I-0.793 J-1.283
X449.705 Y1221.751 Z1.011 I0.793 J1.283
X448.119 Y1219.185 Z0.845 I-0.793 J-1.283
X449.705 Y1221.751 Z0.68 I0.793 J1.283
X448.119 Y1219.185 Z0.515 I-0.793 J-1.283
X449.705 Y1221.751 Z0.349 I0.793 J1.283
X448.119 Y1219.185 Z0.184 I-0.793 J-1.283
X449.705 Y1221.751 Z0.018 I0.793 J1.283
X448.119 Y1219.185 Z-0.147 I-0.793 J-1.283
X449.705 Y1221.751 Z-0.313 I0.793 J1.283
X448.119 Y1219.185 Z-0.478 I-0.793 J-1.283
X449.705 Y1221.751 Z-0.644 I0.793 J1.283
X448.119 Y1219.185 Z-0.809 I-0.793 J-1.283
X449.705 Y1221.751 Z-0.974 I0.793 J1.283
X448.119 Y1219.185 Z-1.14 I-0.793 J-1.283
X449.705 Y1221.751 Z-1.305 I0.793 J1.283
X448.119 Y1219.185 Z-1.471 I-0.793 J-1.283
X448.912 Y1218.96 Z-1.5 I0.793 J1.283
X448.912 Y1221.05 I0 J1.045
G1 X448.798 Y1221.056 F1000
X448.685 Y1221.067
G3 X448.385 Y1220.791 I-0.023 J-0.276
G1 Y1220.269
G3 X448.685 Y1219.993 I0.277 J0
G1 X448.798 Y1220.004
X448.912 Y1220.01
X467.512
X467.626 Y1220.004
X467.739 Y1219.993
G3 X468.039 Y1220.269 I0.023 J0.276
G1 Y1220.791
G3 X467.739 Y1221.067 I-0.277 J0
G1 X467.626 Y1221.056
X467.512 Y1221.05
X448.912
G2 X447.984 Y1221.803 I0 J0.948
G3 X447.549 Y1222.916 I-3.543 J-0.744
G2 X447.324 Y1223.73 I1.363 J0.814
G1 Y1242.33
G2 X448.912 Y1243.917 I1.587 J0
G1 X467.512
G2 X469.099 Y1242.33 I0 J-1.588
G1 Y1223.73
G2 X467.512 Y1222.142 I-1.587 J0
G1 X448.912
G2 X447.549 Y1222.916 I0 J1.588
G1 X447.491 Y1223.022 Z-1.476 F600
X447.448 Y1223.116 Z-1.407
X447.423 Y1223.18 Z-1.304
X447.415 Y1223.203 Z-1.183
Z5
G0 X447.711 Y1221.566
G1 Z2.817 F300
X447.696 Y1221.549 Z2.698
X447.652 Y1221.499 Z2.597
X447.591 Y1221.421 Z2.527
X447.525 Y1221.323 Z2.5
G3 X450.09 Y1219.737 Z2.335 I1.283 J-0.793
X447.525 Y1221.323 Z2.169 I-1.283 J0.793
X450.09 Y1219.737 Z2.004 I1.283 J-0.793
X447.525 Y1221.323 Z1.838 I-1.283 J0.793
X450.09 Y1219.737 Z1.673 I1.283 J-0.793
X447.525 Y1221.323 Z1.507 I-1.283 J0.793
X450.09 Y1219.737 Z1.342 I1.283 J-0.793
X447.525 Y1221.323 Z1.176 I-1.283 J0.793
X450.09 Y1219.737 Z1.011 I1.283 J-0.793
X447.525 Y1221.323 Z0.845 I-1.283 J0.793
X450.09 Y1219.737 Z0.68 I1.283 J-0.793
X447.525 Y1221.323 Z0.515 I-1.283 J0.793
X450.09 Y1219.737 Z0.349 I1.283 J-0.793
X447.525 Y1221.323 Z0.184 I-1.283 J0.793
X450.09 Y1219.737 Z0.018 I1.283 J-0.793
X447.525 Y1221.323 Z-0.147 I-1.283 J0.793
X450.09 Y1219.737 Z-0.313 I1.283 J-0.793
X447.525 Y1221.323 Z-0.478 I-1.283 J0.793
X450.09 Y1219.737 Z-0.644 I1.283 J-0.793
X447.525 Y1221.323 Z-0.809 I-1.283 J0.793
X450.09 Y1219.737 Z-0.974 I1.283 J-0.793
X447.525 Y1221.323 Z-1.14 I-1.283 J0.793
X450.09 Y1219.737 Z-1.305 I1.283 J-0.793
X447.525 Y1221.323 Z-1.471 I-1.283 J0.793
X447.299 Y1220.53 Z-1.5 I1.283 J-0.793
G1 Y1172.118 F1000
X544.125
Y1193.943
X470.712
G2 X469.125 Y1195.53 I0 J1.588
G1 Y1243.943
X447.299
Y1220.53
X447.305 Y1220.47 Z-1.488 F600
X447.322 Y1220.411 Z-1.476
X447.345 Y1220.365 Z-1.441
X447.376 Y1220.324 Z-1.407
X447.426 Y1220.277 Z-1.304
X447.445 Y1220.263 Z-1.183
Z5
G0 X447.876 Y1219.329
G1 Z2.817 F300
X447.893 Y1219.313 Z2.698
X447.943 Y1219.27 Z2.597
X448.021 Y1219.209 Z2.527
X448.119 Y1219.143 Z2.5
G3 X449.705 Y1221.708 Z2.335 I0.793 J1.283
X448.119 Y1219.143 Z2.169 I-0.793 J-1.283
X449.705 Y1221.708 Z2.004 I0.793 J1.283
X448.119 Y1219.143 Z1.838 I-0.793 J-1.283
X449.705 Y1221.708 Z1.673 I0.793 J1.283
X448.119 Y1219.143 Z1.507 I-0.793 J-1.283
X449.705 Y1221.708 Z1.342 I0.793 J1.283
X448.119 Y1219.143 Z1.176 I-0.793 J-1.283
X449.705 Y1221.708 Z1.011 I0.793 J1.283
X448.119 Y1219.143 Z0.845 I-0.793 J-1.283
X449.705 Y1221.709 Z0.68 I0.793 J1.283
X448.119 Y1219.143 Z0.515 I-0.793 J-1.283
X449.705 Y1221.709 Z0.349 I0.793 J1.283
X448.119 Y1219.143 Z0.184 I-0.793 J-1.283
X449.705 Y1221.709 Z0.018 I0.793 J1.283
X448.119 Y1219.143 Z-0.147 I-0.793 J-1.283
X449.705 Y1221.709 Z-0.313 I0.793 J1.283
X448.119 Y1219.143 Z-0.478 I-0.793 J-1.283
X449.705 Y1221.709 Z-0.644 I0.793 J1.283
X448.119 Y1219.143 Z-0.809 I-0.793 J-1.283
X449.705 Y1221.709 Z-0.974 I0.793 J1.283
X448.119 Y1219.143 Z-1.14 I-0.793 J-1.283
X449.705 Y1221.709 Z-1.305 I0.793 J1.283
X448.119 Y1219.143 Z-1.471 I-0.793 J-1.283
X448.912 Y1218.917 Z-1.5 I0.793 J1.283
G1 X467.512 F1000
G2 X469.099 Y1217.33 I0 J-1.588
G1 Y1198.73
G2 X467.512 Y1197.142 I-1.587 J0
G1 X448.912
G2 X447.324 Y1198.73 I0 J1.588
G1 Y1217.33
G2 X448.912 Y1218.917 I1.587 J0
G1 X448.972 Y1218.923 Z-1.488 F600
X449.031 Y1218.94 Z-1.476
X449.077 Y1218.963 Z-1.441
X449.118 Y1218.994 Z-1.407
X449.165 Y1219.044 Z-1.304
X449.179 Y1219.063 Z-1.183
Z5
G0 X447.876 Y1219.372
G1 Z1.317 F300
X447.893 Y1219.356 Z1.198
X447.943 Y1219.313 Z1.097
X448.021 Y1219.251 Z1.027
X448.119 Y1219.185 Z1
G3 X449.705 Y1221.751 Z0.835 I0.793 J1.283
X448.119 Y1219.185 Z0.669 I-0.793 J-1.283
X449.705 Y1221.751 Z0.504 I0.793 J1.283
X448.119 Y1219.185 Z0.338 I-0.793 J-1.283
X449.705 Y1221.751 Z0.173 I0.793 J1.283
X448.119 Y1219.185 Z0.007 I-0.793 J-1.283
X449.705 Y1221.751 Z-0.158 I0.793 J1.283
X448.119 Y1219.185 Z-0.324 I-0.793 J-1.283
X449.705 Y1221.751 Z-0.489 I0.793 J1.283
X448.119 Y1219.185 Z-0.655 I-0.793 J-1.283
X449.705 Y1221.751 Z-0.82 I0.793 J1.283
X448.119 Y1219.185 Z-0.985 I-0.793 J-1.283
X449.705 Y1221.751 Z-1.151 I0.793 J1.283
X448.119 Y1219.185 Z-1.316 I-0.793 J-1.283
X449.705 Y1221.751 Z-1.482 I0.793 J1.283
X448.119 Y1219.185 Z-1.647 I-0.793 J-1.283
X449.705 Y1221.751 Z-1.813 I0.793 J1.283
X448.119 Y1219.185 Z-1.978 I-0.793 J-1.283
X449.705 Y1221.751 Z-2.144 I0.793 J1.283
X448.119 Y1219.185 Z-2.309 I-0.793 J-1.283
X449.705 Y1221.751 Z-2.474 I0.793 J1.283
X448.119 Y1219.185 Z-2.64 I-0.793 J-1.283
X449.705 Y1221.751 Z-2.805 I0.793 J1.283
X448.119 Y1219.185 Z-2.971 I-0.793 J-1.283
X448.912 Y1218.96 Z-3 I0.793 J1.283
X448.912 Y1221.05 I0 J1.045
G1 X448.798 Y1221.056 F1000
X448.685 Y1221.067
G3 X448.385 Y1220.791 I-0.023 J-0.276
G1 Y1220.269
G3 X448.685 Y1219.993 I0.277 J0
G1 X448.798 Y1220.004
X448.912 Y1220.01
X467.512
X467.626 Y1220.004
X467.739 Y1219.993
G3 X468.039 Y1220.269 I0.023 J0.276
G1 Y1220.791
G3 X467.739 Y1221.067 I-0.277 J0
G1 X467.626 Y1221.056
X467.512 Y1221.05
X448.912
G2 X447.984 Y1221.803 I0 J0.948
G3 X447.549 Y1222.916 I-3.543 J-0.744
G2 X447.324 Y1223.73 I1.363 J0.814
G1 Y1242.33
G2 X448.912 Y1243.917 I1.587 J0
G1 X467.512
G2 X469.099 Y1242.33 I0 J-1.588
G1 Y1223.73
G2 X467.512 Y1222.142 I-1.587 J0
G1 X448.912
G2 X447.549 Y1222.916 I0 J1.588
G1 X447.491 Y1223.022 Z-2.976 F600
X447.448 Y1223.116 Z-2.907
X447.423 Y1223.18 Z-2.804
X447.415 Y1223.203 Z-2.683
Z5
G0 X449.947 Y1196.688
G1 Z1.317 F300
X449.931 Y1196.704 Z1.198
X449.881 Y1196.747 Z1.097
X449.803 Y1196.809 Z1.027
X449.705 Y1196.875 Z1
G3 X448.119 Y1194.309 Z0.835 I-0.793 J-1.283
X449.705 Y1196.875 Z0.669 I0.793 J1.283
X448.119 Y1194.309 Z0.504 I-0.793 J-1.283
X449.705 Y1196.875 Z0.338 I0.793 J1.283
X448.119 Y1194.309 Z0.173 I-0.793 J-1.283
X449.705 Y1196.875 Z0.007 I0.793 J1.283
X448.119 Y1194.309 Z-0.158 I-0.793 J-1.283
X449.705 Y1196.875 Z-0.324 I0.793 J1.283
X448.119 Y1194.309 Z-0.489 I-0.793 J-1.283
X449.705 Y1196.875 Z-0.655 I0.793 J1.283
X448.119 Y1194.309 Z-0.82 I-0.793 J-1.283
X449.705 Y1196.875 Z-0.985 I0.793 J1.283
X448.119 Y1194.309 Z-1.151 I-0.793 J-1.283
X449.705 Y1196.875 Z-1.316 I0.793 J1.283
X448.119 Y1194.309 Z-1.482 I-0.793 J-1.283
X449.705 Y1196.875 Z-1.647 I0.793 J1.283
X448.119 Y1194.309 Z-1.813 I-0.793 J-1.283
X449.705 Y1196.875 Z-1.978 I0.793 J1.283
X448.119 Y1194.309 Z-2.144 I-0.793 J-1.283
X449.705 Y1196.875 Z-2.309 I0.793 J1.283
X448.119 Y1194.309 Z-2.474 I-0.793 J-1.283
X449.705 Y1196.875 Z-2.64 I0.793 J1.283
X448.119 Y1194.309 Z-2.805 I-0.793 J-1.283
X449.705 Y1196.875 Z-2.971 I0.793 J1.283
X448.912 Y1197.1 Z-3 I-0.793 J-1.283
X448.912 Y1195.01 I0 J-1.045
G1 X467.512 Y1195.012 F1000
X467.584 Y1195.01
X467.655 Y1195.004
X467.798 Y1194.988
G3 X468.054 Y1195.245 I0.025 J0.232
G2 X468.039 Y1195.53 I2.658 J0.286
G1 Y1195.791
G3 X467.739 Y1196.067 I-0.277 J0
G1 X467.626 Y1196.056
X467.512 Y1196.05
X448.912
X448.798 Y1196.056
X448.685 Y1196.067
G3 X448.385 Y1195.791 I-0.023 J-0.276
G1 Y1195.269
G3 X448.685 Y1194.993 I0.277 J0
G1 X448.798 Y1195.004
X448.912 Y1195.01
G3 X449.298 Y1196.599 I0 J0.841
G2 X447.924 Y1197.487 I3.839 J7.444
X447.324 Y1198.73 I0.988 J1.243
G1 Y1217.33
G2 X448.912 Y1218.917 I1.587 J0
G1 X467.512
G2 X469.099 Y1217.33 I0 J-1.588
G1 Y1198.73
G2 X467.512 Y1197.142 I-1.587 J0
G1 X448.912
G2 X447.924 Y1197.487 I0 J1.588
G1 X447.873 Y1197.52 Z-2.988 F600
X447.817 Y1197.543 Z-2.976
X447.767 Y1197.554 Z-2.941
X447.715 Y1197.556 Z-2.907
X447.647 Y1197.546 Z-2.804
X447.624 Y1197.539 Z-2.683
Z5
G0 X471.87 Y1172.694
G1 Z1.317 F300
X471.886 Y1172.711 Z1.198
X471.929 Y1172.761 Z1.097
X471.991 Y1172.839 Z1.027
X472.057 Y1172.937 Z1
G3 X472.282 Y1173.73 Z0.971 I-1.283 J0.793
X469.266 Y1173.73 Z0.805 I-1.508 J0
X472.282 Y1173.73 Z0.64 I1.508 J0
X469.266 Y1173.73 Z0.474 I-1.508 J0
X472.282 Y1173.73 Z0.309 I1.508 J0
X469.266 Y1173.73 Z0.144 I-1.508 J0
X472.282 Y1173.73 Z-0.022 I1.508 J0
X469.266 Y1173.73 Z-0.187 I-1.508 J0
X472.282 Y1173.73 Z-0.353 I1.508 J0
X469.266 Y1173.73 Z-0.518 I-1.508 J0
X472.282 Y1173.73 Z-0.684 I1.508 J0
X469.266 Y1173.73 Z-0.849 I-1.508 J0
X472.282 Y1173.73 Z-1.015 I1.508 J0
X469.266 Y1173.73 Z-1.18 I-1.508 J0
X472.282 Y1173.73 Z-1.345 I1.508 J0
X469.266 Y1173.73 Z-1.511 I-1.508 J0
X472.282 Y1173.73 Z-1.676 I1.508 J0
X469.266 Y1173.73 Z-1.842 I-1.508 J0
X472.282 Y1173.73 Z-2.007 I1.508 J0
X469.266 Y1173.73 Z-2.173 I-1.508 J0
X472.282 Y1173.73 Z-2.338 I1.508 J0
X469.266 Y1173.73 Z-2.504 I-1.508 J0
X472.282 Y1173.73 Z-2.669 I1.508 J0
X469.266 Y1173.73 Z-2.835 I-1.508 J0
X472.282 Y1173.73 Z-3 I1.508 J0
X470.192 Y1173.73 I-1.045 J0
G1 X470.186 Y1173.616 F1000
X470.175 Y1173.503
G3 X470.451 Y1173.203 I0.276 J-0.023
G1 X470.973
G3 X471.249 Y1173.503 I0 J0.277
G1 X471.238 Y1173.616
X471.232 Y1173.73
Y1192.33
X471.238 Y1192.444
X471.249 Y1192.557
G3 X470.973 Y1192.857 I-0.276 J0.024
G1 X470.712
G2 X470.426 Y1192.872 I0 J2.673
G3 X470.17 Y1192.615 I-0.025 J-0.232
G1 X470.186 Y1192.473
X470.192 Y1192.402
X470.194 Y1192.33
X470.192 Y1173.73
G2 X469.439 Y1172.802 I-0.948 J0
G3 X468.326 Y1172.367 I0.744 J-3.543
G2 X467.512 Y1172.142 I-0.814 J1.363
G1 X448.912
G2 X447.324 Y1173.73 I0 J1.588
G1 Y1192.33
G2 X448.912 Y1193.917 I1.587 J0
G1 X467.512
G2 X469.099 Y1192.33 I0 J-1.588
G1 Y1173.73
G2 X468.326 Y1172.367 I-1.587 J0
G1 X468.22 Y1172.309 Z-2.976 F600
X468.126 Y1172.266 Z-2.907
X468.062 Y1172.241 Z-2.804
X468.039 Y1172.233 Z-2.683
Z5
G0 X496.868 Y1172.692
G1 Z1.317 F300
X496.883 Y1172.709 Z1.198
X496.927 Y1172.759 Z1.097
X496.988 Y1172.837 Z1.027
X497.054 Y1172.935 Z1
G3 X494.489 Y1174.521 Z0.835 I-1.283 J0.793
X497.054 Y1172.935 Z0.669 I1.283 J-0.793
X494.489 Y1174.521 Z0.504 I-1.283 J0.793
X497.054 Y1172.935 Z0.338 I1.283 J-0.793
X494.489 Y1174.521 Z0.173 I-1.283 J0.793
X497.054 Y1172.935 Z0.007 I1.283 J-0.793
X494.489 Y1174.521 Z-0.158 I-1.283 J0.793
X497.054 Y1172.935 Z-0.324 I1.283 J-0.793
X494.489 Y1174.521 Z-0.489 I-1.283 J0.793
X497.054 Y1172.935 Z-0.655 I1.283 J-0.793
X494.489 Y1174.521 Z-0.82 I-1.283 J0.793
X497.054 Y1172.935 Z-0.985 I1.283 J-0.793
X494.489 Y1174.521 Z-1.151 I-1.283 J0.793
X497.054 Y1172.935 Z-1.316 I1.283 J-0.793
X494.489 Y1174.521 Z-1.482 I-1.283 J0.793
X497.054 Y1172.935 Z-1.647 I1.283 J-0.793
X494.489 Y1174.521 Z-1.813 I-1.283 J0.793
X497.054 Y1172.935 Z-1.978 I1.283 J-0.793
X494.489 Y1174.521 Z-2.144 I-1.283 J0.793
X497.054 Y1172.935 Z-2.309 I1.283 J-0.793
X494.489 Y1174.521 Z-2.474 I-1.283 J0.793
X497.054 Y1172.935 Z-2.64 I1.283 J-0.793
X494.489 Y1174.521 Z-2.805 I-1.283 J0.793
X497.054 Y1172.935 Z-2.971 I1.283 J-0.793
