(GrandePlaqueV2)
(T1  D=3.175 CR=0 - ZMIN=-18 - fraise deux tailles)
G90 G94
G17
G21

(Contour 2D1)
S99999 M3
G54
G0 Z15
G0 X306.455 Y223.893
Z15
Z5
G1 Z2.5 F300
Z-1.183
G18 G2 X306.772 Z-1.5 I0.318 K0 F600
G1 X307.09
G17 G3 X307.408 Y224.211 I0 J0.318
G1 Y227.266 F1000
G2 X308.995 Y228.854 I1.587 J0
G1 X316.905
G2 X318.492 Y227.266 I0 J-1.587
G1 Y226.143
X324.116
Y226.895
X322.364
G2 X320.776 Y228.483 I0 J1.588
G1 Y231.085
X304.901
Y228.483
G2 X303.314 Y226.895 I-1.587 J0
G1 X301.689
Y212.214
X303.314
G2 X304.901 Y210.626 I0 J-1.587
G1 Y208.167
X320.909
Y210.626
G2 X322.497 Y212.214 I1.588 J0
G1 X324.41
Y214.13
X318.492
Y212.354
G2 X316.905 Y210.766 I-1.587 J0
G1 X308.995
G2 X307.408 Y212.354 I0 J1.588
G1 Y224.211
G3 X307.09 Y224.528 I-0.318 J0 F600
G1 X306.772
G18 G3 X306.455 Z-1.183 I0 K0.317
G1 Z2.5
Z5
G0 Y223.893
G1 Z1 F300
Z-2.683
G2 X306.772 Z-3 I0.318 K0 F600
G1 X307.09
G17 G3 X307.408 Y224.211 I0 J0.318
G1 Y227.266 F1000
G2 X308.995 Y228.854 I1.587 J0
G1 X316.905
G2 X318.492 Y227.266 I0 J-1.587
G1 Y226.143
X324.116
Y226.895
X322.364
G2 X320.776 Y228.483 I0 J1.588
G1 Y231.085
X304.901
Y228.483
G2 X303.314 Y226.895 I-1.587 J0
G1 X301.689
Y212.214
X303.314
G2 X304.901 Y210.626 I0 J-1.587
G1 Y208.167
X320.909
Y210.626
G2 X322.497 Y212.214 I1.588 J0
G1 X324.41
Y214.13
X318.492
Y212.354
G2 X316.905 Y210.766 I-1.587 J0
G1 X308.995
G2 X307.408 Y212.354 I0 J1.588
G1 Y224.211
G3 X307.09 Y224.528 I-0.318 J0 F600
G1 X306.772
G18 G3 X306.455 Z-2.683 I0 K0.318
G1 Z1
Z5
G0 Y223.893
G1 Z-0.5 F300
Z-4.183
G2 X306.772 Z-4.5 I0.318 K0 F600
G1 X307.09
G17 G3 X307.408 Y224.211 I0 J0.318
G1 Y227.266 F1000
G2 X308.995 Y228.854 I1.587 J0
G1 X316.905
G2 X318.492 Y227.266 I0 J-1.587
G1 Y226.143
X324.116
Y226.895
X322.364
G2 X320.776 Y228.483 I0 J1.588
G1 Y231.085
X304.901
Y228.483
G2 X303.314 Y226.895 I-1.587 J0
G1 X301.689
Y212.214
X303.314
G2 X304.901 Y210.626 I0 J-1.587
G1 Y208.167
X320.909
Y210.626
G2 X322.497 Y212.214 I1.588 J0
G1 X324.41
Y214.13
X318.492
Y212.354
G2 X316.905 Y210.766 I-1.587 J0
G1 X308.995
G2 X307.408 Y212.354 I0 J1.588
G1 Y224.211
G3 X307.09 Y224.528 I-0.318 J0 F600
G1 X306.772
G18 G3 X306.455 Z-4.183 I0 K0.318
G1 Z-0.5
Z5
G0 Y223.893
G1 Z-2 F300
Z-5.683
G2 X306.772 Z-6 I0.318 K0 F600
G1 X307.09
G17 G3 X307.408 Y224.211 I0 J0.318
G1 Y227.266 F1000
G2 X308.995 Y228.854 I1.587 J0
G1 X316.905
G2 X318.492 Y227.266 I0 J-1.587
G1 Y226.143
X324.116
Y226.895
X322.364
G2 X320.776 Y228.483 I0 J1.588
G1 Y231.085
X304.901
Y228.483
G2 X303.314 Y226.895 I-1.587 J0
G1 X301.689
Y212.214
X303.314
G2 X304.901 Y210.626 I0 J-1.587
G1 Y208.167
X320.909
Y210.626
G2 X322.497 Y212.214 I1.588 J0
G1 X324.41
Y214.13
X318.492
Y212.354
G2 X316.905 Y210.766 I-1.587 J0
G1 X308.995
G2 X307.408 Y212.354 I0 J1.588
G1 Y224.211
G3 X307.09 Y224.528 I-0.318 J0 F600
G1 X306.772
G18 G3 X306.455 Z-5.683 I0 K0.318
G1 Z-2
Z5
G0 Y223.893
G1 Z-3.5 F300
Z-7.183
G2 X306.772 Z-7.5 I0.318 K0 F600
G1 X307.09
G17 G3 X307.408 Y224.211 I0 J0.318
G1 Y227.266 F1000
G2 X308.995 Y228.854 I1.587 J0
G1 X316.905
G2 X318.492 Y227.266 I0 J-1.587
G1 Y226.143
X324.116
Y226.895
X322.364
G2 X320.776 Y228.483 I0 J1.588
G1 Y231.085
X304.901
Y228.483
G2 X303.314 Y226.895 I-1.587 J0
G1 X301.689
Y212.214
X303.314
G2 X304.901 Y210.626 I0 J-1.587
G1 Y208.167
X320.909
Y210.626
G2 X322.497 Y212.214 I1.588 J0
G1 X324.41
Y214.13
X318.492
Y212.354
G2 X316.905 Y210.766 I-1.587 J0
G1 X308.995
G2 X307.408 Y212.354 I0 J1.588
G1 Y224.211
G3 X307.09 Y224.528 I-0.318 J0 F600
G1 X306.772
G18 G3 X306.455 Z-7.183 I0 K0.318
G1 Z-3.5
Z5
G0 Y223.893
G1 Z-5 F300
Z-8.683
G2 X306.772 Z-9 I0.318 K0 F600
G1 X307.09
G17 G3 X307.408 Y224.211 I0 J0.318
G1 Y227.266 F1000
G2 X308.995 Y228.854 I1.587 J0
G1 X316.905
G2 X318.492 Y227.266 I0 J-1.587
G1 Y226.143
X324.116
Y226.895
X322.364
G2 X320.776 Y228.483 I0 J1.588
G1 Y231.085
X304.901
Y228.483
G2 X303.314 Y226.895 I-1.587 J0
G1 X301.689
Y212.214
X303.314
G2 X304.901 Y210.626 I0 J-1.587
G1 Y208.167
X320.909
Y210.626
G2 X322.497 Y212.214 I1.588 J0
G1 X324.41
Y214.13
X318.492
Y212.354
G2 X316.905 Y210.766 I-1.587 J0
G1 X308.995
G2 X307.408 Y212.354 I0 J1.588
G1 Y224.211
G3 X307.09 Y224.528 I-0.318 J0 F600
G1 X306.772
G18 G3 X306.455 Z-8.683 I0 K0.318
G1 Z-5
Z5
G0 Y223.893
G1 Z-6.5 F300
Z-10.183
G2 X306.772 Z-10.5 I0.318 K0 F600
G1 X307.09
G17 G3 X307.408 Y224.211 I0 J0.318
G1 Y227.266 F1000
G2 X308.995 Y228.854 I1.587 J0
G1 X316.905
G2 X318.492 Y227.266 I0 J-1.587
G1 Y226.143
X324.116
Y226.895
X322.364
G2 X320.776 Y228.483 I0 J1.588
G1 Y231.085
X304.901
Y228.483
G2 X303.314 Y226.895 I-1.587 J0
G1 X301.689
Y212.214
X303.314
G2 X304.901 Y210.626 I0 J-1.587
G1 Y208.167
X320.909
Y210.626
G2 X322.497 Y212.214 I1.588 J0
G1 X324.41
Y214.13
X318.492
Y212.354
G2 X316.905 Y210.766 I-1.587 J0
G1 X308.995
G2 X307.408 Y212.354 I0 J1.588
G1 Y224.211
G3 X307.09 Y224.528 I-0.318 J0 F600
G1 X306.772
G18 G3 X306.455 Z-10.183 I0 K0.318
G1 Z-6.5
Z5
G0 Y223.893
G1 Z-8 F300
Z-11.683
G2 X306.772 Z-12 I0.318 K0 F600
G1 X307.09
G17 G3 X307.408 Y224.211 I0 J0.318
G1 Y227.266 F1000
G2 X308.995 Y228.854 I1.587 J0
G1 X316.905
G2 X318.492 Y227.266 I0 J-1.587
G1 Y226.143
X324.116
Y226.895
X322.364
G2 X320.776 Y228.483 I0 J1.588
G1 Y231.085
X304.901
Y228.483
G2 X303.314 Y226.895 I-1.587 J0
G1 X301.689
Y212.214
X303.314
G2 X304.901 Y210.626 I0 J-1.587
G1 Y208.167
X320.909
Y210.626
G2 X322.497 Y212.214 I1.588 J0
G1 X324.41
Y214.13
X318.492
Y212.354
G2 X316.905 Y210.766 I-1.587 J0
G1 X308.995
G2 X307.408 Y212.354 I0 J1.588
G1 Y224.211
G3 X307.09 Y224.528 I-0.318 J0 F600
G1 X306.772
G18 G3 X306.455 Z-11.683 I0 K0.318
G1 Z-8
Z5
G0 Y223.893
G1 Z-9.5 F300
Z-13.183
G2 X306.772 Z-13.5 I0.318 K0 F600
G1 X307.09
G17 G3 X307.408 Y224.211 I0 J0.318
G1 Y227.266 F1000
G2 X308.995 Y228.854 I1.587 J0
G1 X316.905
G2 X318.492 Y227.266 I0 J-1.587
G1 Y226.143
X324.116
Y226.895
X322.364
G2 X320.776 Y228.483 I0 J1.588
G1 Y231.085
X315.944
X315.194 Z-12
X312.018
X311.268 Z-13.5 F300
X304.901 F1000
Y228.483
G2 X303.314 Y226.895 I-1.587 J0
G1 X301.689
Y222.238
Y221.488 Z-12
Y218.314
Y217.564 Z-13.5 F300
Y212.214 F1000
X303.314
G2 X304.901 Y210.626 I0 J-1.587
G1 Y208.167
X310.551
X311.301 Z-12
X314.475
X315.225 Z-13.5 F300
X320.909 F1000
Y210.626
G2 X322.497 Y212.214 I1.588 J0
G1 X324.41
Y214.13
X318.492
Y212.354
G2 X316.905 Y210.766 I-1.587 J0
G1 X308.995
G2 X307.408 Y212.354 I0 J1.588
G1 Y224.211
G3 X307.09 Y224.528 I-0.318 J0 F600
G1 X306.772
G18 G3 X306.455 Z-13.183 I0 K0.318
G1 Z-9.5
Z5
G0 Y223.893
G1 Z-11 F300
Z-14.683
G2 X306.772 Z-15 I0.318 K0 F600
G1 X307.09
G17 G3 X307.408 Y224.211 I0 J0.318
G1 Y227.266 F1000
G2 X308.995 Y228.854 I1.587 J0
G1 X316.905
G2 X318.492 Y227.266 I0 J-1.587
G1 Y226.143
X324.116
Y226.895
X322.364
G2 X320.776 Y228.483 I0 J1.588
G1 Y231.085
X316.694
X315.194 Z-12
X312.018
X310.518 Z-15 F300
X304.901 F1000
Y228.483
G2 X303.314 Y226.895 I-1.587 J0
G1 X301.689
Y222.988
Y221.488 Z-12
Y218.314
Y216.814 Z-15 F300
Y212.214 F1000
X303.314
G2 X304.901 Y210.626 I0 J-1.587
G1 Y208.167
X309.801
X311.301 Z-12
X314.475
X315.975 Z-15 F300
X320.909 F1000
Y210.626
G2 X322.497 Y212.214 I1.588 J0
G1 X324.41
Y214.13
X318.492
Y212.354
G2 X316.905 Y210.766 I-1.587 J0
G1 X308.995
G2 X307.408 Y212.354 I0 J1.588
G1 Y224.211
G3 X307.09 Y224.528 I-0.318 J0 F600
G1 X306.772
G18 G3 X306.455 Z-14.683 I0 K0.318
G1 Z-11
Z5
G0 Y223.893
G1 Z-12.5 F300
Z-16.183
G2 X306.772 Z-16.5 I0.318 K0 F600
G1 X307.09
G17 G3 X307.408 Y224.211 I0 J0.318
G1 Y227.266 F1000
G2 X308.995 Y228.854 I1.587 J0
G1 X316.905
G2 X318.492 Y227.266 I0 J-1.587
G1 Y226.143
X324.116
Y226.895
X322.364
G2 X320.776 Y228.483 I0 J1.588
G1 Y231.085
X317.444
X315.194 Z-12
X312.018
X309.768 Z-16.5 F300
X304.901 F1000
Y228.483
G2 X303.314 Y226.895 I-1.587 J0
G1 X301.689
Y223.738
Y221.488 Z-12
Y218.314
Y216.064 Z-16.5 F300
Y212.214 F1000
X303.314
G2 X304.901 Y210.626 I0 J-1.587
G1 Y208.167
X309.051
X311.301 Z-12
X314.475
X316.725 Z-16.5 F300
X320.909 F1000
Y210.626
G2 X322.497 Y212.214 I1.588 J0
G1 X324.41
Y214.13
X318.492
Y212.354
G2 X316.905 Y210.766 I-1.587 J0
G1 X308.995
G2 X307.408 Y212.354 I0 J1.588
G1 Y224.211
G3 X307.09 Y224.528 I-0.318 J0 F600
G1 X306.772
G18 G3 X306.455 Z-16.183 I0 K0.317
G1 Z-12.5
Z5
G0 Y223.893
G1 Z-14 F300
Z-17.683
G2 X306.772 Z-18 I0.318 K0 F600
G1 X307.09
G17 G3 X307.408 Y224.211 I0 J0.318
G1 Y227.266 F1000
G2 X308.995 Y228.854 I1.587 J0
G1 X316.905
G2 X318.492 Y227.266 I0 J-1.587
G1 Y226.143
X324.116
Y226.895
X322.364
G2 X320.776 Y228.483 I0 J1.588
G1 Y231.085
X318.194
X315.194 Z-12
X312.018
X309.018 Z-18 F300
X304.901 F1000
Y228.483
G2 X303.314 Y226.895 I-1.587 J0
G1 X301.689
Y224.488
Y221.488 Z-12
Y218.314
Y215.314 Z-18 F300
Y212.214 F1000
X303.314
G2 X304.901 Y210.626 I0 J-1.587
G1 Y208.167
X308.301
X311.301 Z-12
X314.475
X317.475 Z-18 F300
X320.909 F1000
Y210.626
G2 X322.497 Y212.214 I1.588 J0
G1 X324.41
Y214.13
X318.492
Y212.354
G2 X316.905 Y210.766 I-1.587 J0
G1 X308.995
G2 X307.408 Y212.354 I0 J1.588
G1 Y224.211
G3 X307.09 Y224.528 I-0.318 J0 F600
G1 X306.772
G18 G3 X306.455 Z-17.683 I0 K0.317
G1 Z-14
Z5
G0 X289.91 Y229.05
G1 Z2.5 F300
Z-1.183
X289.916 Y229.045 Z-1.253 F600
X289.934 Y229.029 Z-1.32
X289.962 Y229.005 Z-1.38
X290 Y228.972 Z-1.431
X290.046 Y228.932 Z-1.469
X290.096 Y228.888 Z-1.492
X290.15 Y228.842 Z-1.5
X290.389 Y228.633
G17 G3 X290.837 Y228.665 I0.208 J0.24
G2 X292.035 Y229.21 I1.198 J-1.042 F1000
G1 X293.48
Y230.915
X288.453
Y228.716
G2 X286.865 Y227.128 I-1.588 J0
G1 X284.177
Y225.237
G2 X282.589 Y223.65 I-1.588 J0
G1 X281.034
Y221.979
G2 X279.446 Y220.391 I-1.587 J0
G1 X278.267
G2 X276.68 Y221.979 I0 J1.588
G1 Y230.915
X271.432
X271.374 Y208.219
X290.552
Y211.045
G2 X292.139 Y212.633 I1.587 J0
G1 X293.893
Y216.715
G2 X293.39 Y217.105 I0.702 J1.424
G1 X292.035
G2 X290.448 Y218.693 I0 J1.587
G1 Y220.46
X288.217
G2 X286.629 Y222.048 I0 J1.588
G1 Y224.541
G2 X288.217 Y226.128 I1.588 J0
G1 X290.448
Y227.623
G2 X290.837 Y228.665 I1.587 J0
G3 X290.806 Y229.113 I-0.24 J0.208 F600
G1 X290.566 Y229.321
X290.513 Y229.367 Z-1.492
X290.462 Y229.411 Z-1.469
X290.417 Y229.451 Z-1.431
X290.379 Y229.484 Z-1.38
X290.35 Y229.509 Z-1.32
X290.333 Y229.524 Z-1.253
X290.327 Y229.529 Z-1.183
Z2.5
Z5
G0 X289.91 Y229.05
G1 Z1 F300
Z-2.683
X289.916 Y229.045 Z-2.753 F600
X289.934 Y229.029 Z-2.82
X289.962 Y229.005 Z-2.88
X290 Y228.972 Z-2.931
X290.046 Y228.932 Z-2.969
X290.096 Y228.888 Z-2.992
X290.15 Y228.842 Z-3
X290.389 Y228.633
G3 X290.837 Y228.665 I0.208 J0.24
G2 X292.035 Y229.21 I1.198 J-1.042 F1000
G1 X293.48
Y230.915
X288.453
Y228.716
G2 X286.865 Y227.128 I-1.588 J0
G1 X284.177
Y225.237
G2 X282.589 Y223.65 I-1.588 J0
G1 X281.034
Y221.979
G2 X279.446 Y220.391 I-1.587 J0
G1 X278.267
G2 X276.68 Y221.979 I0 J1.588
G1 Y230.915
X271.432
X271.374 Y208.219
X290.552
Y211.045
G2 X292.139 Y212.633 I1.587 J0
G1 X293.893
Y216.715
G2 X293.39 Y217.105 I0.702 J1.424
G1 X292.035
G2 X290.448 Y218.693 I0 J1.587
G1 Y220.46
X288.217
G2 X286.629 Y222.048 I0 J1.588
G1 Y224.541
G2 X288.217 Y226.128 I1.588 J0
G1 X290.448
Y227.623
G2 X290.837 Y228.665 I1.587 J0
G3 X290.806 Y229.113 I-0.24 J0.208 F600
G1 X290.566 Y229.321
X290.513 Y229.367 Z-2.992
X290.462 Y229.411 Z-2.969
X290.417 Y229.451 Z-2.931
X290.379 Y229.484 Z-2.88
X290.35 Y229.509 Z-2.82
X290.333 Y229.524 Z-2.753
X290.327 Y229.529 Z-2.683
Z1
Z5
G0 X289.91 Y229.05
G1 Z-0.5 F300
Z-4.183
X289.916 Y229.045 Z-4.253 F600
X289.934 Y229.029 Z-4.32
X289.962 Y229.005 Z-4.38
X290 Y228.972 Z-4.431
X290.046 Y228.932 Z-4.469
X290.096 Y228.888 Z-4.492
X290.15 Y228.842 Z-4.5
X290.389 Y228.633
G3 X290.837 Y228.665 I0.208 J0.24
G2 X292.035 Y229.21 I1.198 J-1.042 F1000
G1 X293.48
Y230.915
X288.453
Y228.716
G2 X286.865 Y227.128 I-1.588 J0
G1 X284.177
Y225.237
G2 X282.589 Y223.65 I-1.588 J0
G1 X281.034
Y221.979
G2 X279.446 Y220.391 I-1.587 J0
G1 X278.267
G2 X276.68 Y221.979 I0 J1.588
G1 Y230.915
X271.432
X271.374 Y208.219
X290.552
Y211.045
G2 X292.139 Y212.633 I1.587 J0
G1 X293.893
Y216.715
G2 X293.39 Y217.105 I0.702 J1.424
G1 X292.035
G2 X290.448 Y218.693 I0 J1.587
G1 Y220.46
X288.217
G2 X286.629 Y222.048 I0 J1.588
G1 Y224.541
G2 X288.217 Y226.128 I1.588 J0
G1 X290.448
Y227.623
G2 X290.837 Y228.665 I1.587 J0
G3 X290.806 Y229.113 I-0.24 J0.208 F600
G1 X290.566 Y229.321
X290.513 Y229.367 Z-4.492
X290.462 Y229.411 Z-4.469
X290.417 Y229.451 Z-4.431
X290.379 Y229.484 Z-4.38
X290.35 Y229.509 Z-4.32
X290.333 Y229.524 Z-4.253
X290.327 Y229.529 Z-4.183
Z-0.5
Z5
G0 X289.91 Y229.05
G1 Z-2 F300
Z-5.683
X289.916 Y229.045 Z-5.753 F600
X289.934 Y229.029 Z-5.82
X289.962 Y229.005 Z-5.88
X290 Y228.972 Z-5.931
X290.046 Y228.932 Z-5.969
X290.096 Y228.888 Z-5.992
X290.15 Y228.842 Z-6
X290.389 Y228.633
G3 X290.837 Y228.665 I0.208 J0.24
G2 X292.035 Y229.21 I1.198 J-1.042 F1000
G1 X293.48
Y230.915
X288.453
Y228.716
G2 X286.865 Y227.128 I-1.588 J0
G1 X284.177
Y225.237
G2 X282.589 Y223.65 I-1.588 J0
G1 X281.034
Y221.979
G2 X279.446 Y220.391 I-1.587 J0
G1 X278.267
G2 X276.68 Y221.979 I0 J1.588
G1 Y230.915
X271.432
X271.374 Y208.219
X290.552
Y211.045
G2 X292.139 Y212.633 I1.587 J0
G1 X293.893
Y216.715
G2 X293.39 Y217.105 I0.702 J1.424
G1 X292.035
G2 X290.448 Y218.693 I0 J1.587
G1 Y220.46
X288.217
G2 X286.629 Y222.048 I0 J1.588
G1 Y224.541
G2 X288.217 Y226.128 I1.588 J0
G1 X290.448
Y227.623
G2 X290.837 Y228.665 I1.587 J0
G3 X290.806 Y229.113 I-0.24 J0.208 F600
G1 X290.566 Y229.321
X290.513 Y229.367 Z-5.992
X290.462 Y229.411 Z-5.969
X290.417 Y229.451 Z-5.931
X290.379 Y229.484 Z-5.88
X290.35 Y229.509 Z-5.82
X290.333 Y229.524 Z-5.753
X290.327 Y229.529 Z-5.683
Z-2
Z5
G0 X289.91 Y229.05
G1 Z-3.5 F300
Z-7.183
X289.916 Y229.045 Z-7.253 F600
X289.934 Y229.029 Z-7.32
X289.962 Y229.005 Z-7.38
X290 Y228.972 Z-7.431
X290.046 Y228.932 Z-7.469
X290.096 Y228.888 Z-7.492
X290.15 Y228.842 Z-7.5
X290.389 Y228.633
G3 X290.837 Y228.665 I0.208 J0.24
G2 X292.035 Y229.21 I1.198 J-1.042 F1000
G1 X293.48
Y230.915
X288.453
Y228.716
G2 X286.865 Y227.128 I-1.588 J0
G1 X284.177
Y225.237
G2 X282.589 Y223.65 I-1.588 J0
G1 X281.034
Y221.979
G2 X279.446 Y220.391 I-1.587 J0
G1 X278.267
G2 X276.68 Y221.979 I0 J1.588
G1 Y230.915
X271.432
X271.374 Y208.219
X290.552
Y211.045
G2 X292.139 Y212.633 I1.587 J0
G1 X293.893
Y216.715
G2 X293.39 Y217.105 I0.702 J1.424
G1 X292.035
G2 X290.448 Y218.693 I0 J1.587
G1 Y220.46
X288.217
G2 X286.629 Y222.048 I0 J1.588
G1 Y224.541
G2 X288.217 Y226.128 I1.588 J0
G1 X290.448
Y227.623
G2 X290.837 Y228.665 I1.587 J0
G3 X290.806 Y229.113 I-0.24 J0.208 F600
G1 X290.566 Y229.321
X290.513 Y229.367 Z-7.492
X290.462 Y229.411 Z-7.469
X290.417 Y229.451 Z-7.431
X290.379 Y229.484 Z-7.38
X290.35 Y229.509 Z-7.32
X290.333 Y229.524 Z-7.253
X290.327 Y229.529 Z-7.183
Z-3.5
Z5
G0 X289.91 Y229.05
G1 Z-5 F300
Z-8.683
X289.916 Y229.045 Z-8.753 F600
X289.934 Y229.029 Z-8.82
X289.962 Y229.005 Z-8.88
X290 Y228.972 Z-8.931
X290.046 Y228.932 Z-8.969
X290.096 Y228.888 Z-8.992
X290.15 Y228.842 Z-9
X290.389 Y228.633
G3 X290.837 Y228.665 I0.208 J0.24
G2 X292.035 Y229.21 I1.198 J-1.042 F1000
G1 X293.48
Y230.915
X288.453
Y228.716
G2 X286.865 Y227.128 I-1.588 J0
G1 X284.177
Y225.237
G2 X282.589 Y223.65 I-1.588 J0
G1 X281.034
Y221.979
G2 X279.446 Y220.391 I-1.587 J0
G1 X278.267
G2 X276.68 Y221.979 I0 J1.588
G1 Y230.915
X271.432
X271.374 Y208.219
X290.552
Y211.045
G2 X292.139 Y212.633 I1.587 J0
G1 X293.893
Y216.715
G2 X293.39 Y217.105 I0.702 J1.424
G1 X292.035
G2 X290.448 Y218.693 I0 J1.587
G1 Y220.46
X288.217
G2 X286.629 Y222.048 I0 J1.588
G1 Y224.541
G2 X288.217 Y226.128 I1.588 J0
G1 X290.448
Y227.623
G2 X290.837 Y228.665 I1.587 J0
G3 X290.806 Y229.113 I-0.24 J0.208 F600
G1 X290.566 Y229.321
X290.513 Y229.367 Z-8.992
X290.462 Y229.411 Z-8.969
X290.417 Y229.451 Z-8.931
X290.379 Y229.484 Z-8.88
X290.35 Y229.509 Z-8.82
X290.333 Y229.524 Z-8.753
X290.327 Y229.529 Z-8.683
Z-5
Z5
G0 X289.91 Y229.05
G1 Z-6.5 F300
Z-10.183
X289.916 Y229.045 Z-10.253 F600
X289.934 Y229.029 Z-10.32
X289.962 Y229.005 Z-10.38
X290 Y228.972 Z-10.431
X290.046 Y228.932 Z-10.469
X290.096 Y228.888 Z-10.492
X290.15 Y228.842 Z-10.5
X290.389 Y228.633
G3 X290.837 Y228.665 I0.208 J0.24
G2 X292.035 Y229.21 I1.198 J-1.042 F1000
G1 X293.48
Y230.915
X288.453
Y228.716
G2 X286.865 Y227.128 I-1.588 J0
G1 X284.177
Y225.237
G2 X282.589 Y223.65 I-1.588 J0
G1 X281.034
Y221.979
G2 X279.446 Y220.391 I-1.587 J0
G1 X278.267
G2 X276.68 Y221.979 I0 J1.588
G1 Y230.915
X271.432
X271.374 Y208.219
X290.552
Y211.045
G2 X292.139 Y212.633 I1.587 J0
G1 X293.893
Y216.715
G2 X293.39 Y217.105 I0.702 J1.424
G1 X292.035
G2 X290.448 Y218.693 I0 J1.587
G1 Y220.46
X288.217
G2 X286.629 Y222.048 I0 J1.588
G1 Y224.541
G2 X288.217 Y226.128 I1.588 J0
G1 X290.448
Y227.623
G2 X290.837 Y228.665 I1.587 J0
G3 X290.806 Y229.113 I-0.24 J0.208 F600
G1 X290.566 Y229.321
X290.513 Y229.367 Z-10.492
X290.462 Y229.411 Z-10.469
X290.417 Y229.451 Z-10.431
X290.379 Y229.484 Z-10.38
X290.35 Y229.509 Z-10.32
X290.333 Y229.524 Z-10.253
X290.327 Y229.529 Z-10.183
Z-6.5
Z5
G0 X289.91 Y229.05
G1 Z-8 F300
Z-11.683
X289.916 Y229.045 Z-11.753 F600
X289.934 Y229.029 Z-11.82
X289.962 Y229.005 Z-11.88
X290 Y228.972 Z-11.931
X290.046 Y228.932 Z-11.969
X290.096 Y228.888 Z-11.992
X290.15 Y228.842 Z-12
X290.389 Y228.633
G3 X290.837 Y228.665 I0.208 J0.24
G2 X292.035 Y229.21 I1.198 J-1.042 F1000
G1 X293.48
Y230.915
X288.453
Y228.716
G2 X286.865 Y227.128 I-1.588 J0
G1 X284.177
Y225.237
G2 X282.589 Y223.65 I-1.588 J0
G1 X281.034
Y221.979
G2 X279.446 Y220.391 I-1.587 J0
G1 X278.267
G2 X276.68 Y221.979 I0 J1.588
G1 Y230.915
X271.432
X271.374 Y208.219
X290.552
Y211.045
G2 X292.139 Y212.633 I1.587 J0
G1 X293.893
Y216.715
G2 X293.39 Y217.105 I0.702 J1.424
G1 X292.035
G2 X290.448 Y218.693 I0 J1.587
G1 Y220.46
X288.217
G2 X286.629 Y222.048 I0 J1.588
G1 Y224.541
G2 X288.217 Y226.128 I1.588 J0
G1 X290.448
Y227.623
G2 X290.837 Y228.665 I1.587 J0
G3 X290.806 Y229.113 I-0.24 J0.208 F600
G1 X290.566 Y229.321
X290.513 Y229.367 Z-11.992
X290.462 Y229.411 Z-11.969
X290.417 Y229.451 Z-11.931
X290.379 Y229.484 Z-11.88
X290.35 Y229.509 Z-11.82
X290.333 Y229.524 Z-11.753
X290.327 Y229.529 Z-11.683
Z-8
Z5
G0 X289.91 Y229.05
G1 Z-9.5 F300
Z-12
X289.956 Y229.01 F600
Z-13.369 F300
X289.985 Y228.985 Z-13.414 F600
X290.021 Y228.954 Z-13.45
X290.061 Y228.919 Z-13.478
X290.105 Y228.881 Z-13.494
X290.15 Y228.842 Z-13.5
X290.389 Y228.633
G3 X290.837 Y228.665 I0.208 J0.24
G2 X291.264 Y229.01 I1.198 J-1.042 F1000
G1 Z-12
G2 X292.035 Y229.21 I0.771 J-1.387
G1 X293.297 Z-13.5 F300
X293.48 F1000
Y230.915
X293.297
X292.547 Z-12
X289.371
X288.621 Z-13.5 F300
X288.453 F1000
Y228.716
G2 X286.865 Y227.128 I-1.588 J0
G1 X284.177
Y225.237
G2 X282.589 Y223.65 I-1.588 J0
G1 X281.034
Y221.979
G2 X279.446 Y220.391 I-1.587 J0
G1 X278.267
G2 X276.68 Y221.979 I0 J1.588
G1 Y230.915
X271.432
X271.409 Y222.132
X271.408 Y221.382 Z-12
X271.4 Y218.207
X271.398 Y217.457 Z-13.5 F300
X271.374 Y208.219 F1000
X278.665
X279.415 Z-12
X282.591
X283.341 Z-13.5 F300
X290.552 F1000
Y211.045
G2 X292.139 Y212.633 I1.587 J0
G1 X293.893
Y216.715
G2 X293.39 Y217.105 I0.702 J1.424
G1 X292.035
G2 X290.448 Y218.693 I0 J1.587
G1 Y220.46
X288.217
G2 X286.629 Y222.048 I0 J1.588
G1 Y224.541
G2 X288.217 Y226.128 I1.588 J0
G1 X290.448
Y227.623
G2 X290.837 Y228.665 I1.587 J0
G3 X290.884 Y229.01 I-0.24 J0.208 F600
G1 Z-12
X290.85 Y229.066
X290.806 Y229.113
X290.327 Y229.529
Z-9.5
Z5
G0 X289.91 Y229.05
G1 Z-11 F300
Z-12
X289.956 Y229.01 F600
Z-14.869 F300
X289.985 Y228.985 Z-14.914 F600
X290.021 Y228.954 Z-14.95
X290.061 Y228.919 Z-14.978
X290.105 Y228.881 Z-14.994
X290.15 Y228.842 Z-15
X290.389 Y228.633
G3 X290.837 Y228.665 I0.208 J0.24
G2 X291.264 Y229.01 I1.198 J-1.042 F1000
G1 Z-12
G2 X292.035 Y229.21 I0.771 J-1.387
G1 X293.48 Z-13.868 F300
Y230.915
X292.547 Z-12
X289.371
X288.453 Z-13.838
Y229.01
Z-15
Y228.716 F1000
G2 X286.865 Y227.128 I-1.588 J0
G1 X284.177
Y225.237
G2 X282.589 Y223.65 I-1.588 J0
G1 X281.034
Y221.979
G2 X279.446 Y220.391 I-1.587 J0
G1 X278.267
G2 X276.68 Y221.979 I0 J1.588
G1 Y230.915
X271.432
X271.411 Y222.882
X271.408 Y221.382 Z-12
X271.4 Y218.207
X271.396 Y216.707 Z-15 F300
X271.374 Y208.219 F1000
X277.915
X279.415 Z-12
X282.591
X284.091 Z-15 F300
X290.552 F1000
Y211.045
G2 X292.139 Y212.633 I1.587 J0
G1 X293.893
Y216.715
G2 X293.39 Y217.105 I0.702 J1.424
G1 X292.035
G2 X290.448 Y218.693 I0 J1.587
G1 Y220.46
X288.217
G2 X286.629 Y222.048 I0 J1.588
G1 Y224.541
G2 X288.217 Y226.128 I1.588 J0
G1 X290.448
Y227.623
G2 X290.837 Y228.665 I1.587 J0
G3 X290.884 Y229.01 I-0.24 J0.208 F600
G1 Z-12
X290.85 Y229.066
X290.806 Y229.113
X290.327 Y229.529
Z-11
Z5
G0 X289.91 Y229.05
G1 Z-12 F300
X289.956 Y229.01 F600
Z-16.369 F300
X289.985 Y228.985 Z-16.414 F600
X290.021 Y228.954 Z-16.45
X290.061 Y228.919 Z-16.478
X290.105 Y228.881 Z-16.494
X290.15 Y228.842 Z-16.5
X290.389 Y228.633
G3 X290.837 Y228.665 I0.208 J0.24
G2 X291.264 Y229.01 I1.198 J-1.042 F1000
G1 Z-12
G2 X292.035 Y229.21 I0.771 J-1.387
G1 X293.48 Z-13.868 F300
Y230.915
X292.547 Z-12
X289.371
X288.453 Z-13.838
Y229.01
Z-16.5
Y228.716 F1000
G2 X286.865 Y227.128 I-1.588 J0
G1 X284.177
Y225.237
G2 X282.589 Y223.65 I-1.588 J0
G1 X281.034
Y221.979
G2 X279.446 Y220.391 I-1.587 J0
G1 X278.267
G2 X276.68 Y221.979 I0 J1.588
G1 Y230.915
X271.432
X271.413 Y223.632
X271.408 Y221.382 Z-12
X271.4 Y218.207
X271.394 Y215.957 Z-16.5 F300
X271.374 Y208.219 F1000
X277.165
X279.415 Z-12
X282.591
X284.841 Z-16.5 F300
X290.552 F1000
Y211.045
G2 X292.139 Y212.633 I1.587 J0
G1 X293.893
Y216.715
G2 X293.39 Y217.105 I0.702 J1.424
G1 X292.035
G2 X290.448 Y218.693 I0 J1.587
G1 Y220.46
X288.217
G2 X286.629 Y222.048 I0 J1.588
G1 Y224.541
G2 X288.217 Y226.128 I1.588 J0
G1 X290.448
Y227.623
G2 X290.837 Y228.665 I1.587 J0
G3 X290.884 Y229.01 I-0.24 J0.208 F600
G1 Z-12
X290.85 Y229.066
X290.806 Y229.113
X290.327 Y229.529
Z5
G0 X289.91 Y229.05
G1 Z-12 F300
X289.956 Y229.01 F600
Z-17.869 F300
X289.985 Y228.985 Z-17.914 F600
X290.021 Y228.954 Z-17.95
X290.061 Y228.919 Z-17.978
X290.105 Y228.881 Z-17.994
X290.15 Y228.842 Z-18
X290.389 Y228.633
G3 X290.837 Y228.665 I0.208 J0.24
G2 X291.264 Y229.01 I1.198 J-1.042 F1000
G1 Z-12
G2 X292.035 Y229.21 I0.771 J-1.387
G1 X293.48 Z-13.868 F300
Y230.915
X292.547 Z-12
X289.371
X288.453 Z-13.838
Y229.01
Z-18
Y228.716 F1000
G2 X286.865 Y227.128 I-1.588 J0
G1 X284.177
Y225.237
G2 X282.589 Y223.65 I-1.588 J0
G1 X281.034
Y221.979
G2 X279.446 Y220.391 I-1.587 J0
G1 X278.267
G2 X276.68 Y221.979 I0 J1.588
G1 Y230.915
X271.432
X271.415 Y224.382
X271.408 Y221.382 Z-12
X271.4 Y218.207
X271.392 Y215.207 Z-18 F300
X271.374 Y208.219 F1000
X276.415
X279.415 Z-12
X282.591
X285.591 Z-18 F300
X290.552 F1000
Y211.045
G2 X292.139 Y212.633 I1.587 J0
G1 X293.893
Y216.715
G2 X293.39 Y217.105 I0.702 J1.424
G1 X292.035
G2 X290.448 Y218.693 I0 J1.587
G1 Y220.46
X288.217
G2 X286.629 Y222.048 I0 J1.588
G1 Y224.541
G2 X288.217 Y226.128 I1.588 J0
G1 X290.448
Y227.623
G2 X290.837 Y228.665 I1.587 J0
G3 X290.884 Y229.01 I-0.24 J0.208 F600
G1 Z-12
X290.85 Y229.066
X290.806 Y229.113
X290.327 Y229.529
Z5
G0 X259.692 Y215.388
G1 Z2.5 F300
Z-1.183
X259.699 Y215.384 Z-1.253 F600
X259.718 Y215.371 Z-1.32
X259.75 Y215.35 Z-1.38
X259.792 Y215.322 Z-1.431
X259.842 Y215.288 Z-1.469
X259.897 Y215.251 Z-1.492
X259.956 Y215.212 Z-1.5
X260.22 Y215.035
G3 X260.66 Y215.123 I0.176 J0.264
G2 X261.98 Y215.827 I1.32 J-0.883 F1000
G1 X263.497
Y230.74
X257.647
Y225.323
G2 X256.059 Y223.736 I-1.588 J0
G1 X248.161
G2 X246.574 Y225.323 I0 J1.587
G1 Y230.74
X241.204
Y215.686
X242.845
G2 X244.432 Y214.098 I0 J-1.587
G1 Y212.727
X246.01
G2 X247.598 Y211.14 I0 J-1.587
G1 Y208.723
X256.69
Y211.14
G2 X258.277 Y212.727 I1.587 J0
G1 X260.392
Y214.24
G2 X260.66 Y215.123 I1.588 J0
G3 X260.573 Y215.563 I-0.264 J0.176 F600
G1 X260.309 Y215.739
X260.25 Y215.779 Z-1.492
X260.195 Y215.816 Z-1.469
X260.145 Y215.849 Z-1.431
X260.103 Y215.877 Z-1.38
X260.071 Y215.898 Z-1.32
X260.052 Y215.912 Z-1.253
X260.045 Y215.916 Z-1.183
Z2.5
Z5
G0 X259.692 Y215.388
G1 Z1 F300
Z-2.683
X259.699 Y215.384 Z-2.753 F600
X259.718 Y215.371 Z-2.82
X259.75 Y215.35 Z-2.88
X259.792 Y215.322 Z-2.931
X259.842 Y215.288 Z-2.969
X259.897 Y215.251 Z-2.992
X259.956 Y215.212 Z-3
X260.22 Y215.035
G3 X260.66 Y215.123 I0.176 J0.264
G2 X261.98 Y215.827 I1.32 J-0.883 F1000
G1 X263.497
Y230.74
X257.647
Y225.323
G2 X256.059 Y223.736 I-1.588 J0
G1 X248.161
G2 X246.574 Y225.323 I0 J1.587
G1 Y230.74
X241.204
Y215.686
X242.845
G2 X244.432 Y214.098 I0 J-1.587
G1 Y212.727
X246.01
G2 X247.598 Y211.14 I0 J-1.587
G1 Y208.723
X256.69
Y211.14
G2 X258.277 Y212.727 I1.587 J0
G1 X260.392
Y214.24
G2 X260.66 Y215.123 I1.588 J0
G3 X260.573 Y215.563 I-0.264 J0.176 F600
G1 X260.309 Y215.739
X260.25 Y215.779 Z-2.992
X260.195 Y215.816 Z-2.969
X260.145 Y215.849 Z-2.931
X260.103 Y215.877 Z-2.88
X260.071 Y215.898 Z-2.82
X260.052 Y215.912 Z-2.753
X260.045 Y215.916 Z-2.683
Z1
Z5
G0 X259.692 Y215.388
G1 Z-0.5 F300
Z-4.183
X259.699 Y215.384 Z-4.253 F600
X259.718 Y215.371 Z-4.32
X259.75 Y215.35 Z-4.38
X259.792 Y215.322 Z-4.431
X259.842 Y215.288 Z-4.469
X259.897 Y215.251 Z-4.492
X259.956 Y215.212 Z-4.5
X260.22 Y215.035
G3 X260.66 Y215.123 I0.176 J0.264
G2 X261.98 Y215.827 I1.32 J-0.883 F1000
G1 X263.497
Y230.74
X257.647
Y225.323
G2 X256.059 Y223.736 I-1.588 J0
G1 X248.161
G2 X246.574 Y225.323 I0 J1.587
G1 Y230.74
X241.204
Y215.686
X242.845
G2 X244.432 Y214.098 I0 J-1.587
G1 Y212.727
X246.01
G2 X247.598 Y211.14 I0 J-1.587
G1 Y208.723
X256.69
Y211.14
G2 X258.277 Y212.727 I1.587 J0
G1 X260.392
Y214.24
G2 X260.66 Y215.123 I1.588 J0
G3 X260.573 Y215.563 I-0.264 J0.176 F600
G1 X260.309 Y215.739
X260.25 Y215.779 Z-4.492
X260.195 Y215.816 Z-4.469
X260.145 Y215.849 Z-4.431
X260.103 Y215.877 Z-4.38
X260.071 Y215.898 Z-4.32
X260.052 Y215.912 Z-4.253
X260.045 Y215.916 Z-4.183
Z-0.5
Z5
G0 X259.692 Y215.388
G1 Z-2 F300
Z-5.683
X259.699 Y215.384 Z-5.753 F600
X259.718 Y215.371 Z-5.82
X259.75 Y215.35 Z-5.88
X259.792 Y215.322 Z-5.931
X259.842 Y215.288 Z-5.969
X259.897 Y215.251 Z-5.992
X259.956 Y215.212 Z-6
X260.22 Y215.035
G3 X260.66 Y215.123 I0.176 J0.264
G2 X261.98 Y215.827 I1.32 J-0.883 F1000
G1 X263.497
Y230.74
X257.647
Y225.323
G2 X256.059 Y223.736 I-1.588 J0
G1 X248.161
G2 X246.574 Y225.323 I0 J1.587
G1 Y230.74
X241.204
Y215.686
X242.845
G2 X244.432 Y214.098 I0 J-1.587
G1 Y212.727
X246.01
G2 X247.598 Y211.14 I0 J-1.587
G1 Y208.723
X256.69
Y211.14
G2 X258.277 Y212.727 I1.587 J0
G1 X260.392
Y214.24
G2 X260.66 Y215.123 I1.588 J0
G3 X260.573 Y215.563 I-0.264 J0.176 F600
G1 X260.309 Y215.739
X260.25 Y215.779 Z-5.992
X260.195 Y215.816 Z-5.969
X260.145 Y215.849 Z-5.931
X260.103 Y215.877 Z-5.88
X260.071 Y215.898 Z-5.82
X260.052 Y215.912 Z-5.753
X260.045 Y215.916 Z-5.683
Z-2
Z5
G0 X259.692 Y215.388
G1 Z-3.5 F300
Z-7.183
X259.699 Y215.384 Z-7.253 F600
X259.718 Y215.371 Z-7.32
X259.75 Y215.35 Z-7.38
X259.792 Y215.322 Z-7.431
X259.842 Y215.288 Z-7.469
X259.897 Y215.251 Z-7.492
X259.956 Y215.212 Z-7.5
X260.22 Y215.035
G3 X260.66 Y215.123 I0.176 J0.264
G2 X261.98 Y215.827 I1.32 J-0.883 F1000
G1 X263.497
Y230.74
X257.647
Y225.323
G2 X256.059 Y223.736 I-1.588 J0
G1 X248.161
G2 X246.574 Y225.323 I0 J1.587
G1 Y230.74
X241.204
Y215.686
X242.845
G2 X244.432 Y214.098 I0 J-1.587
G1 Y212.727
X246.01
G2 X247.598 Y211.14 I0 J-1.587
G1 Y208.723
X256.69
Y211.14
G2 X258.277 Y212.727 I1.587 J0
G1 X260.392
Y214.24
G2 X260.66 Y215.123 I1.588 J0
G3 X260.573 Y215.563 I-0.264 J0.176 F600
G1 X260.309 Y215.739
X260.25 Y215.779 Z-7.492
X260.195 Y215.816 Z-7.469
X260.145 Y215.849 Z-7.431
X260.103 Y215.877 Z-7.38
X260.071 Y215.898 Z-7.32
X260.052 Y215.912 Z-7.253
X260.045 Y215.916 Z-7.183
Z-3.5
Z5
G0 X259.692 Y215.388
G1 Z-5 F300
Z-8.683
X259.699 Y215.384 Z-8.753 F600
X259.718 Y215.371 Z-8.82
X259.75 Y215.35 Z-8.88
X259.792 Y215.322 Z-8.931
X259.842 Y215.288 Z-8.969
X259.897 Y215.251 Z-8.992
X259.956 Y215.212 Z-9
X260.22 Y215.035
G3 X260.66 Y215.123 I0.176 J0.264
G2 X261.98 Y215.827 I1.32 J-0.883 F1000
G1 X263.497
Y230.74
X257.647
Y225.323
G2 X256.059 Y223.736 I-1.588 J0
G1 X248.161
G2 X246.574 Y225.323 I0 J1.587
G1 Y230.74
X241.204
Y215.686
X242.845
G2 X244.432 Y214.098 I0 J-1.587
G1 Y212.727
X246.01
G2 X247.598 Y211.14 I0 J-1.587
G1 Y208.723
X256.69
Y211.14
G2 X258.277 Y212.727 I1.587 J0
G1 X260.392
Y214.24
G2 X260.66 Y215.123 I1.588 J0
G3 X260.573 Y215.563 I-0.264 J0.176 F600
G1 X260.309 Y215.739
X260.25 Y215.779 Z-8.992
X260.195 Y215.816 Z-8.969
X260.145 Y215.849 Z-8.931
X260.103 Y215.877 Z-8.88
X260.071 Y215.898 Z-8.82
X260.052 Y215.912 Z-8.753
X260.045 Y215.916 Z-8.683
Z-5
Z5
G0 X259.692 Y215.388
G1 Z-6.5 F300
Z-10.183
X259.699 Y215.384 Z-10.253 F600
X259.718 Y215.371 Z-10.32
X259.75 Y215.35 Z-10.38
X259.792 Y215.322 Z-10.431
X259.842 Y215.288 Z-10.469
X259.897 Y215.251 Z-10.492
X259.956 Y215.212 Z-10.5
X260.22 Y215.035
G3 X260.66 Y215.123 I0.176 J0.264
G2 X261.98 Y215.827 I1.32 J-0.883 F1000
G1 X263.497
Y230.74
X257.647
Y225.323
G2 X256.059 Y223.736 I-1.588 J0
G1 X248.161
G2 X246.574 Y225.323 I0 J1.587
G1 Y230.74
X241.204
Y215.686
X242.845
G2 X244.432 Y214.098 I0 J-1.587
G1 Y212.727
X246.01
G2 X247.598 Y211.14 I0 J-1.587
G1 Y208.723
X256.69
Y211.14
G2 X258.277 Y212.727 I1.587 J0
G1 X260.392
Y214.24
G2 X260.66 Y215.123 I1.588 J0
G3 X260.573 Y215.563 I-0.264 J0.176 F600
G1 X260.309 Y215.739
X260.25 Y215.779 Z-10.492
X260.195 Y215.816 Z-10.469
X260.145 Y215.849 Z-10.431
X260.103 Y215.877 Z-10.38
X260.071 Y215.898 Z-10.32
X260.052 Y215.912 Z-10.253
X260.045 Y215.916 Z-10.183
Z-6.5
Z5
G0 X259.692 Y215.388
G1 Z-8 F300
Z-11.683
X259.699 Y215.384 Z-11.753 F600
X259.718 Y215.371 Z-11.82
X259.75 Y215.35 Z-11.88
X259.792 Y215.322 Z-11.931
X259.842 Y215.288 Z-11.969
X259.897 Y215.251 Z-11.992
X259.956 Y215.212 Z-12
X260.22 Y215.035
G3 X260.66 Y215.123 I0.176 J0.264
G2 X261.98 Y215.827 I1.32 J-0.883 F1000
G1 X263.497
Y230.74
X257.647
Y225.323
G2 X256.059 Y223.736 I-1.588 J0
G1 X248.161
G2 X246.574 Y225.323 I0 J1.587
G1 Y230.74
X241.204
Y215.686
X242.845
G2 X244.432 Y214.098 I0 J-1.587
G1 Y212.727
X246.01
G2 X247.598 Y211.14 I0 J-1.587
G1 Y208.723
X256.69
Y211.14
G2 X258.277 Y212.727 I1.587 J0
G1 X260.392
Y214.24
G2 X260.66 Y215.123 I1.588 J0
G3 X260.573 Y215.563 I-0.264 J0.176 F600
G1 X260.309 Y215.739
X260.25 Y215.779 Z-11.992
X260.195 Y215.816 Z-11.969
X260.145 Y215.849 Z-11.931
X260.103 Y215.877 Z-11.88
X260.071 Y215.898 Z-11.82
X260.052 Y215.912 Z-11.753
X260.045 Y215.916 Z-11.683
Z-8
Z5
G0 X259.692 Y215.388
G1 Z-9.5 F300
Z-13.183
X259.699 Y215.384 Z-13.253 F600
X259.718 Y215.371 Z-13.32
X259.75 Y215.35 Z-13.38
X259.792 Y215.322 Z-13.431
X259.842 Y215.288 Z-13.469
X259.897 Y215.251 Z-13.492
X259.956 Y215.212 Z-13.5
X260.22 Y215.035
G3 X260.66 Y215.123 I0.176 J0.264
G2 X261.98 Y215.827 I1.32 J-0.883 F1000
G1 X263.497
Y220.589
Y221.339 Z-12
Y224.514
Y225.264 Z-13.5 F300
Y230.74 F1000
X257.647
Y225.323
G2 X256.059 Y223.736 I-1.588 J0
G1 X248.161
G2 X246.574 Y225.323 I0 J1.587
G1 Y230.74
X241.204
Y225.029
Y224.279 Z-12
Y221.105
Y220.355 Z-13.5 F300
Y215.686 F1000
X242.845
G2 X244.432 Y214.098 I0 J-1.587
G1 Y212.727
X246.01
G2 X247.598 Y211.14 I0 J-1.587
G1 Y208.723
X248.908
X249.658 Z-12
X252.833
X253.583 Z-13.5 F300
X256.69 F1000
Y211.14
G2 X258.277 Y212.727 I1.587 J0
G1 X260.392
Y214.24
G2 X260.66 Y215.123 I1.588 J0
G3 X260.573 Y215.563 I-0.264 J0.176 F600
G1 X260.309 Y215.739
X260.25 Y215.779 Z-13.492
X260.195 Y215.816 Z-13.469
X260.145 Y215.849 Z-13.431
X260.103 Y215.877 Z-13.38
X260.071 Y215.898 Z-13.32
X260.052 Y215.912 Z-13.253
X260.045 Y215.916 Z-13.183
Z-9.5
Z5
G0 X259.692 Y215.388
G1 Z-11 F300
Z-14.683
X259.699 Y215.384 Z-14.753 F600
X259.718 Y215.371 Z-14.82
X259.75 Y215.35 Z-14.88
X259.792 Y215.322 Z-14.931
X259.842 Y215.288 Z-14.969
X259.897 Y215.251 Z-14.992
X259.956 Y215.212 Z-15
X260.22 Y215.035
G3 X260.66 Y215.123 I0.176 J0.264
G2 X261.98 Y215.827 I1.32 J-0.883 F1000
G1 X263.497
Y219.839
Y221.339 Z-12
Y224.514
Y226.014 Z-15 F300
Y230.74 F1000
X257.647
Y225.323
G2 X256.059 Y223.736 I-1.588 J0
G1 X248.161
G2 X246.574 Y225.323 I0 J1.587
G1 Y230.74
X241.204
Y225.779
Y224.279 Z-12
Y221.105
Y219.605 Z-15 F300
Y215.686 F1000
X242.845
G2 X244.432 Y214.098 I0 J-1.587
G1 Y212.727
X246.01
G2 X247.598 Y211.14 I0 J-1.587
G1 Y208.723
X248.158
X249.658 Z-12
X252.833
X254.333 Z-15 F300
X256.69 F1000
Y211.14
G2 X258.277 Y212.727 I1.587 J0
G1 X260.392
Y214.24
G2 X260.66 Y215.123 I1.588 J0
G3 X260.573 Y215.563 I-0.264 J0.176 F600
G1 X260.309 Y215.739
X260.25 Y215.779 Z-14.992
X260.195 Y215.816 Z-14.969
X260.145 Y215.849 Z-14.931
X260.103 Y215.877 Z-14.88
X260.071 Y215.898 Z-14.82
X260.052 Y215.912 Z-14.753
X260.045 Y215.916 Z-14.683
Z-11
Z5
G0 X259.692 Y215.388
G1 Z-12.5 F300
Z-16.183
X259.699 Y215.384 Z-16.253 F600
X259.718 Y215.371 Z-16.32
X259.75 Y215.35 Z-16.38
X259.792 Y215.322 Z-16.431
X259.842 Y215.288 Z-16.469
X259.897 Y215.251 Z-16.492
X259.956 Y215.212 Z-16.5
X260.22 Y215.035
G3 X260.66 Y215.123 I0.176 J0.264
G2 X261.98 Y215.827 I1.32 J-0.883 F1000
G1 X263.497
Y219.089
Y221.339 Z-12
Y224.514
Y226.764 Z-16.5 F300
Y230.74 F1000
X257.647
Y225.323
G2 X256.059 Y223.736 I-1.588 J0
G1 X248.161
G2 X246.574 Y225.323 I0 J1.587
G1 Y230.74
X241.204
Y226.529
Y224.279 Z-12
Y221.105
Y218.855 Z-16.5 F300
Y215.686 F1000
X242.845
G2 X244.432 Y214.098 I0 J-1.587
G1 Y212.727
X246.01
G2 X247.598 Y211.14 I0 J-1.587
G1 Y210.628
Z-16.12
Y208.723
X249.658 Z-12
X252.833
X255.083 Z-16.5 F300
X256.69 F1000
Y211.14
G2 X258.277 Y212.727 I1.587 J0
G1 X260.392
Y214.24
G2 X260.66 Y215.123 I1.588 J0
G3 X260.573 Y215.563 I-0.264 J0.176 F600
G1 X260.309 Y215.739
X260.25 Y215.779 Z-16.492
X260.195 Y215.816 Z-16.469
X260.145 Y215.849 Z-16.431
X260.103 Y215.877 Z-16.38
X260.071 Y215.898 Z-16.32
X260.052 Y215.912 Z-16.253
X260.045 Y215.916 Z-16.183
Z-12.5
Z5
G0 X259.692 Y215.388
G1 Z-14 F300
Z-17.683
X259.699 Y215.384 Z-17.753 F600
X259.718 Y215.371 Z-17.82
X259.75 Y215.35 Z-17.88
X259.792 Y215.322 Z-17.931
X259.842 Y215.288 Z-17.969
X259.897 Y215.251 Z-17.992
X259.956 Y215.212 Z-18
X260.22 Y215.035
G3 X260.66 Y215.123 I0.176 J0.264
G2 X261.98 Y215.827 I1.32 J-0.883 F1000
G1 X263.497
Y218.339
Y221.339 Z-12
Y224.514
Y227.514 Z-18 F300
Y230.74 F1000
X257.647
Y225.323
G2 X256.059 Y223.736 I-1.588 J0
G1 X248.161
G2 X246.574 Y225.323 I0 J1.587
G1 Y230.74
X241.204
Y227.279
Y224.279 Z-12
Y221.105
Y218.105 Z-18 F300
Y215.686 F1000
X242.845
G2 X244.432 Y214.098 I0 J-1.587
G1 Y212.727
X246.01
G2 X247.598 Y211.14 I0 J-1.587
G1 Y210.628
Z-16.12
Y208.723
X249.658 Z-12
X252.833
X255.833 Z-18 F300
X256.69 F1000
Y211.14
G2 X258.277 Y212.727 I1.587 J0
G1 X260.392
Y214.24
G2 X260.66 Y215.123 I1.588 J0
G3 X260.573 Y215.563 I-0.264 J0.176 F600
G1 X260.309 Y215.739
X260.25 Y215.779 Z-17.992
X260.195 Y215.816 Z-17.969
X260.145 Y215.849 Z-17.931
X260.103 Y215.877 Z-17.88
X260.071 Y215.898 Z-17.82
X260.052 Y215.912 Z-17.753
X260.045 Y215.916 Z-17.683
Z-14
Z5
G0 X232.453 Y226.781
G1 Z2.5 F300
Z-1.183
G18 G2 X232.77 Z-1.5 I0.317 K0 F600
G1 X233.088
G17 G3 X233.406 Y227.099 I0 J0.318
G1 Y230.74 F1000
X231.04
Y228.493
G2 X229.453 Y226.906 I-1.587 J0
G1 X227.548
Y225.064
G2 X225.961 Y223.477 I-1.587 J0
G1 X223.505
Y221.414
G2 X221.917 Y219.827 I-1.587 J0
G1 X220.59
G2 X219.003 Y221.414 I0 J1.587
G1 Y223.477
X217.161
G2 X215.574 Y225.064 I0 J1.587
G1 Y226.906
X214.009
G2 X212.421 Y228.493 I0 J1.587
G1 Y230.611
X210.786
Y225.596
X212.028
G2 X213.615 Y224.008 I0 J-1.588
G1 Y222.171
X215.569
G2 X217.156 Y220.584 I0 J-1.587
G1 Y215.641
G2 X215.569 Y214.053 I-1.587 J0
G1 X213.615
Y212.528
G2 X212.028 Y210.941 I-1.587 J0
G1 X210.618
Y208.201
X216.355
Y210.816
G2 X217.943 Y212.404 I1.587 J0
G1 X219.469
Y214.24
G2 X221.056 Y215.827 I1.587 J0
G1 X221.99
G2 X223.577 Y214.24 I0 J-1.587
G1 Y212.404
X226.076
G2 X227.663 Y210.816 I0 J-1.588
G1 Y208.122
X233.361
Y210.59
X231.635
G2 X230.048 Y212.178 I0 J1.587
G1 Y214.132
X227.944
G2 X226.357 Y215.719 I0 J1.587
G1 Y220.7
G2 X227.944 Y222.288 I1.587 J0
G1 X230.048
Y224.153
G2 X231.635 Y225.74 I1.587 J0
G1 X233.406
Y227.099
G3 X233.088 Y227.416 I-0.318 J0 F600
G1 X232.77
G18 G3 X232.453 Z-1.183 I0 K0.317
G1 Z2.5
Z5
G0 Y226.781
G1 Z1 F300
Z-2.683
G2 X232.77 Z-3 I0.317 K0 F600
G1 X233.088
G17 G3 X233.406 Y227.099 I0 J0.318
G1 Y230.74 F1000
X231.04
Y228.493
G2 X229.453 Y226.906 I-1.587 J0
G1 X227.548
Y225.064
G2 X225.961 Y223.477 I-1.587 J0
G1 X223.505
Y221.414
G2 X221.917 Y219.827 I-1.587 J0
G1 X220.59
G2 X219.003 Y221.414 I0 J1.587
G1 Y223.477
X217.161
G2 X215.574 Y225.064 I0 J1.587
G1 Y226.906
X214.009
G2 X212.421 Y228.493 I0 J1.587
G1 Y230.611
X210.786
Y225.596
X212.028
G2 X213.615 Y224.008 I0 J-1.588
G1 Y222.171
X215.569
G2 X217.156 Y220.584 I0 J-1.587
G1 Y215.641
G2 X215.569 Y214.053 I-1.587 J0
G1 X213.615
Y212.528
G2 X212.028 Y210.941 I-1.587 J0
G1 X210.618
Y208.201
X216.355
Y210.816
G2 X217.943 Y212.404 I1.587 J0
G1 X219.469
Y214.24
G2 X221.056 Y215.827 I1.587 J0
G1 X221.99
G2 X223.577 Y214.24 I0 J-1.587
G1 Y212.404
X226.076
G2 X227.663 Y210.816 I0 J-1.588
G1 Y208.122
X233.361
Y210.59
X231.635
G2 X230.048 Y212.178 I0 J1.587
G1 Y214.132
X227.944
G2 X226.357 Y215.719 I0 J1.587
G1 Y220.7
G2 X227.944 Y222.288 I1.587 J0
G1 X230.048
Y224.153
G2 X231.635 Y225.74 I1.587 J0
G1 X233.406
Y227.099
G3 X233.088 Y227.416 I-0.318 J0 F600
G1 X232.77
G18 G3 X232.453 Z-2.683 I0 K0.318
G1 Z1
Z5
G0 Y226.781
G1 Z-0.5 F300
Z-4.183
G2 X232.77 Z-4.5 I0.317 K0 F600
G1 X233.088
G17 G3 X233.406 Y227.099 I0 J0.318
G1 Y230.74 F1000
X231.04
Y228.493
G2 X229.453 Y226.906 I-1.587 J0
G1 X227.548
Y225.064
G2 X225.961 Y223.477 I-1.587 J0
G1 X223.505
Y221.414
G2 X221.917 Y219.827 I-1.587 J0
G1 X220.59
G2 X219.003 Y221.414 I0 J1.587
G1 Y223.477
X217.161
G2 X215.574 Y225.064 I0 J1.587
G1 Y226.906
X214.009
G2 X212.421 Y228.493 I0 J1.587
G1 Y230.611
X210.786
Y225.596
X212.028
G2 X213.615 Y224.008 I0 J-1.588
G1 Y222.171
X215.569
G2 X217.156 Y220.584 I0 J-1.587
G1 Y215.641
G2 X215.569 Y214.053 I-1.587 J0
G1 X213.615
Y212.528
G2 X212.028 Y210.941 I-1.587 J0
G1 X210.618
Y208.201
X216.355
Y210.816
G2 X217.943 Y212.404 I1.587 J0
G1 X219.469
Y214.24
G2 X221.056 Y215.827 I1.587 J0
G1 X221.99
G2 X223.577 Y214.24 I0 J-1.587
G1 Y212.404
X226.076
G2 X227.663 Y210.816 I0 J-1.588
G1 Y208.122
X233.361
Y210.59
X231.635
G2 X230.048 Y212.178 I0 J1.587
G1 Y214.132
X227.944
G2 X226.357 Y215.719 I0 J1.587
G1 Y220.7
G2 X227.944 Y222.288 I1.587 J0
G1 X230.048
Y224.153
G2 X231.635 Y225.74 I1.587 J0
G1 X233.406
Y227.099
G3 X233.088 Y227.416 I-0.318 J0 F600
G1 X232.77
G18 G3 X232.453 Z-4.183 I0 K0.318
G1 Z-0.5
Z5
G0 Y226.781
G1 Z-2 F300
Z-5.683
G2 X232.77 Z-6 I0.317 K0 F600
G1 X233.088
G17 G3 X233.406 Y227.099 I0 J0.318
G1 Y230.74 F1000
X231.04
Y228.493
G2 X229.453 Y226.906 I-1.587 J0
G1 X227.548
Y225.064
G2 X225.961 Y223.477 I-1.587 J0
G1 X223.505
Y221.414
G2 X221.917 Y219.827 I-1.587 J0
G1 X220.59
G2 X219.003 Y221.414 I0 J1.587
G1 Y223.477
X217.161
G2 X215.574 Y225.064 I0 J1.587
G1 Y226.906
X214.009
G2 X212.421 Y228.493 I0 J1.587
G1 Y230.611
X210.786
Y225.596
X212.028
G2 X213.615 Y224.008 I0 J-1.588
G1 Y222.171
X215.569
G2 X217.156 Y220.584 I0 J-1.587
G1 Y215.641
G2 X215.569 Y214.053 I-1.587 J0
G1 X213.615
Y212.528
G2 X212.028 Y210.941 I-1.587 J0
G1 X210.618
Y208.201
X216.355
Y210.816
G2 X217.943 Y212.404 I1.587 J0
G1 X219.469
Y214.24
G2 X221.056 Y215.827 I1.587 J0
G1 X221.99
G2 X223.577 Y214.24 I0 J-1.587
G1 Y212.404
X226.076
G2 X227.663 Y210.816 I0 J-1.588
G1 Y208.122
X233.361
Y210.59
X231.635
G2 X230.048 Y212.178 I0 J1.587
G1 Y214.132
X227.944
G2 X226.357 Y215.719 I0 J1.587
G1 Y220.7
G2 X227.944 Y222.288 I1.587 J0
G1 X230.048
Y224.153
G2 X231.635 Y225.74 I1.587 J0
G1 X233.406
Y227.099
G3 X233.088 Y227.416 I-0.318 J0 F600
G1 X232.77
G18 G3 X232.453 Z-5.683 I0 K0.318
G1 Z-2
Z5
G0 Y226.781
G1 Z-3.5 F300
Z-7.183
G2 X232.77 Z-7.5 I0.317 K0 F600
G1 X233.088
G17 G3 X233.406 Y227.099 I0 J0.318
G1 Y230.74 F1000
X231.04
Y228.493
G2 X229.453 Y226.906 I-1.587 J0
G1 X227.548
Y225.064
G2 X225.961 Y223.477 I-1.587 J0
G1 X223.505
Y221.414
G2 X221.917 Y219.827 I-1.587 J0
G1 X220.59
G2 X219.003 Y221.414 I0 J1.587
G1 Y223.477
X217.161
G2 X215.574 Y225.064 I0 J1.587
G1 Y226.906
X214.009
G2 X212.421 Y228.493 I0 J1.587
G1 Y230.611
X210.786
Y225.596
X212.028
G2 X213.615 Y224.008 I0 J-1.588
G1 Y222.171
X215.569
G2 X217.156 Y220.584 I0 J-1.587
G1 Y215.641
G2 X215.569 Y214.053 I-1.587 J0
G1 X213.615
Y212.528
G2 X212.028 Y210.941 I-1.587 J0
G1 X210.618
Y208.201
X216.355
Y210.816
G2 X217.943 Y212.404 I1.587 J0
G1 X219.469
Y214.24
G2 X221.056 Y215.827 I1.587 J0
G1 X221.99
G2 X223.577 Y214.24 I0 J-1.587
G1 Y212.404
X226.076
G2 X227.663 Y210.816 I0 J-1.588
G1 Y208.122
X233.361
Y210.59
X231.635
G2 X230.048 Y212.178 I0 J1.587
G1 Y214.132
X227.944
G2 X226.357 Y215.719 I0 J1.587
G1 Y220.7
G2 X227.944 Y222.288 I1.587 J0
G1 X230.048
Y224.153
G2 X231.635 Y225.74 I1.587 J0
G1 X233.406
Y227.099
G3 X233.088 Y227.416 I-0.318 J0 F600
G1 X232.77
G18 G3 X232.453 Z-7.183 I0 K0.318
G1 Z-3.5
Z5
G0 Y226.781
G1 Z-5 F300
Z-8.683
G2 X232.77 Z-9 I0.317 K0 F600
G1 X233.088
G17 G3 X233.406 Y227.099 I0 J0.318
G1 Y230.74 F1000
X231.04
Y228.493
G2 X229.453 Y226.906 I-1.587 J0
G1 X227.548
Y225.064
G2 X225.961 Y223.477 I-1.587 J0
G1 X223.505
Y221.414
G2 X221.917 Y219.827 I-1.587 J0
G1 X220.59
G2 X219.003 Y221.414 I0 J1.587
G1 Y223.477
X217.161
G2 X215.574 Y225.064 I0 J1.587
G1 Y226.906
X214.009
G2 X212.421 Y228.493 I0 J1.587
G1 Y230.611
X210.786
Y225.596
X212.028
G2 X213.615 Y224.008 I0 J-1.588
G1 Y222.171
X215.569
G2 X217.156 Y220.584 I0 J-1.587
G1 Y215.641
G2 X215.569 Y214.053 I-1.587 J0
G1 X213.615
Y212.528
G2 X212.028 Y210.941 I-1.587 J0
G1 X210.618
Y208.201
X216.355
Y210.816
G2 X217.943 Y212.404 I1.587 J0
G1 X219.469
Y214.24
G2 X221.056 Y215.827 I1.587 J0
G1 X221.99
G2 X223.577 Y214.24 I0 J-1.587
G1 Y212.404
X226.076
G2 X227.663 Y210.816 I0 J-1.588
G1 Y208.122
X233.361
Y210.59
X231.635
G2 X230.048 Y212.178 I0 J1.587
G1 Y214.132
X227.944
G2 X226.357 Y215.719 I0 J1.587
G1 Y220.7
G2 X227.944 Y222.288 I1.587 J0
G1 X230.048
Y224.153
G2 X231.635 Y225.74 I1.587 J0
G1 X233.406
Y227.099
G3 X233.088 Y227.416 I-0.318 J0 F600
G1 X232.77
G18 G3 X232.453 Z-8.683 I0 K0.318
G1 Z-5
Z5
G0 Y226.781
G1 Z-6.5 F300
Z-10.183
G2 X232.77 Z-10.5 I0.317 K0 F600
G1 X233.088
G17 G3 X233.406 Y227.099 I0 J0.318
G1 Y230.74 F1000
X231.04
Y228.493
G2 X229.453 Y226.906 I-1.587 J0
G1 X227.548
Y225.064
G2 X225.961 Y223.477 I-1.587 J0
G1 X223.505
Y221.414
G2 X221.917 Y219.827 I-1.587 J0
G1 X220.59
G2 X219.003 Y221.414 I0 J1.587
G1 Y223.477
X217.161
G2 X215.574 Y225.064 I0 J1.587
G1 Y226.906
X214.009
G2 X212.421 Y228.493 I0 J1.587
G1 Y230.611
X210.786
Y225.596
X212.028
G2 X213.615 Y224.008 I0 J-1.588
G1 Y222.171
X215.569
G2 X217.156 Y220.584 I0 J-1.587
G1 Y215.641
G2 X215.569 Y214.053 I-1.587 J0
G1 X213.615
Y212.528
G2 X212.028 Y210.941 I-1.587 J0
G1 X210.618
Y208.201
X216.355
Y210.816
G2 X217.943 Y212.404 I1.587 J0
G1 X219.469
Y214.24
G2 X221.056 Y215.827 I1.587 J0
G1 X221.99
G2 X223.577 Y214.24 I0 J-1.587
G1 Y212.404
X226.076
G2 X227.663 Y210.816 I0 J-1.588
G1 Y208.122
X233.361
Y210.59
X231.635
G2 X230.048 Y212.178 I0 J1.587
G1 Y214.132
X227.944
G2 X226.357 Y215.719 I0 J1.587
G1 Y220.7
G2 X227.944 Y222.288 I1.587 J0
G1 X230.048
Y224.153
G2 X231.635 Y225.74 I1.587 J0
G1 X233.406
Y227.099
G3 X233.088 Y227.416 I-0.318 J0 F600
G1 X232.77
G18 G3 X232.453 Z-10.183 I0 K0.318
G1 Z-6.5
Z5
G0 Y226.781
G1 Z-8 F300
Z-11.683
G2 X232.77 Z-12 I0.317 K0 F600
G1 X233.088
G17 G3 X233.406 Y227.099 I0 J0.318
G1 Y230.74 F1000
X231.04
Y228.493
G2 X229.453 Y226.906 I-1.587 J0
G1 X227.548
Y225.064
G2 X225.961 Y223.477 I-1.587 J0
G1 X223.505
Y221.414
G2 X221.917 Y219.827 I-1.587 J0
G1 X220.59
G2 X219.003 Y221.414 I0 J1.587
G1 Y223.477
X217.161
G2 X215.574 Y225.064 I0 J1.587
G1 Y226.906
X214.009
G2 X212.421 Y228.493 I0 J1.587
G1 Y230.611
X210.786
Y225.596
X212.028
G2 X213.615 Y224.008 I0 J-1.588
G1 Y222.171
X215.569
G2 X217.156 Y220.584 I0 J-1.587
G1 Y215.641
G2 X215.569 Y214.053 I-1.587 J0
G1 X213.615
Y212.528
G2 X212.028 Y210.941 I-1.587 J0
G1 X210.618
Y208.201
X216.355
Y210.816
G2 X217.943 Y212.404 I1.587 J0
G1 X219.469
Y214.24
G2 X221.056 Y215.827 I1.587 J0
G1 X221.99
G2 X223.577 Y214.24 I0 J-1.587
G1 Y212.404
X226.076
G2 X227.663 Y210.816 I0 J-1.588
G1 Y208.122
X233.361
Y210.59
X231.635
G2 X230.048 Y212.178 I0 J1.587
G1 Y214.132
X227.944
G2 X226.357 Y215.719 I0 J1.587
G1 Y220.7
G2 X227.944 Y222.288 I1.587 J0
G1 X230.048
Y224.153
G2 X231.635 Y225.74 I1.587 J0
G1 X233.406
Y227.099
G3 X233.088 Y227.416 I-0.318 J0 F600
G1 X232.77
G18 G3 X232.453 Z-11.683 I0 K0.318
G1 Z-8
Z5
G0 Y226.781
G1 Z-9.5 F300
Z-12
X232.77 F600
X233.088
G17 G3 X233.406 Y227.099 I0 J0.318
G1 Y229.717 F1000
Y230.467 Z-13.5 F300
Y230.74 F1000
X231.04
Y228.493
G2 X229.453 Y226.906 I-1.587 J0
G1 X227.548
Y225.064
G2 X225.961 Y223.477 I-1.587 J0
G1 X223.505
Y221.414
G2 X221.917 Y219.827 I-1.587 J0
G1 X220.59
G2 X219.003 Y221.414 I0 J1.587
G1 Y223.477
X217.161
G2 X215.574 Y225.064 I0 J1.587
G1 Y226.906
X214.009
G2 X212.691 Y227.609 I0 J1.587
G1 Z-12
G2 X212.421 Y228.493 I1.318 J0.884
G1 Y230.408 Z-13.5 F300
Y230.611 F1000
X210.786
Y230.408
Y229.658 Z-12
Y226.482
Y225.732 Z-13.5 F300
Y225.596 F1000
X212.028
G2 X213.615 Y224.008 I0 J-1.588
G1 Y222.171
X215.569
G2 X217.156 Y220.584 I0 J-1.587
G1 Y215.641
G2 X215.569 Y214.053 I-1.587 J0
G1 X213.615
Y212.528
G2 X212.028 Y210.941 I-1.587 J0
G1 X210.618
Y208.201
X211.163
X211.913 Z-12
X215.087
X215.837 Z-13.5 F300
X216.355 F1000
Y210.816
G2 X217.943 Y212.404 I1.587 J0
G1 X219.469
Y214.24
G2 X221.056 Y215.827 I1.587 J0
G1 X221.99
G2 X223.577 Y214.24 I0 J-1.587
G1 Y212.404
X226.076
G2 X227.663 Y210.816 I0 J-1.588
G1 Y208.122
X228.564
X229.314 Z-12
X232.49
X233.24 Z-13.5 F300
X233.361 F1000
Y210.59
X231.635
G2 X230.048 Y212.178 I0 J1.587
G1 Y214.132
X227.944
G2 X226.357 Y215.719 I0 J1.587
G1 Y220.7
G2 X227.944 Y222.288 I1.587 J0
G1 X230.048
Y224.153
G2 X231.635 Y225.74 I1.587 J0
G1 X233.406
Y225.792
Y226.542 Z-12
Y227.099
G3 X233.088 Y227.416 I-0.318 J0 F600
G1 X232.453
Z-9.5
Z5
G0 Y226.781
G1 Z-11 F300
Z-12
X232.77 F600
X233.088
G3 X233.406 Y227.099 I0 J0.318
G1 Y229.717 F1000
Y230.74 Z-14.046 F300
X231.501
Z-15
X231.04 F1000
Y228.493
G2 X229.453 Y226.906 I-1.587 J0
G1 X227.548
Y225.064
G2 X225.961 Y223.477 I-1.587 J0
G1 X223.505
Y221.414
G2 X221.917 Y219.827 I-1.587 J0
G1 X220.59
G2 X219.003 Y221.414 I0 J1.587
G1 Y223.477
X217.161
G2 X215.574 Y225.064 I0 J1.587
G1 Y226.906
X214.009
G2 X212.691 Y227.609 I0 J1.587
G1 Z-12
G2 X212.421 Y228.493 I1.318 J0.884
G1 Y230.611 Z-13.906 F300
X210.786
Y229.658 Z-12
Y226.482
Y225.596 Z-13.774
X212.028
G2 X212.382 Y225.556 Z-13.854 I0 J-1.588
X212.691 Y225.451 Z-14.064 I-0.354 J-1.548
G1 Z-15
G2 X213.615 Y224.008 I-0.663 J-1.443 F1000
G1 Y222.171
X215.569
G2 X217.156 Y220.584 I0 J-1.587
G1 Y215.641
G2 X215.569 Y214.053 I-1.587 J0
G1 X213.615
Y212.528
G2 X212.028 Y210.941 I-1.587 J0
G1 X210.618
Y210.105
Z-14.588
Y208.201
X211.913 Z-12
X215.087
X216.355 Z-14.536 F300
Y210.105
Z-15
Y210.816 F1000
G2 X217.943 Y212.404 I1.587 J0
G1 X219.469
Y214.24
G2 X221.056 Y215.827 I1.587 J0
G1 X221.99
G2 X223.577 Y214.24 I0 J-1.587
G1 Y212.404
X226.076
G2 X227.663 Y210.816 I0 J-1.588
G1 Y208.122
X227.814
X229.314 Z-12
X232.49
X233.361 Z-13.744 F300
Y210.027
Z-15
Y210.59 F1000
X231.635
G2 X230.048 Y212.178 I0 J1.587
G1 Y214.132
X227.944
G2 X226.357 Y215.719 I0 J1.587
G1 Y220.7
G2 X227.944 Y222.288 I1.587 J0
G1 X230.048
Y224.153
G2 X231.501 Y225.735 I1.587 J0
G1 Z-13.613
X231.635 Y225.74 Z-13.602
X233.406
Y226.542 Z-12
Y227.099
G3 X233.088 Y227.416 I-0.318 J0 F600
G1 X232.453
Z-11
Z5
G0 Y226.781
G1 Z-12 F300
X232.77 F600
X233.088
G3 X233.406 Y227.099 I0 J0.318
G1 Y229.717 F1000
Y230.74 Z-14.046 F300
X231.501
Z-16.5
X231.04 F1000
Y228.493
G2 X229.453 Y226.906 I-1.587 J0
G1 X227.548
Y225.064
G2 X225.961 Y223.477 I-1.587 J0
G1 X223.505
Y221.414
G2 X221.917 Y219.827 I-1.587 J0
G1 X220.59
G2 X219.003 Y221.414 I0 J1.587
G1 Y223.477
X217.161
G2 X215.574 Y225.064 I0 J1.587
G1 Y226.906
X214.009
G2 X212.691 Y227.609 I0 J1.587
G1 Z-12
G2 X212.421 Y228.493 I1.318 J0.884
G1 Y230.611 Z-13.906 F300
X210.786
Y229.658 Z-12
Y226.482
Y225.596 Z-13.774
X212.028
G2 X212.382 Y225.556 Z-13.854 I0 J-1.588
X212.691 Y225.451 Z-14.064 I-0.354 J-1.548
G1 Z-16.5
G2 X213.615 Y224.008 I-0.663 J-1.443 F1000
G1 Y222.171
X215.569
G2 X217.156 Y220.584 I0 J-1.587
G1 Y215.641
G2 X215.569 Y214.053 I-1.587 J0
G1 X213.615
Y212.528
G2 X212.028 Y210.941 I-1.587 J0
G1 X210.618
Y210.105
Z-14.588
Y208.201
X211.913 Z-12
X215.087
X216.355 Z-14.536 F300
Y210.105
Z-16.5
Y210.816 F1000
G2 X217.943 Y212.404 I1.587 J0
G1 X219.469
Y214.24
G2 X221.056 Y215.827 I1.587 J0
G1 X221.99
G2 X223.577 Y214.24 I0 J-1.587
G1 Y212.404
X226.076
G2 X227.663 Y210.816 I0 J-1.588
G1 Y210.027
Z-15.302
Y208.122
X229.314 Z-12
X232.49
X233.361 Z-13.744 F300
Y210.027
Z-16.5
Y210.59 F1000
X231.635
G2 X230.048 Y212.178 I0 J1.587
G1 Y214.132
X227.944
G2 X226.357 Y215.719 I0 J1.587
G1 Y220.7
G2 X227.944 Y222.288 I1.587 J0
G1 X230.048
Y224.153
G2 X231.501 Y225.735 I1.587 J0
G1 Z-13.613
X231.635 Y225.74 Z-13.602
X233.406
Y226.542 Z-12
Y227.099
G3 X233.088 Y227.416 I-0.318 J0 F600
G1 X232.453
Z5
G0 Y226.781
G1 Z-12 F300
X232.77 F600
X233.088
G3 X233.406 Y227.099 I0 J0.318
G1 Y229.717 F1000
Y230.74 Z-14.046 F300
X231.501
Z-18
X231.04 F1000
Y228.493
G2 X229.453 Y226.906 I-1.587 J0
G1 X227.548
Y225.064
G2 X225.961 Y223.477 I-1.587 J0
G1 X223.505
Y221.414
G2 X221.917 Y219.827 I-1.587 J0
G1 X220.59
G2 X219.003 Y221.414 I0 J1.587
G1 Y223.477
X217.161
G2 X215.574 Y225.064 I0 J1.587
G1 Y226.906
X214.009
G2 X212.691 Y227.609 I0 J1.587
G1 Z-12
G2 X212.421 Y228.493 I1.318 J0.884
G1 Y230.611 Z-13.906 F300
X210.786
Y229.658 Z-12
Y226.482
Y225.596 Z-13.774
X212.028
G2 X212.382 Y225.556 Z-13.854 I0 J-1.588
X212.691 Y225.451 Z-14.064 I-0.354 J-1.548
G1 Z-18
G2 X213.615 Y224.008 I-0.663 J-1.443 F1000
G1 Y222.171
X215.569
G2 X217.156 Y220.584 I0 J-1.587
G1 Y215.641
G2 X215.569 Y214.053 I-1.587 J0
G1 X213.615
Y212.528
G2 X212.028 Y210.941 I-1.587 J0
G1 X210.618
Y210.105
Z-14.588
Y208.201
X211.913 Z-12
X215.087
X216.355 Z-14.536 F300
Y210.105
Z-18
Y210.816 F1000
G2 X217.943 Y212.404 I1.587 J0
G1 X219.469
Y214.24
G2 X221.056 Y215.827 I1.587 J0
G1 X221.99
G2 X223.577 Y214.24 I0 J-1.587
G1 Y212.404
X226.076
G2 X227.663 Y210.816 I0 J-1.588
G1 Y210.027
Z-15.302
Y208.122
X229.314 Z-12
X232.49
X233.361 Z-13.744 F300
Y210.027
Z-18
Y210.59 F1000
X231.635
G2 X230.048 Y212.178 I0 J1.587
G1 Y214.132
X227.944
G2 X226.357 Y215.719 I0 J1.587
G1 Y220.7
G2 X227.944 Y222.288 I1.587 J0
G1 X230.048
Y224.153
G2 X231.501 Y225.735 I1.587 J0
G1 Z-13.613
X231.635 Y225.74 Z-13.602
X233.406
Y226.542 Z-12
Y227.099
G3 X233.088 Y227.416 I-0.318 J0 F600
G1 X232.453
Z5
G0 X184.496 Y227.802
G1 Z2.5 F300
Z-1.183
X184.504 Y227.801 Z-1.253 F600
X184.527 Y227.796 Z-1.32
X184.564 Y227.787 Z-1.38
X184.613 Y227.777 Z-1.431
X184.672 Y227.763 Z-1.469
X184.737 Y227.749 Z-1.492
X184.806 Y227.734 Z-1.5
X185.116 Y227.665
G3 X185.495 Y227.906 I0.069 J0.31
G2 X187.045 Y229.15 I1.55 J-0.343 F1000
G1 X202.1
Y230.908
X180.618
Y209.195
X202.1
Y210.411
X187.045
G2 X185.458 Y211.999 I0 J1.587
G1 Y217.624
G2 X187.045 Y219.212 I1.587 J0
G1 X198.479
Y220.042
X187.045
G2 X185.458 Y221.63 I0 J1.588
G1 Y227.563
G2 X185.495 Y227.906 I1.587 J0
G3 X185.254 Y228.285 I-0.31 J0.069 F600
G1 X184.944 Y228.354
X184.875 Y228.369 Z-1.492
X184.809 Y228.383 Z-1.469
X184.75 Y228.396 Z-1.431
X184.701 Y228.407 Z-1.38
X184.664 Y228.416 Z-1.32
X184.642 Y228.421 Z-1.253
X184.634 Y228.422 Z-1.183
Z2.5
Z5
G0 X184.496 Y227.802
G1 Z1 F300
Z-2.683
X184.504 Y227.801 Z-2.753 F600
X184.527 Y227.796 Z-2.82
X184.564 Y227.787 Z-2.88
X184.613 Y227.777 Z-2.931
X184.672 Y227.763 Z-2.969
X184.737 Y227.749 Z-2.992
X184.806 Y227.734 Z-3
X185.116 Y227.665
G3 X185.495 Y227.906 I0.069 J0.31
G2 X187.045 Y229.15 I1.55 J-0.343 F1000
G1 X202.1
Y230.908
X180.618
Y209.195
X202.1
Y210.411
X187.045
G2 X185.458 Y211.999 I0 J1.587
G1 Y217.624
G2 X187.045 Y219.212 I1.587 J0
G1 X198.479
Y220.042
X187.045
G2 X185.458 Y221.63 I0 J1.588
G1 Y227.563
G2 X185.495 Y227.906 I1.587 J0
G3 X185.254 Y228.285 I-0.31 J0.069 F600
G1 X184.944 Y228.354
X184.875 Y228.369 Z-2.992
X184.809 Y228.383 Z-2.969
X184.75 Y228.396 Z-2.931
X184.701 Y228.407 Z-2.88
X184.664 Y228.416 Z-2.82
X184.642 Y228.421 Z-2.753
X184.634 Y228.422 Z-2.683
Z1
Z5
G0 X184.496 Y227.802
G1 Z-0.5 F300
Z-4.183
X184.504 Y227.801 Z-4.253 F600
X184.527 Y227.796 Z-4.32
X184.564 Y227.787 Z-4.38
X184.613 Y227.777 Z-4.431
X184.672 Y227.763 Z-4.469
X184.737 Y227.749 Z-4.492
X184.806 Y227.734 Z-4.5
X185.116 Y227.665
G3 X185.495 Y227.906 I0.069 J0.31
G2 X187.045 Y229.15 I1.55 J-0.343 F1000
G1 X202.1
Y230.908
X180.618
Y209.195
X202.1
Y210.411
X187.045
G2 X185.458 Y211.999 I0 J1.587
G1 Y217.624
G2 X187.045 Y219.212 I1.587 J0
G1 X198.479
Y220.042
X187.045
G2 X185.458 Y221.63 I0 J1.588
G1 Y227.563
G2 X185.495 Y227.906 I1.587 J0
G3 X185.254 Y228.285 I-0.31 J0.069 F600
G1 X184.944 Y228.354
X184.875 Y228.369 Z-4.492
X184.809 Y228.383 Z-4.469
X184.75 Y228.396 Z-4.431
X184.701 Y228.407 Z-4.38
X184.664 Y228.416 Z-4.32
X184.642 Y228.421 Z-4.253
X184.634 Y228.422 Z-4.183
Z-0.5
Z5
G0 X184.496 Y227.802
G1 Z-2 F300
Z-5.683
X184.504 Y227.801 Z-5.753 F600
X184.527 Y227.796 Z-5.82
X184.564 Y227.787 Z-5.88
X184.613 Y227.777 Z-5.931
X184.672 Y227.763 Z-5.969
X184.737 Y227.749 Z-5.992
X184.806 Y227.734 Z-6
X185.116 Y227.665
G3 X185.495 Y227.906 I0.069 J0.31
G2 X187.045 Y229.15 I1.55 J-0.343 F1000
G1 X202.1
Y230.908
X180.618
Y209.195
X202.1
Y210.411
X187.045
G2 X185.458 Y211.999 I0 J1.587
G1 Y217.624
G2 X187.045 Y219.212 I1.587 J0
G1 X198.479
Y220.042
X187.045
G2 X185.458 Y221.63 I0 J1.588
G1 Y227.563
G2 X185.495 Y227.906 I1.587 J0
G3 X185.254 Y228.285 I-0.31 J0.069 F600
G1 X184.944 Y228.354
X184.875 Y228.369 Z-5.992
X184.809 Y228.383 Z-5.969
X184.75 Y228.396 Z-5.931
X184.701 Y228.407 Z-5.88
X184.664 Y228.416 Z-5.82
X184.642 Y228.421 Z-5.753
X184.634 Y228.422 Z-5.683
Z-2
Z5
G0 X184.496 Y227.802
G1 Z-3.5 F300
Z-7.183
X184.504 Y227.801 Z-7.253 F600
X184.527 Y227.796 Z-7.32
X184.564 Y227.787 Z-7.38
X184.613 Y227.777 Z-7.431
X184.672 Y227.763 Z-7.469
X184.737 Y227.749 Z-7.492
X184.806 Y227.734 Z-7.5
X185.116 Y227.665
G3 X185.495 Y227.906 I0.069 J0.31
G2 X187.045 Y229.15 I1.55 J-0.343 F1000
G1 X202.1
Y230.908
X180.618
Y209.195
X202.1
Y210.411
X187.045
G2 X185.458 Y211.999 I0 J1.587
G1 Y217.624
G2 X187.045 Y219.212 I1.587 J0
G1 X198.479
Y220.042
X187.045
G2 X185.458 Y221.63 I0 J1.588
G1 Y227.563
G2 X185.495 Y227.906 I1.587 J0
G3 X185.254 Y228.285 I-0.31 J0.069 F600
G1 X184.944 Y228.354
X184.875 Y228.369 Z-7.492
X184.809 Y228.383 Z-7.469
X184.75 Y228.396 Z-7.431
X184.701 Y228.407 Z-7.38
X184.664 Y228.416 Z-7.32
X184.642 Y228.421 Z-7.253
X184.634 Y228.422 Z-7.183
Z-3.5
Z5
G0 X184.496 Y227.802
G1 Z-5 F300
Z-8.683
X184.504 Y227.801 Z-8.753 F600
X184.527 Y227.796 Z-8.82
X184.564 Y227.787 Z-8.88
X184.613 Y227.777 Z-8.931
X184.672 Y227.763 Z-8.969
X184.737 Y227.749 Z-8.992
X184.806 Y227.734 Z-9
X185.116 Y227.665
G3 X185.495 Y227.906 I0.069 J0.31
G2 X187.045 Y229.15 I1.55 J-0.343 F1000
G1 X202.1
Y230.908
X180.618
Y209.195
X202.1
Y210.411
X187.045
G2 X185.458 Y211.999 I0 J1.587
G1 Y217.624
G2 X187.045 Y219.212 I1.587 J0
G1 X198.479
Y220.042
X187.045
G2 X185.458 Y221.63 I0 J1.588
G1 Y227.563
G2 X185.495 Y227.906 I1.587 J0
G3 X185.254 Y228.285 I-0.31 J0.069 F600
G1 X184.944 Y228.354
X184.875 Y228.369 Z-8.992
X184.809 Y228.383 Z-8.969
X184.75 Y228.396 Z-8.931
X184.701 Y228.407 Z-8.88
X184.664 Y228.416 Z-8.82
X184.642 Y228.421 Z-8.753
X184.634 Y228.422 Z-8.683
Z-5
Z5
G0 X184.496 Y227.802
G1 Z-6.5 F300
Z-10.183
X184.504 Y227.801 Z-10.253 F600
X184.527 Y227.796 Z-10.32
X184.564 Y227.787 Z-10.38
X184.613 Y227.777 Z-10.431
X184.672 Y227.763 Z-10.469
X184.737 Y227.749 Z-10.492
X184.806 Y227.734 Z-10.5
X185.116 Y227.665
G3 X185.495 Y227.906 I0.069 J0.31
G2 X187.045 Y229.15 I1.55 J-0.343 F1000
G1 X202.1
Y230.908
X180.618
Y209.195
X202.1
Y210.411
X187.045
G2 X185.458 Y211.999 I0 J1.587
G1 Y217.624
G2 X187.045 Y219.212 I1.587 J0
G1 X198.479
Y220.042
X187.045
G2 X185.458 Y221.63 I0 J1.588
G1 Y227.563
G2 X185.495 Y227.906 I1.587 J0
G3 X185.254 Y228.285 I-0.31 J0.069 F600
G1 X184.944 Y228.354
X184.875 Y228.369 Z-10.492
X184.809 Y228.383 Z-10.469
X184.75 Y228.396 Z-10.431
X184.701 Y228.407 Z-10.38
X184.664 Y228.416 Z-10.32
X184.642 Y228.421 Z-10.253
X184.634 Y228.422 Z-10.183
Z-6.5
Z5
G0 X184.496 Y227.802
G1 Z-8 F300
Z-11.683
X184.504 Y227.801 Z-11.753 F600
X184.527 Y227.796 Z-11.82
X184.564 Y227.787 Z-11.88
X184.613 Y227.777 Z-11.931
X184.672 Y227.763 Z-11.969
X184.737 Y227.749 Z-11.992
X184.806 Y227.734 Z-12
X185.116 Y227.665
G3 X185.495 Y227.906 I0.069 J0.31
G2 X187.045 Y229.15 I1.55 J-0.343 F1000
G1 X202.1
Y230.908
X180.618
Y209.195
X202.1
Y210.411
X187.045
G2 X185.458 Y211.999 I0 J1.587
G1 Y217.624
G2 X187.045 Y219.212 I1.587 J0
G1 X198.479
Y220.042
X187.045
G2 X185.458 Y221.63 I0 J1.588
G1 Y227.563
G2 X185.495 Y227.906 I1.587 J0
G3 X185.254 Y228.285 I-0.31 J0.069 F600
G1 X184.944 Y228.354
X184.875 Y228.369 Z-11.992
X184.809 Y228.383 Z-11.969
X184.75 Y228.396 Z-11.931
X184.701 Y228.407 Z-11.88
X184.664 Y228.416 Z-11.82
X184.642 Y228.421 Z-11.753
X184.634 Y228.422 Z-11.683
Z-8
Z5
G0 X184.496 Y227.802
G1 Z-9.5 F300
Z-13.183
X184.504 Y227.801 Z-13.253 F600
X184.527 Y227.796 Z-13.32
X184.564 Y227.787 Z-13.38
X184.613 Y227.777 Z-13.431
X184.672 Y227.763 Z-13.469
X184.737 Y227.749 Z-13.492
X184.806 Y227.734 Z-13.5
X185.116 Y227.665
G3 X185.495 Y227.906 I0.069 J0.31
G2 X187.045 Y229.15 I1.55 J-0.343 F1000
G1 X202.1
Y230.908
X193.915
X193.165 Z-12
X189.99
X189.24 Z-13.5 F300
X180.618 F1000
Y222.682
Y221.932 Z-12
Y218.758
Y218.008 Z-13.5 F300
Y209.195 F1000
X188.374
X189.124 Z-12
X192.299
X193.049 Z-13.5 F300
X202.1 F1000
Y210.411
X187.045
G2 X185.458 Y211.999 I0 J1.587
G1 Y217.624
G2 X187.045 Y219.212 I1.587 J0
G1 X198.479
Y220.042
X187.045
G2 X185.458 Y221.63 I0 J1.588
G1 Y227.563
G2 X185.495 Y227.906 I1.587 J0
G3 X185.254 Y228.285 I-0.31 J0.069 F600
G1 X184.944 Y228.354
X184.875 Y228.369 Z-13.492
X184.809 Y228.383 Z-13.469
X184.75 Y228.396 Z-13.431
X184.701 Y228.407 Z-13.38
X184.664 Y228.416 Z-13.32
X184.642 Y228.421 Z-13.253
X184.634 Y228.422 Z-13.183
Z-9.5
Z5
G0 X184.496 Y227.802
G1 Z-11 F300
Z-14.683
X184.504 Y227.801 Z-14.753 F600
X184.527 Y227.796 Z-14.82
X184.564 Y227.787 Z-14.88
X184.613 Y227.777 Z-14.931
X184.672 Y227.763 Z-14.969
X184.737 Y227.749 Z-14.992
X184.806 Y227.734 Z-15
X185.116 Y227.665
G3 X185.495 Y227.906 I0.069 J0.31
G2 X187.045 Y229.15 I1.55 J-0.343 F1000
G1 X202.1
Y230.908
X194.665
X193.165 Z-12
X189.99
X188.49 Z-15 F300
X180.618 F1000
Y223.432
Y221.932 Z-12
Y218.758
Y217.258 Z-15 F300
Y209.195 F1000
X187.624
X189.124 Z-12
X192.299
X193.799 Z-15 F300
X202.1 F1000
Y210.411
X187.045
G2 X185.458 Y211.999 I0 J1.587
G1 Y217.624
G2 X187.045 Y219.212 I1.587 J0
G1 X198.479
Y220.042
X187.045
G2 X185.458 Y221.63 I0 J1.588
G1 Y227.563
G2 X185.495 Y227.906 I1.587 J0
G3 X185.254 Y228.285 I-0.31 J0.069 F600
G1 X184.944 Y228.354
X184.875 Y228.369 Z-14.992
X184.809 Y228.383 Z-14.969
X184.75 Y228.396 Z-14.931
X184.701 Y228.407 Z-14.88
X184.664 Y228.416 Z-14.82
X184.642 Y228.421 Z-14.753
X184.634 Y228.422 Z-14.683
Z-11
Z5
G0 X184.496 Y227.802
G1 Z-12.5 F300
Z-16.183
X184.504 Y227.801 Z-16.253 F600
X184.527 Y227.796 Z-16.32
X184.564 Y227.787 Z-16.38
X184.613 Y227.777 Z-16.431
X184.672 Y227.763 Z-16.469
X184.737 Y227.749 Z-16.492
X184.806 Y227.734 Z-16.5
X185.116 Y227.665
G3 X185.495 Y227.906 I0.069 J0.31
G2 X187.045 Y229.15 I1.55 J-0.343 F1000
G1 X202.1
Y230.908
X195.415
X193.165 Z-12
X189.99
X187.74 Z-16.5 F300
X180.618 F1000
Y224.182
Y221.932 Z-12
Y218.758
Y216.508 Z-16.5 F300
Y209.195 F1000
X186.874
X189.124 Z-12
X192.299
X194.549 Z-16.5 F300
X202.1 F1000
Y210.411
X194.549
X187.045 Z-16.159
X186.96 Y210.414 Z-16.33 F300
X186.874 Y210.421 Z-16.5
G2 X185.458 Y211.999 I0.171 J1.578 F1000
G1 Y217.624
G2 X187.045 Y219.212 I1.587 J0
G1 X198.479
Y220.042
X187.045
G2 X185.458 Y221.63 I0 J1.588
G1 Y227.563
G2 X185.495 Y227.906 I1.587 J0
G3 X185.254 Y228.285 I-0.31 J0.069 F600
G1 X184.944 Y228.354
X184.875 Y228.369 Z-16.492
X184.809 Y228.383 Z-16.469
X184.75 Y228.396 Z-16.431
X184.701 Y228.407 Z-16.38
X184.664 Y228.416 Z-16.32
X184.642 Y228.421 Z-16.253
X184.634 Y228.422 Z-16.183
Z-12.5
Z5
G0 X184.496 Y227.802
G1 Z-14 F300
Z-17.683
X184.504 Y227.801 Z-17.753 F600
X184.527 Y227.796 Z-17.82
X184.564 Y227.787 Z-17.88
X184.613 Y227.777 Z-17.931
X184.672 Y227.763 Z-17.969
X184.737 Y227.749 Z-17.992
X184.806 Y227.734 Z-18
X185.116 Y227.665
G3 X185.495 Y227.906 I0.069 J0.31
G2 X186.99 Y229.15 I1.55 J-0.343 F1000
G1 X187.045 Z-17.889
X196.165 Z-18 F300
X202.1 F1000
Y230.908
X196.165
X193.165 Z-12
X189.99
X186.99 Z-18 F300
X180.618 F1000
Y224.932
Y221.932 Z-12
Y218.758
Y215.758 Z-18 F300
Y209.195 F1000
X186.124
X189.124 Z-12
X192.299
X195.299 Z-18 F300
X202.1 F1000
Y210.411
X195.299
X187.045 Z-16.159
G2 X186.691 Y210.451 Z-16.866 I0 J1.587 F300
X186.356 Y210.569 Z-17.538 I0.354 J1.548
X186.124 Y210.706 Z-18 I0.689 J1.43
X185.458 Y211.999 I0.921 J1.293 F1000
G1 Y217.624
G2 X187.045 Y219.212 I1.587 J0
G1 X198.479
Y220.042
X187.045
G2 X185.458 Y221.63 I0 J1.588
G1 Y227.563
G2 X185.495 Y227.906 I1.587 J0
G3 X185.254 Y228.285 I-0.31 J0.069 F600
G1 X184.944 Y228.354
X184.875 Y228.369 Z-17.992
X184.809 Y228.383 Z-17.969
X184.75 Y228.396 Z-17.931
X184.701 Y228.407 Z-17.88
X184.664 Y228.416 Z-17.82
X184.642 Y228.421 Z-17.753
X184.634 Y228.422 Z-17.683
Z-14
Z5
G0 X338.507 Y222.848
G1 Z2.5 F300
Z-1.183
X338.51 Y222.856 Z-1.253 F600
X338.518 Y222.877 Z-1.32
X338.533 Y222.913 Z-1.38
X338.551 Y222.959 Z-1.431
X338.574 Y223.015 Z-1.469
X338.599 Y223.077 Z-1.492
X338.625 Y223.143 Z-1.5
X338.744 Y223.437
G3 X338.568 Y223.85 I-0.295 J0.119
G2 X337.573 Y225.323 I0.593 J1.473 F1000
G1 Y230.74
X332.203
Y215.686
X333.845
G2 X335.432 Y214.098 I0 J-1.587
G1 Y212.727
X337.01
G2 X338.598 Y211.14 I0 J-1.587
G1 Y208.723
X347.69
Y211.14
G2 X349.277 Y212.727 I1.587 J0
G1 X351.392
Y214.24
G2 X352.98 Y215.827 I1.588 J0
G1 X354.497
Y230.74
X348.647
Y225.323
G2 X347.059 Y223.736 I-1.588 J0
G1 X339.161
G2 X338.568 Y223.85 I0 J1.587
G3 X338.155 Y223.675 I-0.119 J-0.295 F600
G1 X338.036 Y223.38
X338.01 Y223.314 Z-1.492
X337.985 Y223.252 Z-1.469
X337.962 Y223.196 Z-1.431
X337.944 Y223.15 Z-1.38
X337.929 Y223.115 Z-1.32
X337.921 Y223.093 Z-1.253
X337.918 Y223.085 Z-1.183
Z2.5
Z5
G0 X338.507 Y222.848
G1 Z1 F300
Z-2.683
X338.51 Y222.856 Z-2.753 F600
X338.518 Y222.877 Z-2.82
X338.533 Y222.913 Z-2.88
X338.551 Y222.959 Z-2.931
X338.574 Y223.015 Z-2.969
X338.599 Y223.077 Z-2.992
X338.625 Y223.143 Z-3
X338.744 Y223.437
G3 X338.568 Y223.85 I-0.295 J0.119
G2 X337.573 Y225.323 I0.593 J1.473 F1000
G1 Y230.74
X332.203
Y215.686
X333.845
G2 X335.432 Y214.098 I0 J-1.587
G1 Y212.727
X337.01
G2 X338.598 Y211.14 I0 J-1.587
G1 Y208.723
X347.69
Y211.14
G2 X349.277 Y212.727 I1.587 J0
G1 X351.392
Y214.24
G2 X352.98 Y215.827 I1.588 J0
G1 X354.497
Y230.74
X348.647
Y225.323
G2 X347.059 Y223.736 I-1.588 J0
G1 X339.161
G2 X338.568 Y223.85 I0 J1.587
G3 X338.155 Y223.675 I-0.119 J-0.295 F600
G1 X338.036 Y223.38
X338.01 Y223.314 Z-2.992
X337.985 Y223.252 Z-2.969
X337.962 Y223.196 Z-2.931
X337.944 Y223.15 Z-2.88
X337.929 Y223.115 Z-2.82
X337.921 Y223.093 Z-2.753
X337.918 Y223.085 Z-2.683
Z1
Z5
G0 X338.507 Y222.848
G1 Z-0.5 F300
Z-4.183
X338.51 Y222.856 Z-4.253 F600
X338.518 Y222.877 Z-4.32
X338.533 Y222.913 Z-4.38
X338.551 Y222.959 Z-4.431
X338.574 Y223.015 Z-4.469
X338.599 Y223.077 Z-4.492
X338.625 Y223.143 Z-4.5
X338.744 Y223.437
G3 X338.568 Y223.85 I-0.295 J0.119
G2 X337.573 Y225.323 I0.593 J1.473 F1000
G1 Y230.74
X332.203
Y215.686
X333.845
G2 X335.432 Y214.098 I0 J-1.587
G1 Y212.727
X337.01
G2 X338.598 Y211.14 I0 J-1.587
G1 Y208.723
X347.69
Y211.14
G2 X349.277 Y212.727 I1.587 J0
G1 X351.392
Y214.24
G2 X352.98 Y215.827 I1.588 J0
G1 X354.497
Y230.74
X348.647
Y225.323
G2 X347.059 Y223.736 I-1.588 J0
G1 X339.161
G2 X338.568 Y223.85 I0 J1.587
G3 X338.155 Y223.675 I-0.119 J-0.295 F600
G1 X338.036 Y223.38
X338.01 Y223.314 Z-4.492
X337.985 Y223.252 Z-4.469
X337.962 Y223.196 Z-4.431
X337.944 Y223.15 Z-4.38
X337.929 Y223.115 Z-4.32
X337.921 Y223.093 Z-4.253
X337.918 Y223.085 Z-4.183
Z-0.5
Z5
G0 X338.507 Y222.848
G1 Z-2 F300
Z-5.683
X338.51 Y222.856 Z-5.753 F600
X338.518 Y222.877 Z-5.82
X338.533 Y222.913 Z-5.88
X338.551 Y222.959 Z-5.931
X338.574 Y223.015 Z-5.969
X338.599 Y223.077 Z-5.992
X338.625 Y223.143 Z-6
X338.744 Y223.437
G3 X338.568 Y223.85 I-0.295 J0.119
G2 X337.573 Y225.323 I0.593 J1.473 F1000
G1 Y230.74
X332.203
Y215.686
X333.845
G2 X335.432 Y214.098 I0 J-1.587
G1 Y212.727
X337.01
G2 X338.598 Y211.14 I0 J-1.587
G1 Y208.723
X347.69
Y211.14
G2 X349.277 Y212.727 I1.587 J0
G1 X351.392
Y214.24
G2 X352.98 Y215.827 I1.588 J0
G1 X354.497
Y230.74
X348.647
Y225.323
G2 X347.059 Y223.736 I-1.588 J0
G1 X339.161
G2 X338.568 Y223.85 I0 J1.587
G3 X338.155 Y223.675 I-0.119 J-0.295 F600
G1 X338.036 Y223.38
X338.01 Y223.314 Z-5.992
X337.985 Y223.252 Z-5.969
X337.962 Y223.196 Z-5.931
X337.944 Y223.15 Z-5.88
X337.929 Y223.115 Z-5.82
X337.921 Y223.093 Z-5.753
X337.918 Y223.085 Z-5.683
Z-2
Z5
G0 X338.507 Y222.848
G1 Z-3.5 F300
Z-7.183
X338.51 Y222.856 Z-7.253 F600
X338.518 Y222.877 Z-7.32
X338.533 Y222.913 Z-7.38
X338.551 Y222.959 Z-7.431
X338.574 Y223.015 Z-7.469
X338.599 Y223.077 Z-7.492
X338.625 Y223.143 Z-7.5
X338.744 Y223.437
G3 X338.568 Y223.85 I-0.295 J0.119
G2 X337.573 Y225.323 I0.593 J1.473 F1000
G1 Y230.74
X332.203
Y215.686
X333.845
G2 X335.432 Y214.098 I0 J-1.587
G1 Y212.727
X337.01
G2 X338.598 Y211.14 I0 J-1.587
G1 Y208.723
X347.69
Y211.14
G2 X349.277 Y212.727 I1.587 J0
G1 X351.392
Y214.24
G2 X352.98 Y215.827 I1.588 J0
G1 X354.497
Y230.74
X348.647
Y225.323
G2 X347.059 Y223.736 I-1.588 J0
G1 X339.161
G2 X338.568 Y223.85 I0 J1.587
G3 X338.155 Y223.675 I-0.119 J-0.295 F600
G1 X338.036 Y223.38
X338.01 Y223.314 Z-7.492
X337.985 Y223.252 Z-7.469
X337.962 Y223.196 Z-7.431
X337.944 Y223.15 Z-7.38
X337.929 Y223.115 Z-7.32
X337.921 Y223.093 Z-7.253
X337.918 Y223.085 Z-7.183
Z-3.5
Z5
G0 X338.507 Y222.848
G1 Z-5 F300
Z-8.683
X338.51 Y222.856 Z-8.753 F600
X338.518 Y222.877 Z-8.82
X338.533 Y222.913 Z-8.88
X338.551 Y222.959 Z-8.931
X338.574 Y223.015 Z-8.969
X338.599 Y223.077 Z-8.992
X338.625 Y223.143 Z-9
X338.744 Y223.437
G3 X338.568 Y223.85 I-0.295 J0.119
G2 X337.573 Y225.323 I0.593 J1.473 F1000
G1 Y230.74
X332.203
Y215.686
X333.845
G2 X335.432 Y214.098 I0 J-1.587
G1 Y212.727
X337.01
G2 X338.598 Y211.14 I0 J-1.587
G1 Y208.723
X347.69
Y211.14
G2 X349.277 Y212.727 I1.587 J0
G1 X351.392
Y214.24
G2 X352.98 Y215.827 I1.588 J0
G1 X354.497
Y230.74
X348.647
Y225.323
G2 X347.059 Y223.736 I-1.588 J0
G1 X339.161
G2 X338.568 Y223.85 I0 J1.587
G3 X338.155 Y223.675 I-0.119 J-0.295 F600
G1 X338.036 Y223.38
X338.01 Y223.314 Z-8.992
X337.985 Y223.252 Z-8.969
X337.962 Y223.196 Z-8.931
X337.944 Y223.15 Z-8.88
X337.929 Y223.115 Z-8.82
X337.921 Y223.093 Z-8.753
X337.918 Y223.085 Z-8.683
Z-5
Z5
G0 X338.507 Y222.848
G1 Z-6.5 F300
Z-10.183
X338.51 Y222.856 Z-10.253 F600
X338.518 Y222.877 Z-10.32
X338.533 Y222.913 Z-10.38
X338.551 Y222.959 Z-10.431
X338.574 Y223.015 Z-10.469
X338.599 Y223.077 Z-10.492
X338.625 Y223.143 Z-10.5
X338.744 Y223.437
G3 X338.568 Y223.85 I-0.295 J0.119
G2 X337.573 Y225.323 I0.593 J1.473 F1000
G1 Y230.74
X332.203
Y215.686
X333.845
G2 X335.432 Y214.098 I0 J-1.587
G1 Y212.727
X337.01
G2 X338.598 Y211.14 I0 J-1.587
G1 Y208.723
X347.69
Y211.14
G2 X349.277 Y212.727 I1.587 J0
G1 X351.392
Y214.24
G2 X352.98 Y215.827 I1.588 J0
G1 X354.497
Y230.74
X348.647
Y225.323
G2 X347.059 Y223.736 I-1.588 J0
G1 X339.161
G2 X338.568 Y223.85 I0 J1.587
G3 X338.155 Y223.675 I-0.119 J-0.295 F600
G1 X338.036 Y223.38
X338.01 Y223.314 Z-10.492
X337.985 Y223.252 Z-10.469
X337.962 Y223.196 Z-10.431
X337.944 Y223.15 Z-10.38
X337.929 Y223.115 Z-10.32
X337.921 Y223.093 Z-10.253
X337.918 Y223.085 Z-10.183
Z-6.5
Z5
G0 X338.507 Y222.848
G1 Z-8 F300
Z-11.683
X338.51 Y222.856 Z-11.753 F600
X338.518 Y222.877 Z-11.82
X338.533 Y222.913 Z-11.88
X338.551 Y222.959 Z-11.931
X338.574 Y223.015 Z-11.969
X338.599 Y223.077 Z-11.992
X338.625 Y223.143 Z-12
X338.744 Y223.437
G3 X338.568 Y223.85 I-0.295 J0.119
G2 X337.573 Y225.323 I0.593 J1.473 F1000
G1 Y230.74
X332.203
Y215.686
X333.845
G2 X335.432 Y214.098 I0 J-1.587
G1 Y212.727
X337.01
G2 X338.598 Y211.14 I0 J-1.587
G1 Y208.723
X347.69
Y211.14
G2 X349.277 Y212.727 I1.587 J0
G1 X351.392
Y214.24
G2 X352.98 Y215.827 I1.588 J0
G1 X354.497
Y230.74
X348.647
Y225.323
G2 X347.059 Y223.736 I-1.588 J0
G1 X339.161
G2 X338.568 Y223.85 I0 J1.587
G3 X338.155 Y223.675 I-0.119 J-0.295 F600
G1 X338.036 Y223.38
X338.01 Y223.314 Z-11.992
X337.985 Y223.252 Z-11.969
X337.962 Y223.196 Z-11.931
X337.944 Y223.15 Z-11.88
X337.929 Y223.115 Z-11.82
X337.921 Y223.093 Z-11.753
X337.918 Y223.085 Z-11.683
Z-8
Z5
G0 X338.507 Y222.848
G1 Z-9.5 F300
Z-13.183
X338.51 Y222.856 Z-13.253 F600
X338.518 Y222.877 Z-13.32
X338.533 Y222.913 Z-13.38
X338.551 Y222.959 Z-13.431
X338.574 Y223.015 Z-13.469
X338.599 Y223.077 Z-13.492
X338.625 Y223.143 Z-13.5
X338.744 Y223.437
G3 X338.568 Y223.85 I-0.295 J0.119
G2 X337.573 Y225.323 I0.593 J1.473 F1000
G1 Y230.74
X332.203
Y224.917
Y224.167 Z-12
Y220.992
Y220.242 Z-13.5 F300
Y215.686 F1000
X333.845
G2 X335.432 Y214.098 I0 J-1.587
G1 Y212.727
X337.01
G2 X338.598 Y211.14 I0 J-1.587
G1 Y208.723
X340.427
X341.177 Z-12
X344.353
X345.103 Z-13.5 F300
X347.69 F1000
Y211.14
G2 X349.277 Y212.727 I1.587 J0
G1 X351.392
Y214.24
G2 X352.98 Y215.827 I1.588 J0
G1 X354.497
Y220.072
Y220.822 Z-12
Y223.997
Y224.747 Z-13.5 F300
Y230.74 F1000
X348.647
Y225.323
G2 X347.059 Y223.736 I-1.588 J0
G1 X339.161
G2 X338.568 Y223.85 I0 J1.587
G3 X338.155 Y223.675 I-0.119 J-0.295 F600
G1 X338.036 Y223.38
X338.01 Y223.314 Z-13.492
X337.985 Y223.252 Z-13.469
X337.962 Y223.196 Z-13.431
X337.944 Y223.15 Z-13.38
X337.929 Y223.115 Z-13.32
X337.921 Y223.093 Z-13.253
X337.918 Y223.085 Z-13.183
Z-9.5
Z5
G0 X338.507 Y222.848
G1 Z-11 F300
Z-14.683
X338.51 Y222.856 Z-14.753 F600
X338.518 Y222.877 Z-14.82
X338.533 Y222.913 Z-14.88
X338.551 Y222.959 Z-14.931
X338.574 Y223.015 Z-14.969
X338.599 Y223.077 Z-14.992
X338.625 Y223.143 Z-15
X338.744 Y223.437
G3 X338.568 Y223.85 I-0.295 J0.119
G2 X337.573 Y225.323 I0.593 J1.473 F1000
G1 Y230.74
X332.203
Y225.667
Y224.167 Z-12
Y220.992
Y219.492 Z-15 F300
Y215.686 F1000
X333.845
G2 X335.432 Y214.098 I0 J-1.587
G1 Y212.727
X337.01
G2 X338.598 Y211.14 I0 J-1.587
G1 Y208.723
X339.677
X341.177 Z-12
X344.353
X345.853 Z-15 F300
X347.69 F1000
Y211.14
G2 X349.277 Y212.727 I1.587 J0
G1 X351.392
Y214.24
G2 X352.98 Y215.827 I1.588 J0
G1 X354.497
Y219.322
Y220.822 Z-12
Y223.997
Y225.497 Z-15 F300
Y230.74 F1000
X348.647
Y225.323
G2 X347.059 Y223.736 I-1.588 J0
G1 X339.161
G2 X338.568 Y223.85 I0 J1.587
G3 X338.155 Y223.675 I-0.119 J-0.295 F600
G1 X338.036 Y223.38
X338.01 Y223.314 Z-14.992
X337.985 Y223.252 Z-14.969
X337.962 Y223.196 Z-14.931
X337.944 Y223.15 Z-14.88
X337.929 Y223.115 Z-14.82
X337.921 Y223.093 Z-14.753
X337.918 Y223.085 Z-14.683
Z-11
Z5
G0 X338.507 Y222.848
G1 Z-12.5 F300
Z-16.183
X338.51 Y222.856 Z-16.253 F600
X338.518 Y222.877 Z-16.32
X338.533 Y222.913 Z-16.38
X338.551 Y222.959 Z-16.431
X338.574 Y223.015 Z-16.469
X338.599 Y223.077 Z-16.492
X338.625 Y223.143 Z-16.5
X338.744 Y223.437
G3 X338.568 Y223.85 I-0.295 J0.119
G2 X337.573 Y225.323 I0.593 J1.473 F1000
G1 Y230.74
X332.203
Y226.417
Y224.167 Z-12
Y220.992
Y218.742 Z-16.5 F300
Y215.686 F1000
X333.845
G2 X335.432 Y214.098 I0 J-1.587
G1 Y212.727
X337.01
G2 X338.598 Y211.14 I0 J-1.587
G1 Y208.723
X338.927
X341.177 Z-12
X344.353
X346.603 Z-16.5 F300
X347.69 F1000
Y211.14
G2 X349.277 Y212.727 I1.587 J0
G1 X351.392
Y214.24
G2 X352.98 Y215.827 I1.588 J0
G1 X354.497
Y218.572
Y220.822 Z-12
Y223.997
Y226.247 Z-16.5 F300
Y230.74 F1000
X348.647
Y225.323
G2 X347.059 Y223.736 I-1.588 J0
G1 X339.161
G2 X338.568 Y223.85 I0 J1.587
G3 X338.155 Y223.675 I-0.119 J-0.295 F600
G1 X338.036 Y223.38
X338.01 Y223.314 Z-16.492
X337.985 Y223.252 Z-16.469
X337.962 Y223.196 Z-16.431
X337.944 Y223.15 Z-16.38
X337.929 Y223.115 Z-16.32
X337.921 Y223.093 Z-16.253
X337.918 Y223.085 Z-16.183
Z-12.5
Z5
G0 X338.507 Y222.848
G1 Z-14 F300
Z-17.683
X338.51 Y222.856 Z-17.753 F600
X338.518 Y222.877 Z-17.82
X338.533 Y222.913 Z-17.88
X338.551 Y222.959 Z-17.931
X338.574 Y223.015 Z-17.969
X338.599 Y223.077 Z-17.992
X338.625 Y223.143 Z-18
X338.744 Y223.437
G3 X338.568 Y223.85 I-0.295 J0.119
G2 X337.573 Y225.323 I0.593 J1.473 F1000
G1 Y230.74
X332.203
Y227.167
Y224.167 Z-12
Y220.992
Y217.992 Z-18 F300
Y215.686 F1000
X333.845
G2 X335.432 Y214.098 I0 J-1.587
G1 Y212.727
X337.01
G2 X338.598 Y211.14 I0 J-1.587
G1 Y210.628
Z-17.16
Y208.723
X341.177 Z-12
X344.353
X347.353 Z-18 F300
X347.69 F1000
Y211.14
G2 X349.277 Y212.727 I1.587 J0
G1 X351.392
Y214.24
G2 X352.98 Y215.827 I1.588 J0
G1 X354.497
Y217.822
Y220.822 Z-12
Y223.997
Y226.997 Z-18 F300
Y230.74 F1000
X348.647
Y225.323
G2 X347.059 Y223.736 I-1.588 J0
G1 X339.161
G2 X338.568 Y223.85 I0 J1.587
G3 X338.155 Y223.675 I-0.119 J-0.295 F600
G1 X338.036 Y223.38
X338.01 Y223.314 Z-17.992
X337.985 Y223.252 Z-17.969
X337.962 Y223.196 Z-17.931
X337.944 Y223.15 Z-17.88
X337.929 Y223.115 Z-17.82
X337.921 Y223.093 Z-17.753
X337.918 Y223.085 Z-17.683
Z-14
Z5
G0 X381.272 Y226.367
G1 Z2.5 F300
Z-1.183
X381.278 Y226.373 Z-1.253 F600
X381.296 Y226.389 Z-1.32
X381.323 Y226.414 Z-1.38
X381.36 Y226.449 Z-1.431
X381.405 Y226.489 Z-1.469
X381.454 Y226.535 Z-1.492
X381.506 Y226.583 Z-1.5
X381.739 Y226.798
G3 X381.757 Y227.247 I-0.215 J0.233
G2 X381.336 Y228.324 I1.166 J1.077 F1000
G1 Y231.085
X362.546
Y208.658
X381.336
Y210.57
G2 X382.923 Y212.158 I1.587 J0
G1 X384.734
Y226.736
X382.923
G2 X381.757 Y227.247 I0 J1.588
G3 X381.308 Y227.265 I-0.233 J-0.215 F600
G1 X381.075 Y227.049
X381.023 Y227.001 Z-1.492
X380.974 Y226.956 Z-1.469
X380.929 Y226.915 Z-1.431
X380.893 Y226.881 Z-1.38
X380.865 Y226.855 Z-1.32
X380.847 Y226.839 Z-1.253
X380.842 Y226.834 Z-1.183
Z2.5
Z5
G0 X381.272 Y226.367
G1 Z1 F300
Z-2.683
X381.278 Y226.373 Z-2.753 F600
X381.296 Y226.389 Z-2.82
X381.323 Y226.414 Z-2.88
X381.36 Y226.449 Z-2.931
X381.405 Y226.489 Z-2.969
X381.454 Y226.535 Z-2.992
X381.506 Y226.583 Z-3
X381.739 Y226.798
G3 X381.757 Y227.247 I-0.215 J0.233
G2 X381.336 Y228.324 I1.166 J1.077 F1000
G1 Y231.085
X362.546
Y208.658
X381.336
Y210.57
G2 X382.923 Y212.158 I1.587 J0
G1 X384.734
Y226.736
X382.923
G2 X381.757 Y227.247 I0 J1.588
G3 X381.308 Y227.265 I-0.233 J-0.215 F600
G1 X381.075 Y227.049
X381.023 Y227.001 Z-2.992
X380.974 Y226.956 Z-2.969
X380.929 Y226.915 Z-2.931
X380.893 Y226.881 Z-2.88
X380.865 Y226.855 Z-2.82
X380.847 Y226.839 Z-2.753
X380.842 Y226.834 Z-2.683
Z1
Z5
G0 X381.272 Y226.367
G1 Z-0.5 F300
Z-4.183
X381.278 Y226.373 Z-4.253 F600
X381.296 Y226.389 Z-4.32
X381.323 Y226.414 Z-4.38
X381.36 Y226.449 Z-4.431
X381.405 Y226.489 Z-4.469
X381.454 Y226.535 Z-4.492
X381.506 Y226.583 Z-4.5
X381.739 Y226.798
G3 X381.757 Y227.247 I-0.215 J0.233
G2 X381.336 Y228.324 I1.166 J1.077 F1000
G1 Y231.085
X362.546
Y208.658
X381.336
Y210.57
G2 X382.923 Y212.158 I1.587 J0
G1 X384.734
Y226.736
X382.923
G2 X381.757 Y227.247 I0 J1.588
G3 X381.308 Y227.265 I-0.233 J-0.215 F600
G1 X381.075 Y227.049
X381.023 Y227.001 Z-4.492
X380.974 Y226.956 Z-4.469
X380.929 Y226.915 Z-4.431
X380.893 Y226.881 Z-4.38
X380.865 Y226.855 Z-4.32
X380.847 Y226.839 Z-4.253
X380.842 Y226.834 Z-4.183
Z-0.5
Z5
G0 X381.272 Y226.367
G1 Z-2 F300
Z-5.683
X381.278 Y226.373 Z-5.753 F600
X381.296 Y226.389 Z-5.82
X381.323 Y226.414 Z-5.88
X381.36 Y226.449 Z-5.931
X381.405 Y226.489 Z-5.969
X381.454 Y226.535 Z-5.992
X381.506 Y226.583 Z-6
X381.739 Y226.798
G3 X381.757 Y227.247 I-0.215 J0.233
G2 X381.336 Y228.324 I1.166 J1.077 F1000
G1 Y231.085
X362.546
Y208.658
X381.336
Y210.57
G2 X382.923 Y212.158 I1.587 J0
G1 X384.734
Y226.736
X382.923
G2 X381.757 Y227.247 I0 J1.588
G3 X381.308 Y227.265 I-0.233 J-0.215 F600
G1 X381.075 Y227.049
X381.023 Y227.001 Z-5.992
X380.974 Y226.956 Z-5.969
X380.929 Y226.915 Z-5.931
X380.893 Y226.881 Z-5.88
X380.865 Y226.855 Z-5.82
X380.847 Y226.839 Z-5.753
X380.842 Y226.834 Z-5.683
Z-2
Z5
G0 X381.272 Y226.367
G1 Z-3.5 F300
Z-7.183
X381.278 Y226.373 Z-7.253 F600
X381.296 Y226.389 Z-7.32
X381.323 Y226.414 Z-7.38
X381.36 Y226.449 Z-7.431
X381.405 Y226.489 Z-7.469
X381.454 Y226.535 Z-7.492
X381.506 Y226.583 Z-7.5
X381.739 Y226.798
G3 X381.757 Y227.247 I-0.215 J0.233
G2 X381.336 Y228.324 I1.166 J1.077 F1000
G1 Y231.085
X362.546
Y208.658
X381.336
Y210.57
G2 X382.923 Y212.158 I1.587 J0
G1 X384.734
Y226.736
X382.923
G2 X381.757 Y227.247 I0 J1.588
G3 X381.308 Y227.265 I-0.233 J-0.215 F600
G1 X381.075 Y227.049
X381.023 Y227.001 Z-7.492
X380.974 Y226.956 Z-7.469
X380.929 Y226.915 Z-7.431
X380.893 Y226.881 Z-7.38
X380.865 Y226.855 Z-7.32
X380.847 Y226.839 Z-7.253
X380.842 Y226.834 Z-7.183
Z-3.5
Z5
G0 X381.272 Y226.367
G1 Z-5 F300
Z-8.683
X381.278 Y226.373 Z-8.753 F600
X381.296 Y226.389 Z-8.82
X381.323 Y226.414 Z-8.88
X381.36 Y226.449 Z-8.931
X381.405 Y226.489 Z-8.969
X381.454 Y226.535 Z-8.992
X381.506 Y226.583 Z-9
X381.739 Y226.798
G3 X381.757 Y227.247 I-0.215 J0.233
G2 X381.336 Y228.324 I1.166 J1.077 F1000
G1 Y231.085
X362.546
Y208.658
X381.336
Y210.57
G2 X382.923 Y212.158 I1.587 J0
G1 X384.734
Y226.736
X382.923
G2 X381.757 Y227.247 I0 J1.588
G3 X381.308 Y227.265 I-0.233 J-0.215 F600
G1 X381.075 Y227.049
X381.023 Y227.001 Z-8.992
X380.974 Y226.956 Z-8.969
X380.929 Y226.915 Z-8.931
X380.893 Y226.881 Z-8.88
X380.865 Y226.855 Z-8.82
X380.847 Y226.839 Z-8.753
X380.842 Y226.834 Z-8.683
Z-5
Z5
G0 X381.272 Y226.367
G1 Z-6.5 F300
Z-10.183
X381.278 Y226.373 Z-10.253 F600
X381.296 Y226.389 Z-10.32
X381.323 Y226.414 Z-10.38
X381.36 Y226.449 Z-10.431
X381.405 Y226.489 Z-10.469
X381.454 Y226.535 Z-10.492
X381.506 Y226.583 Z-10.5
X381.739 Y226.798
G3 X381.757 Y227.247 I-0.215 J0.233
G2 X381.336 Y228.324 I1.166 J1.077 F1000
G1 Y231.085
X362.546
Y208.658
X381.336
Y210.57
G2 X382.923 Y212.158 I1.587 J0
G1 X384.734
Y226.736
X382.923
G2 X381.757 Y227.247 I0 J1.588
G3 X381.308 Y227.265 I-0.233 J-0.215 F600
G1 X381.075 Y227.049
X381.023 Y227.001 Z-10.492
X380.974 Y226.956 Z-10.469
X380.929 Y226.915 Z-10.431
X380.893 Y226.881 Z-10.38
X380.865 Y226.855 Z-10.32
X380.847 Y226.839 Z-10.253
X380.842 Y226.834 Z-10.183
Z-6.5
Z5
G0 X381.272 Y226.367
G1 Z-8 F300
Z-11.683
X381.278 Y226.373 Z-11.753 F600
X381.296 Y226.389 Z-11.82
X381.323 Y226.414 Z-11.88
X381.36 Y226.449 Z-11.931
X381.405 Y226.489 Z-11.969
X381.454 Y226.535 Z-11.992
X381.506 Y226.583 Z-12
X381.739 Y226.798
G3 X381.757 Y227.247 I-0.215 J0.233
G2 X381.336 Y228.324 I1.166 J1.077 F1000
G1 Y231.085
X362.546
Y208.658
X381.336
Y210.57
G2 X382.923 Y212.158 I1.587 J0
G1 X384.734
Y226.736
X382.923
G2 X381.757 Y227.247 I0 J1.588
G3 X381.308 Y227.265 I-0.233 J-0.215 F600
G1 X381.075 Y227.049
X381.023 Y227.001 Z-11.992
X380.974 Y226.956 Z-11.969
X380.929 Y226.915 Z-11.931
X380.893 Y226.881 Z-11.88
X380.865 Y226.855 Z-11.82
X380.847 Y226.839 Z-11.753
X380.842 Y226.834 Z-11.683
Z-8
Z5
G0 X381.272 Y226.367
G1 Z-9.5 F300
Z-13.183
X381.278 Y226.373 Z-13.253 F600
X381.296 Y226.389 Z-13.32
X381.323 Y226.414 Z-13.38
X381.36 Y226.449 Z-13.431
X381.405 Y226.489 Z-13.469
X381.454 Y226.535 Z-13.492
X381.506 Y226.583 Z-13.5
X381.739 Y226.798
G3 X381.757 Y227.247 I-0.215 J0.233
G2 X381.336 Y228.324 I1.166 J1.077 F1000
G1 Y231.085
X374.542
X373.792 Z-12
X370.616
X369.866 Z-13.5 F300
X362.546 F1000
Y223.169
Y222.419 Z-12
Y219.245
Y218.495 Z-13.5 F300
Y208.658 F1000
X368.879
X369.629 Z-12
X372.803
X373.553 Z-13.5 F300
X381.336 F1000
Y210.57
G2 X382.923 Y212.158 I1.587 J0
G1 X384.734
Y217.033
Y217.783 Z-12
Y220.958
Y221.708 Z-13.5 F300
Y226.736 F1000
X382.923
G2 X381.757 Y227.247 I0 J1.588
G3 X381.308 Y227.265 I-0.233 J-0.215 F600
G1 X381.075 Y227.049
X381.023 Y227.001 Z-13.492
X380.974 Y226.956 Z-13.469
X380.929 Y226.915 Z-13.431
X380.893 Y226.881 Z-13.38
X380.865 Y226.855 Z-13.32
X380.847 Y226.839 Z-13.253
X380.842 Y226.834 Z-13.183
Z-9.5
Z5
G0 X381.272 Y226.367
G1 Z-11 F300
Z-14.683
X381.278 Y226.373 Z-14.753 F600
X381.296 Y226.389 Z-14.82
X381.323 Y226.414 Z-14.88
X381.36 Y226.449 Z-14.931
X381.405 Y226.489 Z-14.969
X381.454 Y226.535 Z-14.992
X381.506 Y226.583 Z-15
X381.739 Y226.798
G3 X381.757 Y227.247 I-0.215 J0.233
G2 X381.336 Y228.324 I1.166 J1.077 F1000
G1 Y231.085
X375.292
X373.792 Z-12
X370.616
X369.116 Z-15 F300
X362.546 F1000
Y223.919
Y222.419 Z-12
Y219.245
Y217.745 Z-15 F300
Y208.658 F1000
X368.129
X369.629 Z-12
X372.803
X374.303 Z-15 F300
X381.336 F1000
Y210.57
G2 X382.923 Y212.158 I1.587 J0
G1 X384.734
Y216.283
Y217.783 Z-12
Y220.958
Y222.458 Z-15 F300
Y226.736 F1000
X382.923
G2 X381.757 Y227.247 I0 J1.588
G3 X381.308 Y227.265 I-0.233 J-0.215 F600
G1 X381.075 Y227.049
X381.023 Y227.001 Z-14.992
X380.974 Y226.956 Z-14.969
X380.929 Y226.915 Z-14.931
X380.893 Y226.881 Z-14.88
X380.865 Y226.855 Z-14.82
X380.847 Y226.839 Z-14.753
X380.842 Y226.834 Z-14.683
Z-11
Z5
G0 X381.272 Y226.367
G1 Z-12.5 F300
Z-16.183
X381.278 Y226.373 Z-16.253 F600
X381.296 Y226.389 Z-16.32
X381.323 Y226.414 Z-16.38
X381.36 Y226.449 Z-16.431
X381.405 Y226.489 Z-16.469
X381.454 Y226.535 Z-16.492
X381.506 Y226.583 Z-16.5
X381.739 Y226.798
G3 X381.757 Y227.247 I-0.215 J0.233
G2 X381.336 Y228.324 I1.166 J1.077 F1000
G1 Y231.085
X376.042
X373.792 Z-12
X370.616
X368.366 Z-16.5 F300
X362.546 F1000
Y224.669
Y222.419 Z-12
Y219.245
Y216.995 Z-16.5 F300
Y208.658 F1000
X367.379
X369.629 Z-12
X372.803
X375.053 Z-16.5 F300
X381.336 F1000
Y210.57
G2 X382.923 Y212.158 I1.587 J0
G1 X384.734
Y215.533
Y217.783 Z-12
Y220.958
Y223.208 Z-16.5 F300
Y226.736 F1000
X382.923
G2 X381.757 Y227.247 I0 J1.588
G3 X381.308 Y227.265 I-0.233 J-0.215 F600
G1 X381.075 Y227.049
X381.023 Y227.001 Z-16.492
X380.974 Y226.956 Z-16.469
X380.929 Y226.915 Z-16.431
X380.893 Y226.881 Z-16.38
X380.865 Y226.855 Z-16.32
X380.847 Y226.839 Z-16.253
X380.842 Y226.834 Z-16.183
Z-12.5
Z5
G0 X381.272 Y226.367
G1 Z-14 F300
Z-17.683
X381.278 Y226.373 Z-17.753 F600
X381.296 Y226.389 Z-17.82
X381.323 Y226.414 Z-17.88
X381.36 Y226.449 Z-17.931
X381.405 Y226.489 Z-17.969
X381.454 Y226.535 Z-17.992
X381.506 Y226.583 Z-18
X381.739 Y226.798
G3 X381.757 Y227.247 I-0.215 J0.233
G2 X381.336 Y228.324 I1.166 J1.077 F1000
G1 Y231.085
X376.792
X373.792 Z-12
X370.616
X367.616 Z-18 F300
X362.546 F1000
Y225.419
Y222.419 Z-12
Y219.245
Y216.245 Z-18 F300
Y208.658 F1000
X366.629
X369.629 Z-12
X372.803
X375.803 Z-18 F300
X381.336 F1000
Y210.57
G2 X382.923 Y212.158 I1.587 J0
G1 X384.734
Y214.783
Y217.783 Z-12
Y220.958
Y223.958 Z-18 F300
Y226.736 F1000
X382.923
G2 X381.757 Y227.247 I0 J1.588
G3 X381.308 Y227.265 I-0.233 J-0.215 F600
G1 X381.075 Y227.049
X381.023 Y227.001 Z-17.992
X380.974 Y226.956 Z-17.969
X380.929 Y226.915 Z-17.931
X380.893 Y226.881 Z-17.88
X380.865 Y226.855 Z-17.82
X380.847 Y226.839 Z-17.753
X380.842 Y226.834 Z-17.683
Z-14
Z5
G0 X397.496 Y227.802
G1 Z2.5 F300
Z-1.183
X397.504 Y227.801 Z-1.253 F600
X397.527 Y227.796 Z-1.32
X397.564 Y227.787 Z-1.38
X397.613 Y227.777 Z-1.431
X397.672 Y227.763 Z-1.469
X397.737 Y227.749 Z-1.492
X397.806 Y227.734 Z-1.5
X398.116 Y227.665
G3 X398.495 Y227.906 I0.069 J0.31
G2 X400.045 Y229.15 I1.55 J-0.343 F1000
G1 X415.1
Y230.908
X393.618
Y209.195
X415.1
Y210.411
X400.045
G2 X398.457 Y211.999 I0 J1.587
G1 Y217.624
G2 X400.045 Y219.212 I1.588 J0
G1 X411.478
Y220.042
X400.045
G2 X398.457 Y221.63 I0 J1.588
G1 Y227.563
G2 X398.495 Y227.906 I1.588 J0
G3 X398.254 Y228.285 I-0.31 J0.069 F600
G1 X397.944 Y228.354
X397.875 Y228.369 Z-1.492
X397.809 Y228.383 Z-1.469
X397.751 Y228.396 Z-1.431
X397.701 Y228.407 Z-1.38
X397.664 Y228.416 Z-1.32
X397.642 Y228.421 Z-1.253
X397.634 Y228.422 Z-1.183
Z2.5
Z5
G0 X397.496 Y227.802
G1 Z1 F300
Z-2.683
X397.504 Y227.801 Z-2.753 F600
X397.527 Y227.796 Z-2.82
X397.564 Y227.787 Z-2.88
X397.613 Y227.777 Z-2.931
X397.672 Y227.763 Z-2.969
X397.737 Y227.749 Z-2.992
X397.806 Y227.734 Z-3
X398.116 Y227.665
G3 X398.495 Y227.906 I0.069 J0.31
G2 X400.045 Y229.15 I1.55 J-0.343 F1000
G1 X415.1
Y230.908
X393.618
Y209.195
X415.1
Y210.411
X400.045
G2 X398.457 Y211.999 I0 J1.587
G1 Y217.624
G2 X400.045 Y219.212 I1.588 J0
G1 X411.478
Y220.042
X400.045
G2 X398.457 Y221.63 I0 J1.588
G1 Y227.563
G2 X398.495 Y227.906 I1.588 J0
G3 X398.254 Y228.285 I-0.31 J0.069 F600
G1 X397.944 Y228.354
X397.875 Y228.369 Z-2.992
X397.809 Y228.383 Z-2.969
X397.751 Y228.396 Z-2.931
X397.701 Y228.407 Z-2.88
X397.664 Y228.416 Z-2.82
X397.642 Y228.421 Z-2.753
X397.634 Y228.422 Z-2.683
Z1
Z5
G0 X397.496 Y227.802
G1 Z-0.5 F300
Z-4.183
X397.504 Y227.801 Z-4.253 F600
X397.527 Y227.796 Z-4.32
X397.564 Y227.787 Z-4.38
X397.613 Y227.777 Z-4.431
X397.672 Y227.763 Z-4.469
X397.737 Y227.749 Z-4.492
X397.806 Y227.734 Z-4.5
X398.116 Y227.665
G3 X398.495 Y227.906 I0.069 J0.31
G2 X400.045 Y229.15 I1.55 J-0.343 F1000
G1 X415.1
Y230.908
X393.618
Y209.195
X415.1
Y210.411
X400.045
G2 X398.457 Y211.999 I0 J1.587
G1 Y217.624
G2 X400.045 Y219.212 I1.588 J0
G1 X411.478
Y220.042
X400.045
G2 X398.457 Y221.63 I0 J1.588
G1 Y227.563
G2 X398.495 Y227.906 I1.588 J0
G3 X398.254 Y228.285 I-0.31 J0.069 F600
G1 X397.944 Y228.354
X397.875 Y228.369 Z-4.492
X397.809 Y228.383 Z-4.469
X397.751 Y228.396 Z-4.431
X397.701 Y228.407 Z-4.38
X397.664 Y228.416 Z-4.32
X397.642 Y228.421 Z-4.253
X397.634 Y228.422 Z-4.183
Z-0.5
Z5
G0 X397.496 Y227.802
G1 Z-2 F300
Z-5.683
X397.504 Y227.801 Z-5.753 F600
X397.527 Y227.796 Z-5.82
X397.564 Y227.787 Z-5.88
X397.613 Y227.777 Z-5.931
X397.672 Y227.763 Z-5.969
X397.737 Y227.749 Z-5.992
X397.806 Y227.734 Z-6
X398.116 Y227.665
G3 X398.495 Y227.906 I0.069 J0.31
G2 X400.045 Y229.15 I1.55 J-0.343 F1000
G1 X415.1
Y230.908
X393.618
Y209.195
X415.1
Y210.411
X400.045
G2 X398.457 Y211.999 I0 J1.587
G1 Y217.624
G2 X400.045 Y219.212 I1.588 J0
G1 X411.478
Y220.042
X400.045
G2 X398.457 Y221.63 I0 J1.588
G1 Y227.563
G2 X398.495 Y227.906 I1.588 J0
G3 X398.254 Y228.285 I-0.31 J0.069 F600
G1 X397.944 Y228.354
X397.875 Y228.369 Z-5.992
X397.809 Y228.383 Z-5.969
X397.751 Y228.396 Z-5.931
X397.701 Y228.407 Z-5.88
X397.664 Y228.416 Z-5.82
X397.642 Y228.421 Z-5.753
X397.634 Y228.422 Z-5.683
Z-2
Z5
G0 X397.496 Y227.802
G1 Z-3.5 F300
Z-7.183
X397.504 Y227.801 Z-7.253 F600
X397.527 Y227.796 Z-7.32
X397.564 Y227.787 Z-7.38
X397.613 Y227.777 Z-7.431
X397.672 Y227.763 Z-7.469
X397.737 Y227.749 Z-7.492
X397.806 Y227.734 Z-7.5
X398.116 Y227.665
G3 X398.495 Y227.906 I0.069 J0.31
G2 X400.045 Y229.15 I1.55 J-0.343 F1000
G1 X415.1
Y230.908
X393.618
Y209.195
X415.1
Y210.411
X400.045
G2 X398.457 Y211.999 I0 J1.587
G1 Y217.624
G2 X400.045 Y219.212 I1.588 J0
G1 X411.478
Y220.042
X400.045
G2 X398.457 Y221.63 I0 J1.588
G1 Y227.563
G2 X398.495 Y227.906 I1.588 J0
G3 X398.254 Y228.285 I-0.31 J0.069 F600
G1 X397.944 Y228.354
X397.875 Y228.369 Z-7.492
X397.809 Y228.383 Z-7.469
X397.751 Y228.396 Z-7.431
X397.701 Y228.407 Z-7.38
X397.664 Y228.416 Z-7.32
X397.642 Y228.421 Z-7.253
X397.634 Y228.422 Z-7.183
Z-3.5
Z5
G0 X397.496 Y227.802
G1 Z-5 F300
Z-8.683
X397.504 Y227.801 Z-8.753 F600
X397.527 Y227.796 Z-8.82
X397.564 Y227.787 Z-8.88
X397.613 Y227.777 Z-8.931
X397.672 Y227.763 Z-8.969
X397.737 Y227.749 Z-8.992
X397.806 Y227.734 Z-9
X398.116 Y227.665
G3 X398.495 Y227.906 I0.069 J0.31
G2 X400.045 Y229.15 I1.55 J-0.343 F1000
G1 X415.1
Y230.908
X393.618
Y209.195
X415.1
Y210.411
X400.045
G2 X398.457 Y211.999 I0 J1.587
G1 Y217.624
G2 X400.045 Y219.212 I1.588 J0
G1 X411.478
Y220.042
X400.045
G2 X398.457 Y221.63 I0 J1.588
G1 Y227.563
G2 X398.495 Y227.906 I1.588 J0
G3 X398.254 Y228.285 I-0.31 J0.069 F600
G1 X397.944 Y228.354
X397.875 Y228.369 Z-8.992
X397.809 Y228.383 Z-8.969
X397.751 Y228.396 Z-8.931
X397.701 Y228.407 Z-8.88
X397.664 Y228.416 Z-8.82
X397.642 Y228.421 Z-8.753
X397.634 Y228.422 Z-8.683
Z-5
Z5
G0 X397.496 Y227.802
G1 Z-6.5 F300
Z-10.183
X397.504 Y227.801 Z-10.253 F600
X397.527 Y227.796 Z-10.32
X397.564 Y227.787 Z-10.38
X397.613 Y227.777 Z-10.431
X397.672 Y227.763 Z-10.469
X397.737 Y227.749 Z-10.492
X397.806 Y227.734 Z-10.5
X398.116 Y227.665
G3 X398.495 Y227.906 I0.069 J0.31
G2 X400.045 Y229.15 I1.55 J-0.343 F1000
G1 X415.1
Y230.908
X393.618
Y209.195
X415.1
Y210.411
X400.045
G2 X398.457 Y211.999 I0 J1.587
G1 Y217.624
G2 X400.045 Y219.212 I1.588 J0
G1 X411.478
Y220.042
X400.045
G2 X398.457 Y221.63 I0 J1.588
G1 Y227.563
G2 X398.495 Y227.906 I1.588 J0
G3 X398.254 Y228.285 I-0.31 J0.069 F600
G1 X397.944 Y228.354
X397.875 Y228.369 Z-10.492
X397.809 Y228.383 Z-10.469
X397.751 Y228.396 Z-10.431
X397.701 Y228.407 Z-10.38
X397.664 Y228.416 Z-10.32
X397.642 Y228.421 Z-10.253
X397.634 Y228.422 Z-10.183
Z-6.5
Z5
G0 X397.496 Y227.802
G1 Z-8 F300
Z-11.683
X397.504 Y227.801 Z-11.753 F600
X397.527 Y227.796 Z-11.82
X397.564 Y227.787 Z-11.88
X397.613 Y227.777 Z-11.931
X397.672 Y227.763 Z-11.969
X397.737 Y227.749 Z-11.992
X397.806 Y227.734 Z-12
X398.116 Y227.665
G3 X398.495 Y227.906 I0.069 J0.31
G2 X400.045 Y229.15 I1.55 J-0.343 F1000
G1 X415.1
Y230.908
X393.618
Y209.195
X415.1
Y210.411
X400.045
G2 X398.457 Y211.999 I0 J1.587
G1 Y217.624
G2 X400.045 Y219.212 I1.588 J0
G1 X411.478
Y220.042
X400.045
G2 X398.457 Y221.63 I0 J1.588
G1 Y227.563
G2 X398.495 Y227.906 I1.588 J0
G3 X398.254 Y228.285 I-0.31 J0.069 F600
G1 X397.944 Y228.354
X397.875 Y228.369 Z-11.992
X397.809 Y228.383 Z-11.969
X397.751 Y228.396 Z-11.931
X397.701 Y228.407 Z-11.88
X397.664 Y228.416 Z-11.82
X397.642 Y228.421 Z-11.753
X397.634 Y228.422 Z-11.683
Z-8
Z5
G0 X397.496 Y227.802
G1 Z-9.5 F300
Z-13.183
X397.504 Y227.801 Z-13.253 F600
X397.527 Y227.796 Z-13.32
X397.564 Y227.787 Z-13.38
X397.613 Y227.777 Z-13.431
X397.672 Y227.763 Z-13.469
X397.737 Y227.749 Z-13.492
X397.806 Y227.734 Z-13.5
X398.116 Y227.665
G3 X398.495 Y227.906 I0.069 J0.31
G2 X400.045 Y229.15 I1.55 J-0.343 F1000
G1 X415.1
Y230.908
X407.211
X406.461 Z-12
X403.286
X402.536 Z-13.5 F300
X393.618 F1000
Y222.529
Y221.779 Z-12
Y218.605
Y217.855 Z-13.5 F300
Y209.195 F1000
X401.684
X402.434 Z-12
X405.608
X406.358 Z-13.5 F300
X415.1 F1000
Y210.411
X400.045
G2 X398.457 Y211.999 I0 J1.587
G1 Y217.624
G2 X400.045 Y219.212 I1.588 J0
G1 X411.478
Y220.042
X400.045
G2 X398.457 Y221.63 I0 J1.588
G1 Y227.563
G2 X398.495 Y227.906 I1.588 J0
G3 X398.254 Y228.285 I-0.31 J0.069 F600
G1 X397.944 Y228.354
X397.875 Y228.369 Z-13.492
X397.809 Y228.383 Z-13.469
X397.751 Y228.396 Z-13.431
X397.701 Y228.407 Z-13.38
X397.664 Y228.416 Z-13.32
X397.642 Y228.421 Z-13.253
X397.634 Y228.422 Z-13.183
Z-9.5
Z5
G0 X397.496 Y227.802
G1 Z-11 F300
Z-14.683
X397.504 Y227.801 Z-14.753 F600
X397.527 Y227.796 Z-14.82
X397.564 Y227.787 Z-14.88
X397.613 Y227.777 Z-14.931
X397.672 Y227.763 Z-14.969
X397.737 Y227.749 Z-14.992
X397.806 Y227.734 Z-15
X398.116 Y227.665
G3 X398.495 Y227.906 I0.069 J0.31
G2 X400.045 Y229.15 I1.55 J-0.343 F1000
G1 X415.1
Y230.908
X407.961
X406.461 Z-12
X403.286
X401.786 Z-15 F300
X393.618 F1000
Y223.279
Y221.779 Z-12
Y218.605
Y217.105 Z-15 F300
Y209.195 F1000
X400.934
X402.434 Z-12
X405.608
X407.108 Z-15 F300
X415.1 F1000
Y210.411
X400.045
G2 X398.457 Y211.999 I0 J1.587
G1 Y217.624
G2 X400.045 Y219.212 I1.588 J0
G1 X411.478
Y220.042
X400.045
G2 X398.457 Y221.63 I0 J1.588
G1 Y227.563
G2 X398.495 Y227.906 I1.588 J0
G3 X398.254 Y228.285 I-0.31 J0.069 F600
G1 X397.944 Y228.354
X397.875 Y228.369 Z-14.992
X397.809 Y228.383 Z-14.969
X397.751 Y228.396 Z-14.931
X397.701 Y228.407 Z-14.88
X397.664 Y228.416 Z-14.82
X397.642 Y228.421 Z-14.753
X397.634 Y228.422 Z-14.683
Z-11
Z5
G0 X397.496 Y227.802
G1 Z-12.5 F300
Z-16.183
X397.504 Y227.801 Z-16.253 F600
X397.527 Y227.796 Z-16.32
X397.564 Y227.787 Z-16.38
X397.613 Y227.777 Z-16.431
X397.672 Y227.763 Z-16.469
X397.737 Y227.749 Z-16.492
X397.806 Y227.734 Z-16.5
X398.116 Y227.665
G3 X398.495 Y227.906 I0.069 J0.31
G2 X400.045 Y229.15 I1.55 J-0.343 F1000
G1 X415.1
Y230.908
X408.711
X406.461 Z-12
X403.286
X401.036 Z-16.5 F300
X393.618 F1000
Y224.029
Y221.779 Z-12
Y218.605
Y216.355 Z-16.5 F300
Y209.195 F1000
X400.184
X402.434 Z-12
X405.608
X407.858 Z-16.5 F300
X415.1 F1000
Y210.411
X400.045
G2 X398.457 Y211.999 I0 J1.587
G1 Y217.624
G2 X400.045 Y219.212 I1.588 J0
G1 X411.478
Y220.042
X400.045
G2 X398.457 Y221.63 I0 J1.588
G1 Y227.563
G2 X398.495 Y227.906 I1.588 J0
G3 X398.254 Y228.285 I-0.31 J0.069 F600
G1 X397.944 Y228.354
X397.875 Y228.369 Z-16.492
X397.809 Y228.383 Z-16.469
X397.751 Y228.396 Z-16.431
X397.701 Y228.407 Z-16.38
X397.664 Y228.416 Z-16.32
X397.642 Y228.421 Z-16.253
X397.634 Y228.422 Z-16.183
Z-12.5
Z5
G0 X397.496 Y227.802
G1 Z-14 F300
Z-17.683
X397.504 Y227.801 Z-17.753 F600
X397.527 Y227.796 Z-17.82
X397.564 Y227.787 Z-17.88
X397.613 Y227.777 Z-17.931
X397.672 Y227.763 Z-17.969
X397.737 Y227.749 Z-17.992
X397.806 Y227.734 Z-18
X398.116 Y227.665
G3 X398.495 Y227.906 I0.069 J0.31
G2 X400.045 Y229.15 I1.55 J-0.343 F1000
G1 X415.1
Y230.908
X409.461
X406.461 Z-12
X403.286
X400.286 Z-18 F300
X393.618 F1000
Y224.779
Y221.779 Z-12
Y218.605
Y215.605 Z-18 F300
Y209.195 F1000
X399.434
X402.434 Z-12
X405.608
X408.608 Z-18 F300
X415.1 F1000
Y210.411
X408.608
X400.045 Z-16.777
G2 X399.691 Y210.451 Z-17.484 I0 J1.587 F300
X399.434 Y210.534 Z-18 I0.354 J1.548
X398.457 Y211.999 I0.612 J1.465 F1000
G1 Y217.624
G2 X400.045 Y219.212 I1.588 J0
G1 X411.478
Y220.042
X400.045
G2 X398.457 Y221.63 I0 J1.588
G1 Y227.563
G2 X398.495 Y227.906 I1.588 J0
G3 X398.254 Y228.285 I-0.31 J0.069 F600
G1 X397.944 Y228.354
X397.875 Y228.369 Z-17.992
X397.809 Y228.383 Z-17.969
X397.751 Y228.396 Z-17.931
X397.701 Y228.407 Z-17.88
X397.664 Y228.416 Z-17.82
X397.642 Y228.421 Z-17.753
X397.634 Y228.422 Z-17.683
Z5
G0 Z15
G0 X0 Y0
G90
M5
M30
