(Plaque1)
(T1  D=3.175 CR=0 - ZMIN=-18 - fraise deux tailles)
G90 G94
G17
G21
G28 G91 Z0
G90

(Contour 2D7)
T1
S99999 M3
G54
G0 X328.96 Y1494.182
Z15
Z5
G1 Z2.5 F300
Z-1.183
G18 G2 X329.277 Z-1.5 I0.318 K0 F600
G1 X329.595
G17 G3 X329.913 Y1494.5 I0 J0.318
G1 Y1503.5 F1000
G3 X326.5 Y1506.912 I-3.413 J0
G1 X282.5
G3 X279.087 Y1503.5 I0 J-3.412
G1 Y1485.5
G3 X282.5 Y1482.088 I3.413 J0
G1 X326.5
G3 X329.913 Y1485.5 I0 J3.412
G1 Y1494.5
G3 X329.595 Y1494.818 I-0.318 J0 F600
G1 X329.277
G18 G3 X328.96 Z-1.183 I0 K0.317
G1 Z2.5
Z5
G0 Y1494.182
G1 Z1 F300
Z-2.683
G2 X329.277 Z-3 I0.318 K0 F600
G1 X329.595
G17 G3 X329.913 Y1494.5 I0 J0.318
G1 Y1503.5 F1000
G3 X326.5 Y1506.912 I-3.413 J0
G1 X282.5
G3 X279.087 Y1503.5 I0 J-3.412
G1 Y1485.5
G3 X282.5 Y1482.088 I3.413 J0
G1 X326.5
G3 X329.913 Y1485.5 I0 J3.412
G1 Y1494.5
G3 X329.595 Y1494.818 I-0.318 J0 F600
G1 X329.277
G18 G3 X328.96 Z-2.683 I0 K0.318
G1 Z1
Z5
G0 Y1494.182
G1 Z-0.5 F300
Z-4.183
G2 X329.277 Z-4.5 I0.318 K0 F600
G1 X329.595
G17 G3 X329.913 Y1494.5 I0 J0.318
G1 Y1503.5 F1000
G3 X326.5 Y1506.912 I-3.413 J0
G1 X282.5
G3 X279.087 Y1503.5 I0 J-3.412
G1 Y1485.5
G3 X282.5 Y1482.088 I3.413 J0
G1 X326.5
G3 X329.913 Y1485.5 I0 J3.412
G1 Y1494.5
G3 X329.595 Y1494.818 I-0.318 J0 F600
G1 X329.277
G18 G3 X328.96 Z-4.183 I0 K0.318
G1 Z-0.5
Z5
G0 Y1494.182
G1 Z-2 F300
Z-5.683
G2 X329.277 Z-6 I0.318 K0 F600
G1 X329.595
G17 G3 X329.913 Y1494.5 I0 J0.318
G1 Y1503.5 F1000
G3 X326.5 Y1506.912 I-3.413 J0
G1 X282.5
G3 X279.087 Y1503.5 I0 J-3.412
G1 Y1485.5
G3 X282.5 Y1482.088 I3.413 J0
G1 X326.5
G3 X329.913 Y1485.5 I0 J3.412
G1 Y1494.5
G3 X329.595 Y1494.818 I-0.318 J0 F600
G1 X329.277
G18 G3 X328.96 Z-5.683 I0 K0.318
G1 Z-2
Z5
G0 Y1494.182
G1 Z-3.5 F300
Z-7.183
G2 X329.277 Z-7.5 I0.318 K0 F600
G1 X329.595
G17 G3 X329.913 Y1494.5 I0 J0.318
G1 Y1503.5 F1000
G3 X326.5 Y1506.912 I-3.413 J0
G1 X282.5
G3 X279.087 Y1503.5 I0 J-3.412
G1 Y1485.5
G3 X282.5 Y1482.088 I3.413 J0
G1 X326.5
G3 X329.913 Y1485.5 I0 J3.412
G1 Y1494.5
G3 X329.595 Y1494.818 I-0.318 J0 F600
G1 X329.277
G18 G3 X328.96 Z-7.183 I0 K0.318
G1 Z-3.5
Z5
G0 Y1494.182
G1 Z-5 F300
Z-8.683
G2 X329.277 Z-9 I0.318 K0 F600
G1 X329.595
G17 G3 X329.913 Y1494.5 I0 J0.318
G1 Y1503.5 F1000
G3 X326.5 Y1506.912 I-3.413 J0
G1 X282.5
G3 X279.087 Y1503.5 I0 J-3.412
G1 Y1485.5
G3 X282.5 Y1482.088 I3.413 J0
G1 X326.5
G3 X329.913 Y1485.5 I0 J3.412
G1 Y1494.5
G3 X329.595 Y1494.818 I-0.318 J0 F600
G1 X329.277
G18 G3 X328.96 Z-8.683 I0 K0.318
G1 Z-5
Z5
G0 Y1494.182
G1 Z-6.5 F300
Z-10.183
G2 X329.277 Z-10.5 I0.318 K0 F600
G1 X329.595
G17 G3 X329.913 Y1494.5 I0 J0.318
G1 Y1503.5 F1000
G3 X326.5 Y1506.912 I-3.413 J0
G1 X282.5
G3 X279.087 Y1503.5 I0 J-3.412
G1 Y1485.5
G3 X282.5 Y1482.088 I3.413 J0
G1 X326.5
G3 X329.913 Y1485.5 I0 J3.412
G1 Y1494.5
G3 X329.595 Y1494.818 I-0.318 J0 F600
G1 X329.277
G18 G3 X328.96 Z-10.183 I0 K0.318
G1 Z-6.5
Z5
G0 Y1494.182
G1 Z-8 F300
Z-11.683
G2 X329.277 Z-12 I0.318 K0 F600
G1 X329.595
G17 G3 X329.913 Y1494.5 I0 J0.318
G1 Y1503.5 F1000
G3 X326.5 Y1506.912 I-3.413 J0
G1 X282.5
G3 X279.087 Y1503.5 I0 J-3.412
G1 Y1485.5
G3 X282.5 Y1482.088 I3.413 J0
G1 X326.5
G3 X329.913 Y1485.5 I0 J3.412
G1 Y1494.5
G3 X329.595 Y1494.818 I-0.318 J0 F600
G1 X329.277
G18 G3 X328.96 Z-11.683 I0 K0.318
G1 Z-8
Z5
G0 Y1494.182
G1 Z-9.5 F300
Z-13.183
G2 X329.277 Z-13.5 I0.318 K0 F600
G1 X329.595
G17 G3 X329.913 Y1494.5 I0 J0.318
G1 Y1503.5 F1000
G3 X326.5 Y1506.912 I-3.413 J0
G1 X306.837
X306.087 Z-12
X302.913
X302.163 Z-13.5 F300
X282.5 F1000
G3 X279.087 Y1503.5 I0 J-3.412
G1 Y1485.5
G3 X282.5 Y1482.088 I3.413 J0
G1 X302.163
X302.913 Z-12
X306.087
X306.837 Z-13.5 F300
X326.5 F1000
G3 X329.913 Y1485.5 I0 J3.412
G1 Y1494.5
G3 X329.595 Y1494.818 I-0.318 J0 F600
G1 X329.277
G18 G3 X328.96 Z-13.183 I0 K0.318
G1 Z-9.5
Z5
G0 Y1494.182
G1 Z-11 F300
Z-14.683
G2 X329.277 Z-15 I0.318 K0 F600
G1 X329.595
G17 G3 X329.913 Y1494.5 I0 J0.318
G1 Y1503.5 F1000
G3 X326.5 Y1506.912 I-3.413 J0
G1 X307.587
X306.087 Z-12
X302.913
X301.413 Z-15 F300
X282.5 F1000
G3 X279.087 Y1503.5 I0 J-3.412
G1 Y1485.5
G3 X282.5 Y1482.088 I3.413 J0
G1 X301.413
X302.913 Z-12
X306.087
X307.587 Z-15 F300
X326.5 F1000
G3 X329.913 Y1485.5 I0 J3.412
G1 Y1494.5
G3 X329.595 Y1494.818 I-0.318 J0 F600
G1 X329.277
G18 G3 X328.96 Z-14.683 I0 K0.318
G1 Z-11
Z5
G0 Y1494.182
G1 Z-12.5 F300
Z-16.183
G2 X329.277 Z-16.5 I0.318 K0 F600
G1 X329.595
G17 G3 X329.913 Y1494.5 I0 J0.318
G1 Y1503.5 F1000
G3 X326.5 Y1506.912 I-3.413 J0
G1 X308.337
X306.087 Z-12
X302.913
X300.663 Z-16.5 F300
X282.5 F1000
G3 X279.087 Y1503.5 I0 J-3.412
G1 Y1485.5
G3 X282.5 Y1482.088 I3.413 J0
G1 X300.663
X302.913 Z-12
X306.087
X308.337 Z-16.5 F300
X326.5 F1000
G3 X329.913 Y1485.5 I0 J3.412
G1 Y1494.5
G3 X329.595 Y1494.818 I-0.318 J0 F600
G1 X329.277
G18 G3 X328.96 Z-16.183 I0 K0.317
G1 Z-12.5
Z5
G0 Y1494.182
G1 Z-14 F300
Z-17.683
G2 X329.277 Z-18 I0.318 K0 F600
G1 X329.595
G17 G3 X329.913 Y1494.5 I0 J0.318
G1 Y1503.5 F1000
G3 X326.5 Y1506.912 I-3.413 J0
G1 X309.087
X306.087 Z-12
X302.913
X299.913 Z-18 F300
X282.5 F1000
G3 X279.087 Y1503.5 I0 J-3.412
G1 Y1485.5
G3 X282.5 Y1482.088 I3.413 J0
G1 X299.913
X302.913 Z-12
X306.087
X309.087 Z-18 F300
X326.5 F1000
G3 X329.913 Y1485.5 I0 J3.412
G1 Y1494.5
G3 X329.595 Y1494.818 I-0.318 J0 F600
G1 X329.277
G18 G3 X328.96 Z-17.683 I0 K0.317
G1 Z5
G0 Z15
G17

(Contour 2D7 2)
G0 X519.96 Y1494.182
Z15
Z5
G1 Z2.5 F300
Z-1.183
G18 G2 X520.278 Z-1.5 I0.318 K0 F600
G1 X520.595
G17 G3 X520.912 Y1494.5 I0 J0.318
G1 Y1503.5 F1000
G3 X517.5 Y1506.912 I-3.412 J0
G1 X473.5
G3 X470.087 Y1503.5 I0 J-3.412
G1 Y1485.5
G3 X473.5 Y1482.088 I3.413 J0
G1 X517.5
G3 X520.912 Y1485.5 I0 J3.412
G1 Y1494.5
G3 X520.595 Y1494.818 I-0.318 J0 F600
G1 X520.278
G18 G3 X519.96 Z-1.183 I0 K0.317
G1 Z2.5
Z5
G0 Y1494.182
G1 Z1 F300
Z-2.683
G2 X520.278 Z-3 I0.318 K0 F600
G1 X520.595
G17 G3 X520.912 Y1494.5 I0 J0.318
G1 Y1503.5 F1000
G3 X517.5 Y1506.912 I-3.412 J0
G1 X473.5
G3 X470.087 Y1503.5 I0 J-3.412
G1 Y1485.5
G3 X473.5 Y1482.088 I3.413 J0
G1 X517.5
G3 X520.912 Y1485.5 I0 J3.412
G1 Y1494.5
G3 X520.595 Y1494.818 I-0.318 J0 F600
G1 X520.278
G18 G3 X519.96 Z-2.683 I0 K0.318
G1 Z1
Z5
G0 Y1494.182
G1 Z-0.5 F300
Z-4.183
G2 X520.278 Z-4.5 I0.318 K0 F600
G1 X520.595
G17 G3 X520.912 Y1494.5 I0 J0.318
G1 Y1503.5 F1000
G3 X517.5 Y1506.912 I-3.412 J0
G1 X473.5
G3 X470.087 Y1503.5 I0 J-3.412
G1 Y1485.5
G3 X473.5 Y1482.088 I3.413 J0
G1 X517.5
G3 X520.912 Y1485.5 I0 J3.412
G1 Y1494.5
G3 X520.595 Y1494.818 I-0.318 J0 F600
G1 X520.278
G18 G3 X519.96 Z-4.183 I0 K0.318
G1 Z-0.5
Z5
G0 Y1494.182
G1 Z-2 F300
Z-5.683
G2 X520.278 Z-6 I0.318 K0 F600
G1 X520.595
G17 G3 X520.912 Y1494.5 I0 J0.318
G1 Y1503.5 F1000
G3 X517.5 Y1506.912 I-3.412 J0
G1 X473.5
G3 X470.087 Y1503.5 I0 J-3.412
G1 Y1485.5
G3 X473.5 Y1482.088 I3.413 J0
G1 X517.5
G3 X520.912 Y1485.5 I0 J3.412
G1 Y1494.5
G3 X520.595 Y1494.818 I-0.318 J0 F600
G1 X520.278
G18 G3 X519.96 Z-5.683 I0 K0.318
G1 Z-2
Z5
G0 Y1494.182
G1 Z-3.5 F300
Z-7.183
G2 X520.278 Z-7.5 I0.318 K0 F600
G1 X520.595
G17 G3 X520.912 Y1494.5 I0 J0.318
G1 Y1503.5 F1000
G3 X517.5 Y1506.912 I-3.412 J0
G1 X473.5
G3 X470.087 Y1503.5 I0 J-3.412
G1 Y1485.5
G3 X473.5 Y1482.088 I3.413 J0
G1 X517.5
G3 X520.912 Y1485.5 I0 J3.412
G1 Y1494.5
G3 X520.595 Y1494.818 I-0.318 J0 F600
G1 X520.278
G18 G3 X519.96 Z-7.183 I0 K0.318
G1 Z-3.5
Z5
G0 Y1494.182
G1 Z-5 F300
Z-8.683
G2 X520.278 Z-9 I0.318 K0 F600
G1 X520.595
G17 G3 X520.912 Y1494.5 I0 J0.318
G1 Y1503.5 F1000
G3 X517.5 Y1506.912 I-3.412 J0
G1 X473.5
G3 X470.087 Y1503.5 I0 J-3.412
G1 Y1485.5
G3 X473.5 Y1482.088 I3.413 J0
G1 X517.5
G3 X520.912 Y1485.5 I0 J3.412
G1 Y1494.5
G3 X520.595 Y1494.818 I-0.318 J0 F600
G1 X520.278
G18 G3 X519.96 Z-8.683 I0 K0.318
G1 Z-5
Z5
G0 Y1494.182
G1 Z-6.5 F300
Z-10.183
G2 X520.278 Z-10.5 I0.318 K0 F600
G1 X520.595
G17 G3 X520.912 Y1494.5 I0 J0.318
G1 Y1503.5 F1000
G3 X517.5 Y1506.912 I-3.412 J0
G1 X473.5
G3 X470.087 Y1503.5 I0 J-3.412
G1 Y1485.5
G3 X473.5 Y1482.088 I3.413 J0
G1 X517.5
G3 X520.912 Y1485.5 I0 J3.412
G1 Y1494.5
G3 X520.595 Y1494.818 I-0.318 J0 F600
G1 X520.278
G18 G3 X519.96 Z-10.183 I0 K0.318
G1 Z-6.5
Z5
G0 Y1494.182
G1 Z-8 F300
Z-11.683
G2 X520.278 Z-12 I0.318 K0 F600
G1 X520.595
G17 G3 X520.912 Y1494.5 I0 J0.318
G1 Y1503.5 F1000
G3 X517.5 Y1506.912 I-3.412 J0
G1 X473.5
G3 X470.087 Y1503.5 I0 J-3.412
G1 Y1485.5
G3 X473.5 Y1482.088 I3.413 J0
G1 X517.5
G3 X520.912 Y1485.5 I0 J3.412
G1 Y1494.5
G3 X520.595 Y1494.818 I-0.318 J0 F600
G1 X520.278
G18 G3 X519.96 Z-11.683 I0 K0.318
G1 Z-8
Z5
G0 Y1494.182
G1 Z-9.5 F300
Z-13.183
G2 X520.278 Z-13.5 I0.318 K0 F600
G1 X520.595
G17 G3 X520.912 Y1494.5 I0 J0.318
G1 Y1503.5 F1000
G3 X517.5 Y1506.912 I-3.412 J0
G1 X497.837
X497.087 Z-12
X493.913
X493.163 Z-13.5 F300
X473.5 F1000
G3 X470.087 Y1503.5 I0 J-3.412
G1 Y1485.5
G3 X473.5 Y1482.088 I3.413 J0
G1 X493.163
X493.913 Z-12
X497.087
X497.837 Z-13.5 F300
X517.5 F1000
G3 X520.912 Y1485.5 I0 J3.412
G1 Y1494.5
G3 X520.595 Y1494.818 I-0.318 J0 F600
G1 X520.278
G18 G3 X519.96 Z-13.183 I0 K0.318
G1 Z-9.5
Z5
G0 Y1494.182
G1 Z-11 F300
Z-14.683
G2 X520.278 Z-15 I0.318 K0 F600
G1 X520.595
G17 G3 X520.912 Y1494.5 I0 J0.318
G1 Y1503.5 F1000
G3 X517.5 Y1506.912 I-3.412 J0
G1 X498.587
X497.087 Z-12
X493.913
X492.413 Z-15 F300
X473.5 F1000
G3 X470.087 Y1503.5 I0 J-3.412
G1 Y1485.5
G3 X473.5 Y1482.088 I3.413 J0
G1 X492.413
X493.913 Z-12
X497.087
X498.587 Z-15 F300
X517.5 F1000
G3 X520.912 Y1485.5 I0 J3.412
G1 Y1494.5
G3 X520.595 Y1494.818 I-0.318 J0 F600
G1 X520.278
G18 G3 X519.96 Z-14.683 I0 K0.318
G1 Z-11
Z5
G0 Y1494.182
G1 Z-12.5 F300
Z-16.183
G2 X520.278 Z-16.5 I0.318 K0 F600
G1 X520.595
G17 G3 X520.912 Y1494.5 I0 J0.318
G1 Y1503.5 F1000
G3 X517.5 Y1506.912 I-3.412 J0
G1 X499.337
X497.087 Z-12
X493.913
X491.663 Z-16.5 F300
X473.5 F1000
G3 X470.087 Y1503.5 I0 J-3.412
G1 Y1485.5
G3 X473.5 Y1482.088 I3.413 J0
G1 X491.663
X493.913 Z-12
X497.087
X499.337 Z-16.5 F300
X517.5 F1000
G3 X520.912 Y1485.5 I0 J3.412
G1 Y1494.5
G3 X520.595 Y1494.818 I-0.318 J0 F600
G1 X520.278
G18 G3 X519.96 Z-16.183 I0 K0.317
G1 Z-12.5
Z5
G0 Y1494.182
G1 Z-14 F300
Z-17.683
G2 X520.278 Z-18 I0.318 K0 F600
G1 X520.595
G17 G3 X520.912 Y1494.5 I0 J0.318
G1 Y1503.5 F1000
G3 X517.5 Y1506.912 I-3.412 J0
G1 X500.087
X497.087 Z-12
X493.913
X490.913 Z-18 F300
X473.5 F1000
G3 X470.087 Y1503.5 I0 J-3.412
G1 Y1485.5
G3 X473.5 Y1482.088 I3.413 J0
G1 X490.913
X493.913 Z-12
X497.087
X500.087 Z-18 F300
X517.5 F1000
G3 X520.912 Y1485.5 I0 J3.412
G1 Y1494.5
G3 X520.595 Y1494.818 I-0.318 J0 F600
G1 X520.278
G18 G3 X519.96 Z-17.683 I0 K0.317
G1 Z5
G0 Z15
G17
G28 G91 Z0
G90
G28 G91 X0 Y0
G90
M5
M30
