(Plaque1)
(T1  D=3.175 CR=0 - ZMIN=-3 - fraise deux tailles)
G90 G94
G17
G21
G28 G91 Z0
G90

(Poche 2D1 3)
T1
S99999 M3
G54
G0 X289.054 Y1495.536
Z15
Z5
G1 Z2.817 F300
X289.039 Y1495.519 Z2.698
X288.995 Y1495.469 Z2.597
X288.934 Y1495.391 Z2.527
X288.868 Y1495.293 Z2.5
G3 X291.433 Y1493.707 Z2.335 I1.283 J-0.793
X288.868 Y1495.293 Z2.169 I-1.283 J0.793
X291.433 Y1493.707 Z2.004 I1.283 J-0.793
X288.868 Y1495.293 Z1.838 I-1.283 J0.793
X291.433 Y1493.707 Z1.673 I1.283 J-0.793
X288.868 Y1495.293 Z1.507 I-1.283 J0.793
X291.433 Y1493.707 Z1.342 I1.283 J-0.793
X288.868 Y1495.293 Z1.176 I-1.283 J0.793
X291.433 Y1493.707 Z1.011 I1.283 J-0.793
X288.868 Y1495.293 Z0.845 I-1.283 J0.793
X291.433 Y1493.707 Z0.68 I1.283 J-0.793
X288.868 Y1495.293 Z0.515 I-1.283 J0.793
X291.433 Y1493.707 Z0.349 I1.283 J-0.793
X288.868 Y1495.293 Z0.184 I-1.283 J0.793
X291.433 Y1493.707 Z0.018 I1.283 J-0.793
X288.868 Y1495.293 Z-0.147 I-1.283 J0.793
X291.433 Y1493.707 Z-0.313 I1.283 J-0.793
X288.868 Y1495.293 Z-0.478 I-1.283 J0.793
X291.433 Y1493.707 Z-0.644 I1.283 J-0.793
X288.868 Y1495.293 Z-0.809 I-1.283 J0.793
X291.433 Y1493.707 Z-0.974 I1.283 J-0.793
X288.868 Y1495.293 Z-1.14 I-1.283 J0.793
X291.433 Y1493.707 Z-1.305 I1.283 J-0.793
X288.868 Y1495.293 Z-1.471 I-1.283 J0.793
X288.642 Y1494.5 Z-1.5 I1.283 J-0.793
G1 Y1493.962 F1000
G3 X288.962 Y1493.642 I0.319 J0
G1 X320.038
G3 X320.358 Y1493.962 I0 J0.319
G1 Y1495.038
G3 X320.038 Y1495.358 I-0.319 J0
G1 X288.962
G3 X288.642 Y1495.038 I0 J-0.319
G1 Y1494.5
G2 X287.956 Y1493.224 I-1.529 J0
G3 X288.373 Y1491.838 I0.417 J-0.631
G1 X321.843
G3 X322.163 Y1492.157 I0 J0.319
G1 Y1496.843
G3 X321.843 Y1497.162 I-0.319 J0
G1 X287.157
G3 X286.837 Y1496.843 I0 J-0.319
G1 Y1492.157
G3 X287.157 Y1491.838 I0.319 J0
G1 X288.373
G2 X289.727 Y1490.935 I0 J-1.467
G3 X291.081 Y1490.032 I1.354 J0.564
G1 X323.648
G3 X323.967 Y1490.352 I0 J0.319
G1 Y1498.648
G3 X323.648 Y1498.968 I-0.319 J0
G1 X285.352
G3 X285.033 Y1498.648 I0 J-0.319
G1 Y1490.352
G3 X285.352 Y1490.032 I0.319 J0
G1 X291.081
G2 X292.435 Y1489.13 I0 J-1.467
G3 X293.788 Y1488.228 I1.354 J0.564
G1 X325.453
G3 X325.772 Y1488.547 I0 J0.319
G1 Y1500.453
G3 X325.453 Y1500.772 I-0.319 J0
G1 X283.547
G3 X283.228 Y1500.453 I0 J-0.319
G1 Y1488.547
G3 X283.547 Y1488.228 I0.319 J0
G1 X293.788
G2 X295.142 Y1487.325 I0 J-1.467
G3 X296.496 Y1486.422 I1.354 J0.564
G1 X327.258
G3 X327.578 Y1486.742 I0 J0.319
G1 Y1502.258
G3 X327.258 Y1502.578 I-0.319 J0
G1 X281.742
G3 X281.422 Y1502.258 I0 J-0.319
G1 Y1486.742
G3 X281.742 Y1486.422 I0.319 J0
G1 X296.496
G2 X297.85 Y1485.52 I0 J-1.467
G3 X299.203 Y1484.618 I1.354 J0.564
G1 X329.063
G3 X329.383 Y1484.937 I0 J0.319
G1 Y1504.063
G3 X329.063 Y1504.382 I-0.319 J0
G1 X279.937
G3 X279.617 Y1504.063 I0 J-0.319
G1 Y1484.937
G3 X279.937 Y1484.618 I0.319 J0
G1 X299.203
G2 X300.557 Y1483.715 I0 J-1.467
G3 X301.911 Y1482.813 I1.354 J0.564
G1 X330.868
G3 X331.188 Y1483.132 I0 J0.319
G1 Y1505.868
G3 X330.868 Y1506.188 I-0.319 J0
G1 X278.132
G3 X277.813 Y1505.868 I0 J-0.319
G1 Y1483.132
G3 X278.132 Y1482.813 I0.319 J0
G1 X301.911
G2 X303.265 Y1481.91 I0 J-1.467
G3 X304.618 Y1481.007 I1.354 J0.564
G1 X332.673
G3 X332.992 Y1481.327 I0 J0.319
G1 Y1507.673
G3 X332.673 Y1507.993 I-0.319 J0
G1 X276.327
G3 X276.008 Y1507.673 I0 J-0.319
G1 Y1481.327
G3 X276.327 Y1481.007 I0.319 J0
G1 X304.618
G2 X305.972 Y1480.105 I0 J-1.467
G3 X307.326 Y1479.203 I1.354 J0.564
G1 X334.478
G3 X334.797 Y1479.522 I0 J0.319
G1 Y1509.478
G3 X334.478 Y1509.797 I-0.319 J0
G1 X274.522
G3 X274.203 Y1509.478 I0 J-0.319
G1 Y1479.522
G3 X274.522 Y1479.203 I0.319 J0
G1 X307.326
G2 X308.646 Y1478.323 I0 J-1.43
G3 X309.966 Y1477.443 I1.32 J0.55
G1 X335
G3 X336.557 Y1479 I0 J1.557
G1 Y1510
G3 X335 Y1511.557 I-1.557 J0
G1 X274
G3 X272.443 Y1510 I0 J-1.557
G1 Y1479
G3 X274 Y1477.443 I1.557 J0
G1 X309.966
G2 X311.357 Y1476.515 I0 J-1.507
G3 X312.748 Y1475.588 I1.391 J0.58
G1 X335
G3 X338.413 Y1479 I0 J3.412
G1 Y1510
G3 X335 Y1513.412 I-3.413 J0
G1 X274
G3 X270.587 Y1510 I0 J-3.412
G1 Y1479
G3 X274 Y1475.588 I3.413 J0
G1 X312.748
X312.809 Y1475.593 Z-1.488 F600
X312.867 Y1475.61 Z-1.476
X312.913 Y1475.633 Z-1.441
X312.955 Y1475.664 Z-1.407
X313.002 Y1475.714 Z-1.304
X313.015 Y1475.733 Z-1.183
Z5
G0 X289.054 Y1495.536
G1 Z1.317 F300
X289.039 Y1495.519 Z1.198
X288.995 Y1495.469 Z1.097
X288.934 Y1495.391 Z1.027
X288.868 Y1495.293 Z1
G3 X291.433 Y1493.707 Z0.835 I1.283 J-0.793
X288.868 Y1495.293 Z0.669 I-1.283 J0.793
X291.433 Y1493.707 Z0.504 I1.283 J-0.793
X288.868 Y1495.293 Z0.338 I-1.283 J0.793
X291.433 Y1493.707 Z0.173 I1.283 J-0.793
X288.868 Y1495.293 Z0.007 I-1.283 J0.793
X291.433 Y1493.707 Z-0.158 I1.283 J-0.793
X288.868 Y1495.293 Z-0.324 I-1.283 J0.793
X291.433 Y1493.707 Z-0.489 I1.283 J-0.793
X288.868 Y1495.293 Z-0.655 I-1.283 J0.793
X291.433 Y1493.707 Z-0.82 I1.283 J-0.793
X288.868 Y1495.293 Z-0.985 I-1.283 J0.793
X291.433 Y1493.707 Z-1.151 I1.283 J-0.793
X288.868 Y1495.293 Z-1.316 I-1.283 J0.793
X291.433 Y1493.707 Z-1.482 I1.283 J-0.793
X288.868 Y1495.293 Z-1.647 I-1.283 J0.793
X291.433 Y1493.707 Z-1.813 I1.283 J-0.793
X288.868 Y1495.293 Z-1.978 I-1.283 J0.793
X291.433 Y1493.707 Z-2.144 I1.283 J-0.793
X288.868 Y1495.293 Z-2.309 I-1.283 J0.793
X291.433 Y1493.707 Z-2.474 I1.283 J-0.793
X288.868 Y1495.293 Z-2.64 I-1.283 J0.793
X291.433 Y1493.707 Z-2.805 I1.283 J-0.793
X288.868 Y1495.293 Z-2.971 I-1.283 J0.793
X288.642 Y1494.5 Z-3 I1.283 J-0.793
G1 Y1493.962 F1000
G3 X288.962 Y1493.642 I0.319 J0
G1 X320.038
G3 X320.358 Y1493.962 I0 J0.319
G1 Y1495.038
G3 X320.038 Y1495.358 I-0.319 J0
G1 X288.962
G3 X288.642 Y1495.038 I0 J-0.319
G1 Y1494.5
G2 X287.956 Y1493.224 I-1.529 J0
G3 X288.373 Y1491.838 I0.417 J-0.631
G1 X321.843
G3 X322.163 Y1492.157 I0 J0.319
G1 Y1496.843
G3 X321.843 Y1497.162 I-0.319 J0
G1 X287.157
G3 X286.837 Y1496.843 I0 J-0.319
G1 Y1492.157
G3 X287.157 Y1491.838 I0.319 J0
G1 X288.373
G2 X289.727 Y1490.935 I0 J-1.467
G3 X291.081 Y1490.032 I1.354 J0.564
G1 X323.648
G3 X323.967 Y1490.352 I0 J0.319
G1 Y1498.648
G3 X323.648 Y1498.968 I-0.319 J0
G1 X285.352
G3 X285.033 Y1498.648 I0 J-0.319
G1 Y1490.352
G3 X285.352 Y1490.032 I0.319 J0
G1 X291.081
G2 X292.435 Y1489.13 I0 J-1.467
G3 X293.788 Y1488.228 I1.354 J0.564
G1 X325.453
G3 X325.772 Y1488.547 I0 J0.319
G1 Y1500.453
G3 X325.453 Y1500.772 I-0.319 J0
G1 X283.547
G3 X283.228 Y1500.453 I0 J-0.319
G1 Y1488.547
G3 X283.547 Y1488.228 I0.319 J0
G1 X293.788
G2 X295.142 Y1487.325 I0 J-1.467
G3 X296.496 Y1486.422 I1.354 J0.564
G1 X327.258
G3 X327.578 Y1486.742 I0 J0.319
G1 Y1502.258
G3 X327.258 Y1502.578 I-0.319 J0
G1 X281.742
G3 X281.422 Y1502.258 I0 J-0.319
G1 Y1486.742
G3 X281.742 Y1486.422 I0.319 J0
G1 X296.496
G2 X297.85 Y1485.52 I0 J-1.467
G3 X299.203 Y1484.618 I1.354 J0.564
G1 X329.063
G3 X329.383 Y1484.937 I0 J0.319
G1 Y1504.063
G3 X329.063 Y1504.382 I-0.319 J0
G1 X279.937
G3 X279.617 Y1504.063 I0 J-0.319
G1 Y1484.937
G3 X279.937 Y1484.618 I0.319 J0
G1 X299.203
G2 X300.557 Y1483.715 I0 J-1.467
G3 X301.911 Y1482.813 I1.354 J0.564
G1 X330.868
G3 X331.188 Y1483.132 I0 J0.319
G1 Y1505.868
G3 X330.868 Y1506.188 I-0.319 J0
G1 X278.132
G3 X277.813 Y1505.868 I0 J-0.319
G1 Y1483.132
G3 X278.132 Y1482.813 I0.319 J0
G1 X301.911
G2 X303.265 Y1481.91 I0 J-1.467
G3 X304.618 Y1481.007 I1.354 J0.564
G1 X332.673
G3 X332.992 Y1481.327 I0 J0.319
G1 Y1507.673
G3 X332.673 Y1507.993 I-0.319 J0
G1 X276.327
G3 X276.008 Y1507.673 I0 J-0.319
G1 Y1481.327
G3 X276.327 Y1481.007 I0.319 J0
G1 X304.618
G2 X305.972 Y1480.105 I0 J-1.467
G3 X307.326 Y1479.203 I1.354 J0.564
G1 X334.478
G3 X334.797 Y1479.522 I0 J0.319
G1 Y1509.478
G3 X334.478 Y1509.797 I-0.319 J0
G1 X274.522
G3 X274.203 Y1509.478 I0 J-0.319
G1 Y1479.522
G3 X274.522 Y1479.203 I0.319 J0
G1 X307.326
G2 X308.646 Y1478.323 I0 J-1.43
G3 X309.966 Y1477.443 I1.32 J0.55
G1 X335
G3 X336.557 Y1479 I0 J1.557
G1 Y1510
G3 X335 Y1511.557 I-1.557 J0
G1 X274
G3 X272.443 Y1510 I0 J-1.557
G1 Y1479
G3 X274 Y1477.443 I1.557 J0
G1 X309.966
G2 X311.357 Y1476.515 I0 J-1.507
G3 X312.748 Y1475.588 I1.391 J0.58
G1 X335
G3 X338.413 Y1479 I0 J3.412
G1 Y1510
G3 X335 Y1513.412 I-3.413 J0
G1 X274
G3 X270.587 Y1510 I0 J-3.412
G1 Y1479
G3 X274 Y1475.588 I3.413 J0
G1 X312.748
X312.809 Y1475.593 Z-2.988 F600
X312.867 Y1475.61 Z-2.976
X312.913 Y1475.633 Z-2.941
X312.955 Y1475.664 Z-2.907
X313.002 Y1475.714 Z-2.804
X313.015 Y1475.733 Z-2.683
Z5
G0 Z15

(Poche 2D2 3)
X480.054 Y1495.536
Z15
Z5
G1 Z2.817 F300
X480.039 Y1495.519 Z2.698
X479.995 Y1495.469 Z2.597
X479.934 Y1495.391 Z2.527
X479.868 Y1495.293 Z2.5
G3 X482.433 Y1493.707 Z2.335 I1.283 J-0.793
X479.868 Y1495.293 Z2.169 I-1.283 J0.793
X482.433 Y1493.707 Z2.004 I1.283 J-0.793
X479.868 Y1495.293 Z1.838 I-1.283 J0.793
X482.433 Y1493.707 Z1.673 I1.283 J-0.793
X479.868 Y1495.293 Z1.507 I-1.283 J0.793
X482.433 Y1493.707 Z1.342 I1.283 J-0.793
X479.868 Y1495.293 Z1.176 I-1.283 J0.793
X482.433 Y1493.707 Z1.011 I1.283 J-0.793
X479.868 Y1495.293 Z0.845 I-1.283 J0.793
X482.433 Y1493.707 Z0.68 I1.283 J-0.793
X479.868 Y1495.293 Z0.515 I-1.283 J0.793
X482.433 Y1493.707 Z0.349 I1.283 J-0.793
X479.868 Y1495.293 Z0.184 I-1.283 J0.793
X482.433 Y1493.707 Z0.018 I1.283 J-0.793
X479.868 Y1495.293 Z-0.147 I-1.283 J0.793
X482.433 Y1493.707 Z-0.313 I1.283 J-0.793
X479.868 Y1495.293 Z-0.478 I-1.283 J0.793
X482.433 Y1493.707 Z-0.644 I1.283 J-0.793
X479.868 Y1495.293 Z-0.809 I-1.283 J0.793
X482.433 Y1493.707 Z-0.974 I1.283 J-0.793
X479.868 Y1495.293 Z-1.14 I-1.283 J0.793
X482.433 Y1493.707 Z-1.305 I1.283 J-0.793
X479.868 Y1495.293 Z-1.471 I-1.283 J0.793
X479.642 Y1494.5 Z-1.5 I1.283 J-0.793
G1 Y1493.962 F1000
G3 X479.962 Y1493.642 I0.319 J0
G1 X511.038
G3 X511.358 Y1493.962 I0 J0.319
G1 Y1495.038
G3 X511.038 Y1495.358 I-0.319 J0
G1 X479.962
G3 X479.642 Y1495.038 I0 J-0.319
G1 Y1494.5
G2 X478.956 Y1493.224 I-1.529 J0
G3 X479.373 Y1491.838 I0.417 J-0.631
G1 X512.843
G3 X513.162 Y1492.157 I0 J0.319
G1 Y1496.843
G3 X512.843 Y1497.162 I-0.319 J0
G1 X478.157
G3 X477.837 Y1496.843 I0 J-0.319
G1 Y1492.157
G3 X478.157 Y1491.838 I0.319 J0
G1 X479.373
G2 X480.727 Y1490.935 I0 J-1.467
G3 X482.081 Y1490.032 I1.354 J0.564
G1 X514.648
G3 X514.968 Y1490.352 I0 J0.319
G1 Y1498.648
G3 X514.648 Y1498.968 I-0.319 J0
G1 X476.352
G3 X476.033 Y1498.648 I0 J-0.319
G1 Y1490.352
G3 X476.352 Y1490.032 I0.319 J0
G1 X482.081
G2 X483.435 Y1489.13 I0 J-1.467
G3 X484.788 Y1488.228 I1.354 J0.564
G1 X516.453
G3 X516.773 Y1488.547 I0 J0.319
G1 Y1500.453
G3 X516.453 Y1500.772 I-0.319 J0
G1 X474.547
G3 X474.228 Y1500.453 I0 J-0.319
G1 Y1488.547
G3 X474.547 Y1488.228 I0.319 J0
G1 X484.788
G2 X486.142 Y1487.325 I0 J-1.467
G3 X487.496 Y1486.422 I1.354 J0.564
G1 X518.258
G3 X518.578 Y1486.742 I0 J0.319
G1 Y1502.258
G3 X518.258 Y1502.578 I-0.319 J0
G1 X472.742
G3 X472.422 Y1502.258 I0 J-0.319
G1 Y1486.742
G3 X472.742 Y1486.422 I0.319 J0
G1 X487.496
G2 X488.85 Y1485.52 I0 J-1.467
G3 X490.203 Y1484.618 I1.354 J0.564
G1 X520.063
G3 X520.383 Y1484.937 I0 J0.319
G1 Y1504.063
G3 X520.063 Y1504.382 I-0.319 J0
G1 X470.937
G3 X470.617 Y1504.063 I0 J-0.319
G1 Y1484.937
G3 X470.937 Y1484.618 I0.319 J0
G1 X490.203
G2 X491.557 Y1483.715 I0 J-1.467
G3 X492.911 Y1482.813 I1.354 J0.564
G1 X521.868
G3 X522.188 Y1483.132 I0 J0.319
G1 Y1505.868
G3 X521.868 Y1506.188 I-0.319 J0
G1 X469.132
G3 X468.813 Y1505.868 I0 J-0.319
G1 Y1483.132
G3 X469.132 Y1482.813 I0.319 J0
G1 X492.911
G2 X494.265 Y1481.91 I0 J-1.467
G3 X495.618 Y1481.007 I1.354 J0.564
G1 X523.673
G3 X523.992 Y1481.327 I0 J0.319
G1 Y1507.673
G3 X523.673 Y1507.993 I-0.319 J0
G1 X467.327
G3 X467.008 Y1507.673 I0 J-0.319
G1 Y1481.327
G3 X467.327 Y1481.007 I0.319 J0
G1 X495.618
G2 X496.972 Y1480.105 I0 J-1.467
G3 X498.326 Y1479.203 I1.354 J0.564
G1 X525.478
G3 X525.797 Y1479.522 I0 J0.319
G1 Y1509.478
G3 X525.478 Y1509.797 I-0.319 J0
G1 X465.522
G3 X465.203 Y1509.478 I0 J-0.319
G1 Y1479.522
G3 X465.522 Y1479.203 I0.319 J0
G1 X498.326
G2 X499.646 Y1478.323 I0 J-1.43
G3 X500.966 Y1477.443 I1.32 J0.55
G1 X526
G3 X527.557 Y1479 I0 J1.557
G1 Y1510
G3 X526 Y1511.557 I-1.557 J0
G1 X465
G3 X463.443 Y1510 I0 J-1.557
G1 Y1479
G3 X465 Y1477.443 I1.557 J0
G1 X500.966
G2 X502.357 Y1476.515 I0 J-1.507
G3 X503.748 Y1475.588 I1.391 J0.58
G1 X526
G3 X529.412 Y1479 I0 J3.412
G1 Y1510
G3 X526 Y1513.412 I-3.412 J0
G1 X465
G3 X461.587 Y1510 I0 J-3.412
G1 Y1479
G3 X465 Y1475.588 I3.413 J0
G1 X503.748
X503.809 Y1475.593 Z-1.488 F600
X503.867 Y1475.61 Z-1.476
X503.913 Y1475.633 Z-1.441
X503.955 Y1475.664 Z-1.407
X504.002 Y1475.714 Z-1.304
X504.015 Y1475.733 Z-1.183
Z5
G0 X480.054 Y1495.536
G1 Z1.317 F300
X480.039 Y1495.519 Z1.198
X479.995 Y1495.469 Z1.097
X479.934 Y1495.391 Z1.027
X479.868 Y1495.293 Z1
G3 X482.433 Y1493.707 Z0.835 I1.283 J-0.793
X479.868 Y1495.293 Z0.669 I-1.283 J0.793
X482.433 Y1493.707 Z0.504 I1.283 J-0.793
X479.868 Y1495.293 Z0.338 I-1.283 J0.793
X482.433 Y1493.707 Z0.173 I1.283 J-0.793
X479.868 Y1495.293 Z0.007 I-1.283 J0.793
X482.433 Y1493.707 Z-0.158 I1.283 J-0.793
X479.868 Y1495.293 Z-0.324 I-1.283 J0.793
X482.433 Y1493.707 Z-0.489 I1.283 J-0.793
X479.868 Y1495.293 Z-0.655 I-1.283 J0.793
X482.433 Y1493.707 Z-0.82 I1.283 J-0.793
X479.868 Y1495.293 Z-0.985 I-1.283 J0.793
X482.433 Y1493.707 Z-1.151 I1.283 J-0.793
X479.868 Y1495.293 Z-1.316 I-1.283 J0.793
X482.433 Y1493.707 Z-1.482 I1.283 J-0.793
X479.868 Y1495.293 Z-1.647 I-1.283 J0.793
X482.433 Y1493.707 Z-1.813 I1.283 J-0.793
X479.868 Y1495.293 Z-1.978 I-1.283 J0.793
X482.433 Y1493.707 Z-2.144 I1.283 J-0.793
X479.868 Y1495.293 Z-2.309 I-1.283 J0.793
X482.433 Y1493.707 Z-2.474 I1.283 J-0.793
X479.868 Y1495.293 Z-2.64 I-1.283 J0.793
X482.433 Y1493.707 Z-2.805 I1.283 J-0.793
X479.868 Y1495.293 Z-2.971 I-1.283 J0.793
X479.642 Y1494.5 Z-3 I1.283 J-0.793
G1 Y1493.962 F1000
G3 X479.962 Y1493.642 I0.319 J0
G1 X511.038
G3 X511.358 Y1493.962 I0 J0.319
G1 Y1495.038
G3 X511.038 Y1495.358 I-0.319 J0
G1 X479.962
G3 X479.642 Y1495.038 I0 J-0.319
G1 Y1494.5
G2 X478.956 Y1493.224 I-1.529 J0
G3 X479.373 Y1491.838 I0.417 J-0.631
G1 X512.843
G3 X513.162 Y1492.157 I0 J0.319
G1 Y1496.843
G3 X512.843 Y1497.162 I-0.319 J0
G1 X478.157
G3 X477.837 Y1496.843 I0 J-0.319
G1 Y1492.157
G3 X478.157 Y1491.838 I0.319 J0
G1 X479.373
G2 X480.727 Y1490.935 I0 J-1.467
G3 X482.081 Y1490.032 I1.354 J0.564
G1 X514.648
G3 X514.968 Y1490.352 I0 J0.319
G1 Y1498.648
G3 X514.648 Y1498.968 I-0.319 J0
G1 X476.352
G3 X476.033 Y1498.648 I0 J-0.319
G1 Y1490.352
G3 X476.352 Y1490.032 I0.319 J0
G1 X482.081
G2 X483.435 Y1489.13 I0 J-1.467
G3 X484.788 Y1488.228 I1.354 J0.564
G1 X516.453
G3 X516.773 Y1488.547 I0 J0.319
G1 Y1500.453
G3 X516.453 Y1500.772 I-0.319 J0
G1 X474.547
G3 X474.228 Y1500.453 I0 J-0.319
G1 Y1488.547
G3 X474.547 Y1488.228 I0.319 J0
G1 X484.788
G2 X486.142 Y1487.325 I0 J-1.467
G3 X487.496 Y1486.422 I1.354 J0.564
G1 X518.258
G3 X518.578 Y1486.742 I0 J0.319
G1 Y1502.258
G3 X518.258 Y1502.578 I-0.319 J0
G1 X472.742
G3 X472.422 Y1502.258 I0 J-0.319
G1 Y1486.742
G3 X472.742 Y1486.422 I0.319 J0
G1 X487.496
G2 X488.85 Y1485.52 I0 J-1.467
G3 X490.203 Y1484.618 I1.354 J0.564
G1 X520.063
G3 X520.383 Y1484.937 I0 J0.319
G1 Y1504.063
G3 X520.063 Y1504.382 I-0.319 J0
G1 X470.937
G3 X470.617 Y1504.063 I0 J-0.319
G1 Y1484.937
G3 X470.937 Y1484.618 I0.319 J0
G1 X490.203
G2 X491.557 Y1483.715 I0 J-1.467
G3 X492.911 Y1482.813 I1.354 J0.564
G1 X521.868
G3 X522.188 Y1483.132 I0 J0.319
G1 Y1505.868
G3 X521.868 Y1506.188 I-0.319 J0
G1 X469.132
G3 X468.813 Y1505.868 I0 J-0.319
G1 Y1483.132
G3 X469.132 Y1482.813 I0.319 J0
G1 X492.911
G2 X494.265 Y1481.91 I0 J-1.467
G3 X495.618 Y1481.007 I1.354 J0.564
G1 X523.673
G3 X523.992 Y1481.327 I0 J0.319
G1 Y1507.673
G3 X523.673 Y1507.993 I-0.319 J0
G1 X467.327
G3 X467.008 Y1507.673 I0 J-0.319
G1 Y1481.327
G3 X467.327 Y1481.007 I0.319 J0
G1 X495.618
G2 X496.972 Y1480.105 I0 J-1.467
G3 X498.326 Y1479.203 I1.354 J0.564
G1 X525.478
G3 X525.797 Y1479.522 I0 J0.319
G1 Y1509.478
G3 X525.478 Y1509.797 I-0.319 J0
G1 X465.522
G3 X465.203 Y1509.478 I0 J-0.319
G1 Y1479.522
G3 X465.522 Y1479.203 I0.319 J0
G1 X498.326
G2 X499.646 Y1478.323 I0 J-1.43
G3 X500.966 Y1477.443 I1.32 J0.55
G1 X526
G3 X527.557 Y1479 I0 J1.557
G1 Y1510
G3 X526 Y1511.557 I-1.557 J0
G1 X465
G3 X463.443 Y1510 I0 J-1.557
G1 Y1479
G3 X465 Y1477.443 I1.557 J0
G1 X500.966
G2 X502.357 Y1476.515 I0 J-1.507
G3 X503.748 Y1475.588 I1.391 J0.58
G1 X526
G3 X529.412 Y1479 I0 J3.412
G1 Y1510
G3 X526 Y1513.412 I-3.412 J0
G1 X465
G3 X461.587 Y1510 I0 J-3.412
G1 Y1479
G3 X465 Y1475.588 I3.413 J0
G1 X503.748
X503.809 Y1475.593 Z-2.988 F600
X503.867 Y1475.61 Z-2.976
X503.913 Y1475.633 Z-2.941
X503.955 Y1475.664 Z-2.907
X504.002 Y1475.714 Z-2.804
X504.015 Y1475.733 Z-2.683
Z5
G0 Z15
G28 G91 Z0
G90
G28 G91 X0 Y0
G90
M5
M30
