(GrandePlaqueV2)
(T1  D=3.175 CR=0 - ZMIN=-18 - fraise deux tailles)
G90 G94
G17
G21

(Contour 2D2 2)
S99999 M3
G54
G0 Z15
G0 X582.318 Y47.46
Z15
Z5
G1 Z2.5 F300
Z-1.183
G19 G3 Y47.778 Z-1.5 J0.318 K0 F600
G1 Y48.095
G17 G3 X582 Y48.412 I-0.318 J0
G1 X18 F1000
G2 X16.413 Y50 I0 J1.588
G1 Y150
G2 X18 Y151.587 I1.587 J0
G1 X582
G2 X583.588 Y150 I0 J-1.587
G1 Y50
G2 X582 Y48.412 I-1.588 J0
G3 X581.682 Y48.095 I0 J-0.317 F600
G1 Y47.778
G19 G2 Y47.46 Z-1.183 J0 K0.317
G1 Z2.5
Z5
G0 X582.318
G1 Z1 F300
Z-2.683
G3 Y47.778 Z-3 J0.318 K0 F600
G1 Y48.095
G17 G3 X582 Y48.412 I-0.318 J0
G1 X18 F1000
G2 X16.413 Y50 I0 J1.588
G1 Y150
G2 X18 Y151.587 I1.587 J0
G1 X582
G2 X583.588 Y150 I0 J-1.587
G1 Y50
G2 X582 Y48.412 I-1.588 J0
G3 X581.682 Y48.095 I0 J-0.317 F600
G1 Y47.778
G19 G2 Y47.46 Z-2.683 J0 K0.318
G1 Z1
Z5
G0 X582.318
G1 Z-0.5 F300
Z-4.183
G3 Y47.778 Z-4.5 J0.318 K0 F600
G1 Y48.095
G17 G3 X582 Y48.412 I-0.318 J0
G1 X18 F1000
G2 X16.413 Y50 I0 J1.588
G1 Y150
G2 X18 Y151.587 I1.587 J0
G1 X582
G2 X583.588 Y150 I0 J-1.587
G1 Y50
G2 X582 Y48.412 I-1.588 J0
G3 X581.682 Y48.095 I0 J-0.317 F600
G1 Y47.778
G19 G2 Y47.46 Z-4.183 J0 K0.318
G1 Z-0.5
Z5
G0 X582.318
G1 Z-2 F300
Z-5.683
G3 Y47.778 Z-6 J0.318 K0 F600
G1 Y48.095
G17 G3 X582 Y48.412 I-0.318 J0
G1 X18 F1000
G2 X16.413 Y50 I0 J1.588
G1 Y150
G2 X18 Y151.587 I1.587 J0
G1 X582
G2 X583.588 Y150 I0 J-1.587
G1 Y50
G2 X582 Y48.412 I-1.588 J0
G3 X581.682 Y48.095 I0 J-0.317 F600
G1 Y47.778
G19 G2 Y47.46 Z-5.683 J0 K0.318
G1 Z-2
Z5
G0 X582.318
G1 Z-3.5 F300
Z-7.183
G3 Y47.778 Z-7.5 J0.318 K0 F600
G1 Y48.095
G17 G3 X582 Y48.412 I-0.318 J0
G1 X18 F1000
G2 X16.413 Y50 I0 J1.588
G1 Y150
G2 X18 Y151.587 I1.587 J0
G1 X582
G2 X583.588 Y150 I0 J-1.587
G1 Y50
G2 X582 Y48.412 I-1.588 J0
G3 X581.682 Y48.095 I0 J-0.317 F600
G1 Y47.778
G19 G2 Y47.46 Z-7.183 J0 K0.318
G1 Z-3.5
Z5
G0 X582.318
G1 Z-5 F300
Z-8.683
G3 Y47.778 Z-9 J0.318 K0 F600
G1 Y48.095
G17 G3 X582 Y48.412 I-0.318 J0
G1 X18 F1000
G2 X16.413 Y50 I0 J1.588
G1 Y150
G2 X18 Y151.587 I1.587 J0
G1 X582
G2 X583.588 Y150 I0 J-1.587
G1 Y50
G2 X582 Y48.412 I-1.588 J0
G3 X581.682 Y48.095 I0 J-0.317 F600
G1 Y47.778
G19 G2 Y47.46 Z-8.683 J0 K0.318
G1 Z-5
Z5
G0 X582.318
G1 Z-6.5 F300
Z-10.183
G3 Y47.778 Z-10.5 J0.318 K0 F600
G1 Y48.095
G17 G3 X582 Y48.412 I-0.318 J0
G1 X18 F1000
G2 X16.413 Y50 I0 J1.588
G1 Y150
G2 X18 Y151.587 I1.587 J0
G1 X582
G2 X583.588 Y150 I0 J-1.587
G1 Y50
G2 X582 Y48.412 I-1.588 J0
G3 X581.682 Y48.095 I0 J-0.317 F600
G1 Y47.778
G19 G2 Y47.46 Z-10.183 J0 K0.318
G1 Z-6.5
Z5
G0 X582.318
G1 Z-8 F300
Z-11.683
G3 Y47.778 Z-12 J0.318 K0 F600
G1 Y48.095
G17 G3 X582 Y48.412 I-0.318 J0
G1 X18 F1000
G2 X16.413 Y50 I0 J1.588
G1 Y150
G2 X18 Y151.587 I1.587 J0
G1 X582
G2 X583.588 Y150 I0 J-1.587
G1 Y50
G2 X582 Y48.412 I-1.588 J0
G3 X581.682 Y48.095 I0 J-0.317 F600
G1 Y47.778
G19 G2 Y47.46 Z-11.683 J0 K0.318
G1 Z-8
Z5
G0 X582.318
G1 Z-9.5 F300
Z-13.183
G3 Y47.778 Z-13.5 J0.318 K0 F600
G1 Y48.095
G17 G3 X582 Y48.412 I-0.318 J0
G1 X490.337 F1000
X489.587 Z-12
X486.413
X485.663 Z-13.5 F300
X302.337 F1000
X301.587 Z-12
X298.413
X297.663 Z-13.5 F300
X114.338 F1000
X113.588 Z-12
X110.412
X109.662 Z-13.5 F300
X18 F1000
G2 X16.413 Y50 I0 J1.588
G1 Y150
G2 X18 Y151.587 I1.587 J0
G1 X109.662
X110.412 Z-12
X113.588
X114.338 Z-13.5 F300
X297.663 F1000
X298.413 Z-12
X301.587
X302.337 Z-13.5 F300
X485.663 F1000
X486.413 Z-12
X489.587
X490.337 Z-13.5 F300
X582 F1000
G2 X583.588 Y150 I0 J-1.587
G1 Y50
G2 X582 Y48.412 I-1.588 J0
G3 X581.682 Y48.095 I0 J-0.317 F600
G1 Y47.778
G19 G2 Y47.46 Z-13.183 J0 K0.318
G1 Z-9.5
Z5
G0 X582.318
G1 Z-11 F300
Z-14.683
G3 Y47.778 Z-15 J0.318 K0 F600
G1 Y48.095
G17 G3 X582 Y48.412 I-0.318 J0
G1 X491.087 F1000
X489.587 Z-12
X486.413
X484.913 Z-15 F300
X303.087 F1000
X301.587 Z-12
X298.413
X296.913 Z-15 F300
X115.088 F1000
X113.588 Z-12
X110.412
X108.912 Z-15 F300
X18 F1000
G2 X16.413 Y50 I0 J1.588
G1 Y150
G2 X18 Y151.587 I1.587 J0
G1 X108.912
X110.412 Z-12
X113.588
X115.088 Z-15 F300
X296.913 F1000
X298.413 Z-12
X301.587
X303.087 Z-15 F300
X484.913 F1000
X486.413 Z-12
X489.587
X491.087 Z-15 F300
X582 F1000
G2 X583.588 Y150 I0 J-1.587
G1 Y50
G2 X582 Y48.412 I-1.588 J0
G3 X581.682 Y48.095 I0 J-0.317 F600
G1 Y47.778
G19 G2 Y47.46 Z-14.683 J0 K0.318
G1 Z-11
Z5
G0 X582.318
G1 Z-12.5 F300
Z-16.183
G3 Y47.778 Z-16.5 J0.318 K0 F600
G1 Y48.095
G17 G3 X582 Y48.412 I-0.318 J0
G1 X491.837 F1000
X489.587 Z-12
X486.413
X484.163 Z-16.5 F300
X303.837 F1000
X301.587 Z-12
X298.413
X296.163 Z-16.5 F300
X115.838 F1000
X113.588 Z-12
X110.412
X108.162 Z-16.5 F300
X18 F1000
G2 X16.413 Y50 I0 J1.588
G1 Y150
G2 X18 Y151.587 I1.587 J0
G1 X108.162
X110.412 Z-12
X113.588
X115.838 Z-16.5 F300
X296.163 F1000
X298.413 Z-12
X301.587
X303.837 Z-16.5 F300
X484.163 F1000
X486.413 Z-12
X489.587
X491.837 Z-16.5 F300
X582 F1000
G2 X583.588 Y150 I0 J-1.587
G1 Y50
G2 X582 Y48.412 I-1.588 J0
G3 X581.682 Y48.095 I0 J-0.317 F600
G1 Y47.778
G19 G2 Y47.46 Z-16.183 J0 K0.317
G1 Z-12.5
Z5
G0 X582.318
G1 Z-14 F300
Z-17.683
G3 Y47.778 Z-18 J0.318 K0 F600
G1 Y48.095
G17 G3 X582 Y48.412 I-0.318 J0
G1 X492.587 F1000
X489.587 Z-12
X486.413
X483.413 Z-18 F300
X304.587 F1000
X301.587 Z-12
X298.413
X295.413 Z-18 F300
X116.588 F1000
X113.588 Z-12
X110.412
X107.412 Z-18 F300
X18 F1000
G2 X16.413 Y50 I0 J1.588
G1 Y150
G2 X18 Y151.587 I1.587 J0
G1 X107.412
X110.412 Z-12
X113.588
X116.588 Z-18 F300
X295.413 F1000
X298.413 Z-12
X301.587
X304.587 Z-18 F300
X483.413 F1000
X486.413 Z-12
X489.587
X492.587 Z-18 F300
X582 F1000
G2 X583.588 Y150 I0 J-1.587
G1 Y50
G2 X582 Y48.412 I-1.588 J0
G3 X581.682 Y48.095 I0 J-0.317 F600
G1 Y47.778
G19 G2 Y47.46 Z-17.683 J0 K0.317
G1 Z5
G0 Z15
G17
G0 X0 Y0
G90
M5
M30
