(GrandePlaqueV2)
(T1  D=3.175 CR=0 - ZMIN=-18 - fraise deux tailles)
G90 G94
G17
G21

(Contour 2D2 6)
S99999 M3
G54
G0 Z15
G0 X652.46 Y67.683
Z15
Z5
G1 Z2.5 F300
Z-1.183
G18 G2 X652.778 Z-1.5 I0.318 K0 F600
G1 X653.095
G17 G3 X653.412 Y68 I0 J0.317
G1 Y632 F1000
G2 X655 Y633.588 I1.588 J0
G1 X755
G2 X756.588 Y632 I0 J-1.588
G1 Y68
G2 X755 Y66.412 I-1.588 J0
G1 X655
G2 X653.412 Y68 I0 J1.588
G3 X653.095 Y68.317 I-0.318 J0 F600
G1 X652.778
G18 G3 X652.46 Z-1.183 I0 K0.317
G1 Z2.5
Z5
G0 Y67.683
G1 Z1 F300
Z-2.683
G2 X652.778 Z-3 I0.318 K0 F600
G1 X653.095
G17 G3 X653.412 Y68 I0 J0.317
G1 Y632 F1000
G2 X655 Y633.588 I1.588 J0
G1 X755
G2 X756.588 Y632 I0 J-1.588
G1 Y68
G2 X755 Y66.412 I-1.588 J0
G1 X655
G2 X653.412 Y68 I0 J1.588
G3 X653.095 Y68.317 I-0.318 J0 F600
G1 X652.778
G18 G3 X652.46 Z-2.683 I0 K0.318
G1 Z1
Z5
G0 Y67.683
G1 Z-0.5 F300
Z-4.183
G2 X652.778 Z-4.5 I0.318 K0 F600
G1 X653.095
G17 G3 X653.412 Y68 I0 J0.317
G1 Y632 F1000
G2 X655 Y633.588 I1.588 J0
G1 X755
G2 X756.588 Y632 I0 J-1.588
G1 Y68
G2 X755 Y66.412 I-1.588 J0
G1 X655
G2 X653.412 Y68 I0 J1.588
G3 X653.095 Y68.317 I-0.318 J0 F600
G1 X652.778
G18 G3 X652.46 Z-4.183 I0 K0.318
G1 Z-0.5
Z5
G0 Y67.683
G1 Z-2 F300
Z-5.683
G2 X652.778 Z-6 I0.318 K0 F600
G1 X653.095
G17 G3 X653.412 Y68 I0 J0.317
G1 Y632 F1000
G2 X655 Y633.588 I1.588 J0
G1 X755
G2 X756.588 Y632 I0 J-1.588
G1 Y68
G2 X755 Y66.412 I-1.588 J0
G1 X655
G2 X653.412 Y68 I0 J1.588
G3 X653.095 Y68.317 I-0.318 J0 F600
G1 X652.778
G18 G3 X652.46 Z-5.683 I0 K0.318
G1 Z-2
Z5
G0 Y67.683
G1 Z-3.5 F300
Z-7.183
G2 X652.778 Z-7.5 I0.318 K0 F600
G1 X653.095
G17 G3 X653.412 Y68 I0 J0.317
G1 Y632 F1000
G2 X655 Y633.588 I1.588 J0
G1 X755
G2 X756.588 Y632 I0 J-1.588
G1 Y68
G2 X755 Y66.412 I-1.588 J0
G1 X655
G2 X653.412 Y68 I0 J1.588
G3 X653.095 Y68.317 I-0.318 J0 F600
G1 X652.778
G18 G3 X652.46 Z-7.183 I0 K0.318
G1 Z-3.5
Z5
G0 Y67.683
G1 Z-5 F300
Z-8.683
G2 X652.778 Z-9 I0.318 K0 F600
G1 X653.095
G17 G3 X653.412 Y68 I0 J0.317
G1 Y632 F1000
G2 X655 Y633.588 I1.588 J0
G1 X755
G2 X756.588 Y632 I0 J-1.588
G1 Y68
G2 X755 Y66.412 I-1.588 J0
G1 X655
G2 X653.412 Y68 I0 J1.588
G3 X653.095 Y68.317 I-0.318 J0 F600
G1 X652.778
G18 G3 X652.46 Z-8.683 I0 K0.318
G1 Z-5
Z5
G0 Y67.683
G1 Z-6.5 F300
Z-10.183
G2 X652.778 Z-10.5 I0.318 K0 F600
G1 X653.095
G17 G3 X653.412 Y68 I0 J0.317
G1 Y632 F1000
G2 X655 Y633.588 I1.588 J0
G1 X755
G2 X756.588 Y632 I0 J-1.588
G1 Y68
G2 X755 Y66.412 I-1.588 J0
G1 X655
G2 X653.412 Y68 I0 J1.588
G3 X653.095 Y68.317 I-0.318 J0 F600
G1 X652.778
G18 G3 X652.46 Z-10.183 I0 K0.318
G1 Z-6.5
Z5
G0 Y67.683
G1 Z-8 F300
Z-11.683
G2 X652.778 Z-12 I0.318 K0 F600
G1 X653.095
G17 G3 X653.412 Y68 I0 J0.317
G1 Y632 F1000
G2 X655 Y633.588 I1.588 J0
G1 X755
G2 X756.588 Y632 I0 J-1.588
G1 Y68
G2 X755 Y66.412 I-1.588 J0
G1 X655
G2 X653.412 Y68 I0 J1.588
G3 X653.095 Y68.317 I-0.318 J0 F600
G1 X652.778
G18 G3 X652.46 Z-11.683 I0 K0.318
G1 Z-8
Z5
G0 Y67.683
G1 Z-9.5 F300
Z-13.183
G2 X652.778 Z-13.5 I0.318 K0 F600
G1 X653.095
G17 G3 X653.412 Y68 I0 J0.317
G1 Y159.663 F1000
Y160.413 Z-12
Y163.587
Y164.337 Z-13.5 F300
Y347.663 F1000
Y348.413 Z-12
Y351.587
Y352.337 Z-13.5 F300
Y535.662 F1000
Y536.412 Z-12
Y539.588
Y540.338 Z-13.5 F300
Y632 F1000
G2 X655 Y633.588 I1.588 J0
G1 X755
G2 X756.588 Y632 I0 J-1.588
G1 Y540.338
Y539.588 Z-12
Y536.412
Y535.662 Z-13.5 F300
Y352.337 F1000
Y351.587 Z-12
Y348.413
Y347.663 Z-13.5 F300
Y164.337 F1000
Y163.587 Z-12
Y160.413
Y159.663 Z-13.5 F300
Y68 F1000
G2 X755 Y66.412 I-1.588 J0
G1 X655
G2 X653.412 Y68 I0 J1.588
G3 X653.095 Y68.317 I-0.318 J0 F600
G1 X652.778
G18 G3 X652.46 Z-13.183 I0 K0.318
G1 Z-9.5
Z5
G0 Y67.683
G1 Z-11 F300
Z-14.683
G2 X652.778 Z-15 I0.318 K0 F600
G1 X653.095
G17 G3 X653.412 Y68 I0 J0.317
G1 Y158.913 F1000
Y160.413 Z-12
Y163.587
Y165.087 Z-15 F300
Y346.913 F1000
Y348.413 Z-12
Y351.587
Y353.087 Z-15 F300
Y534.912 F1000
Y536.412 Z-12
Y539.588
Y541.088 Z-15 F300
Y632 F1000
G2 X655 Y633.588 I1.588 J0
G1 X755
G2 X756.588 Y632 I0 J-1.588
G1 Y541.088
Y539.588 Z-12
Y536.412
Y534.912 Z-15 F300
Y353.087 F1000
Y351.587 Z-12
Y348.413
Y346.913 Z-15 F300
Y165.087 F1000
Y163.587 Z-12
Y160.413
Y158.913 Z-15 F300
Y68 F1000
G2 X755 Y66.412 I-1.588 J0
G1 X655
G2 X653.412 Y68 I0 J1.588
G3 X653.095 Y68.317 I-0.318 J0 F600
G1 X652.778
G18 G3 X652.46 Z-14.683 I0 K0.318
G1 Z-11
Z5
G0 Y67.683
G1 Z-12.5 F300
Z-16.183
G2 X652.778 Z-16.5 I0.318 K0 F600
G1 X653.095
G17 G3 X653.412 Y68 I0 J0.317
G1 Y158.163 F1000
Y160.413 Z-12
Y163.587
Y165.837 Z-16.5 F300
Y346.163 F1000
Y348.413 Z-12
Y351.587
Y353.837 Z-16.5 F300
Y534.162 F1000
Y536.412 Z-12
Y539.588
Y541.838 Z-16.5 F300
Y632 F1000
G2 X655 Y633.588 I1.588 J0
G1 X755
G2 X756.588 Y632 I0 J-1.588
G1 Y541.838
Y539.588 Z-12
Y536.412
Y534.162 Z-16.5 F300
Y353.837 F1000
Y351.587 Z-12
Y348.413
Y346.163 Z-16.5 F300
Y165.837 F1000
Y163.587 Z-12
Y160.413
Y158.163 Z-16.5 F300
Y68 F1000
G2 X755 Y66.412 I-1.588 J0
G1 X655
G2 X653.412 Y68 I0 J1.588
G3 X653.095 Y68.317 I-0.318 J0 F600
G1 X652.778
G18 G3 X652.46 Z-16.183 I0 K0.317
G1 Z-12.5
Z5
G0 Y67.683
G1 Z-14 F300
Z-17.683
G2 X652.778 Z-18 I0.318 K0 F600
G1 X653.095
G17 G3 X653.412 Y68 I0 J0.317
G1 Y157.413 F1000
Y160.413 Z-12
Y163.587
Y166.587 Z-18 F300
Y345.413 F1000
Y348.413 Z-12
Y351.587
Y354.587 Z-18 F300
Y533.412 F1000
Y536.412 Z-12
Y539.588
Y542.588 Z-18 F300
Y632 F1000
G2 X655 Y633.588 I1.588 J0
G1 X755
G2 X756.588 Y632 I0 J-1.588
G1 Y542.588
Y539.588 Z-12
Y536.412
Y533.412 Z-18 F300
Y354.587 F1000
Y351.587 Z-12
Y348.413
Y345.413 Z-18 F300
Y166.587 F1000
Y163.587 Z-12
Y160.413
Y157.413 Z-18 F300
Y68 F1000
G2 X755 Y66.412 I-1.588 J0
G1 X655
G2 X653.412 Y68 I0 J1.588
G3 X653.095 Y68.317 I-0.318 J0 F600
G1 X652.778
G18 G3 X652.46 Z-17.683 I0 K0.317
G1 Z5
G0 Z15
G17
G0 X0 Y0
G90
M5
M30
