(GrandePlaqueV2)
(T1  D=3.175 CR=0 - ZMIN=-18 - fraise deux tailles)
G90 G94
G17
G21

(Contour 2D2 4)
S99999 M3
G54
G0 Z15
G0 X625.318 Y282.46
Z15
Z5
G1 Z2.5 F300
Z-1.183
G19 G3 Y282.777 Z-1.5 J0.318 K0 F600
G1 Y283.095
G17 G3 X625 Y283.413 I-0.318 J0
G1 X25 F1000
G2 X23.413 Y285 I0 J1.587
G1 Y635
G2 X25 Y636.588 I1.587 J0
G1 X625
G2 X626.588 Y635 I0 J-1.588
G1 Y285
G2 X625 Y283.413 I-1.588 J0
G3 X624.682 Y283.095 I0 J-0.318 F600
G1 Y282.777
G19 G2 Y282.46 Z-1.183 J0 K0.317
G1 Z2.5
Z5
G0 X625.318
G1 Z1 F300
Z-2.683
G3 Y282.777 Z-3 J0.318 K0 F600
G1 Y283.095
G17 G3 X625 Y283.413 I-0.318 J0
G1 X25 F1000
G2 X23.413 Y285 I0 J1.587
G1 Y635
G2 X25 Y636.588 I1.587 J0
G1 X625
G2 X626.588 Y635 I0 J-1.588
G1 Y285
G2 X625 Y283.413 I-1.588 J0
G3 X624.682 Y283.095 I0 J-0.318 F600
G1 Y282.777
G19 G2 Y282.46 Z-2.683 J0 K0.318
G1 Z1
Z5
G0 X625.318
G1 Z-0.5 F300
Z-4.183
G3 Y282.777 Z-4.5 J0.318 K0 F600
G1 Y283.095
G17 G3 X625 Y283.413 I-0.318 J0
G1 X25 F1000
G2 X23.413 Y285 I0 J1.587
G1 Y635
G2 X25 Y636.588 I1.587 J0
G1 X625
G2 X626.588 Y635 I0 J-1.588
G1 Y285
G2 X625 Y283.413 I-1.588 J0
G3 X624.682 Y283.095 I0 J-0.318 F600
G1 Y282.777
G19 G2 Y282.46 Z-4.183 J0 K0.318
G1 Z-0.5
Z5
G0 X625.318
G1 Z-2 F300
Z-5.683
G3 Y282.777 Z-6 J0.318 K0 F600
G1 Y283.095
G17 G3 X625 Y283.413 I-0.318 J0
G1 X25 F1000
G2 X23.413 Y285 I0 J1.587
G1 Y635
G2 X25 Y636.588 I1.587 J0
G1 X625
G2 X626.588 Y635 I0 J-1.588
G1 Y285
G2 X625 Y283.413 I-1.588 J0
G3 X624.682 Y283.095 I0 J-0.318 F600
G1 Y282.777
G19 G2 Y282.46 Z-5.683 J0 K0.318
G1 Z-2
Z5
G0 X625.318
G1 Z-3.5 F300
Z-7.183
G3 Y282.777 Z-7.5 J0.318 K0 F600
G1 Y283.095
G17 G3 X625 Y283.413 I-0.318 J0
G1 X25 F1000
G2 X23.413 Y285 I0 J1.587
G1 Y635
G2 X25 Y636.588 I1.587 J0
G1 X625
G2 X626.588 Y635 I0 J-1.588
G1 Y285
G2 X625 Y283.413 I-1.588 J0
G3 X624.682 Y283.095 I0 J-0.318 F600
G1 Y282.777
G19 G2 Y282.46 Z-7.183 J0 K0.318
G1 Z-3.5
Z5
G0 X625.318
G1 Z-5 F300
Z-8.683
G3 Y282.777 Z-9 J0.318 K0 F600
G1 Y283.095
G17 G3 X625 Y283.413 I-0.318 J0
G1 X25 F1000
G2 X23.413 Y285 I0 J1.587
G1 Y635
G2 X25 Y636.588 I1.587 J0
G1 X625
G2 X626.588 Y635 I0 J-1.588
G1 Y285
G2 X625 Y283.413 I-1.588 J0
G3 X624.682 Y283.095 I0 J-0.318 F600
G1 Y282.777
G19 G2 Y282.46 Z-8.683 J0 K0.318
G1 Z-5
Z5
G0 X625.318
G1 Z-6.5 F300
Z-10.183
G3 Y282.777 Z-10.5 J0.318 K0 F600
G1 Y283.095
G17 G3 X625 Y283.413 I-0.318 J0
G1 X25 F1000
G2 X23.413 Y285 I0 J1.587
G1 Y635
G2 X25 Y636.588 I1.587 J0
G1 X625
G2 X626.588 Y635 I0 J-1.588
G1 Y285
G2 X625 Y283.413 I-1.588 J0
G3 X624.682 Y283.095 I0 J-0.318 F600
G1 Y282.777
G19 G2 Y282.46 Z-10.183 J0 K0.318
G1 Z-6.5
Z5
G0 X625.318
G1 Z-8 F300
Z-11.683
G3 Y282.777 Z-12 J0.318 K0 F600
G1 Y283.095
G17 G3 X625 Y283.413 I-0.318 J0
G1 X25 F1000
G2 X23.413 Y285 I0 J1.587
G1 Y635
G2 X25 Y636.588 I1.587 J0
G1 X625
G2 X626.588 Y635 I0 J-1.588
G1 Y285
G2 X625 Y283.413 I-1.588 J0
G3 X624.682 Y283.095 I0 J-0.318 F600
G1 Y282.777
G19 G2 Y282.46 Z-11.683 J0 K0.318
G1 Z-8
Z5
G0 X625.318
G1 Z-9.5 F300
Z-13.183
G3 Y282.777 Z-13.5 J0.318 K0 F600
G1 Y283.095
G17 G3 X625 Y283.413 I-0.318 J0
G1 X552.338 F1000
X551.588 Z-12
X548.412
X547.662 Z-13.5 F300
X402.337 F1000
X401.587 Z-12
X398.413
X397.663 Z-13.5 F300
X252.337 F1000
X251.587 Z-12
X248.413
X247.663 Z-13.5 F300
X102.338 F1000
X101.588 Z-12
X98.412
X97.662 Z-13.5 F300
X25 F1000
G2 X23.413 Y285 I0 J1.587
G1 Y370.163
Y370.913 Z-12
Y374.087
Y374.837 Z-13.5 F300
Y545.162 F1000
Y545.912 Z-12
Y549.088
Y549.838 Z-13.5 F300
Y635 F1000
G2 X25 Y636.588 I1.587 J0
G1 X97.662
X98.412 Z-12
X101.588
X102.338 Z-13.5 F300
X247.663 F1000
X248.413 Z-12
X251.587
X252.337 Z-13.5 F300
X397.663 F1000
X398.413 Z-12
X401.587
X402.337 Z-13.5 F300
X547.662 F1000
X548.412 Z-12
X551.588
X552.338 Z-13.5 F300
X625 F1000
G2 X626.588 Y635 I0 J-1.588
G1 Y549.838
Y549.088 Z-12
Y545.912
Y545.162 Z-13.5 F300
Y374.837 F1000
Y374.087 Z-12
Y370.913
Y370.163 Z-13.5 F300
Y285 F1000
G2 X625 Y283.413 I-1.588 J0
G3 X624.682 Y283.095 I0 J-0.318 F600
G1 Y282.777
G19 G2 Y282.46 Z-13.183 J0 K0.318
G1 Z-9.5
Z5
G0 X625.318
G1 Z-11 F300
Z-14.683
G3 Y282.777 Z-15 J0.318 K0 F600
G1 Y283.095
G17 G3 X625 Y283.413 I-0.318 J0
G1 X553.088 F1000
X551.588 Z-12
X548.412
X546.912 Z-15 F300
X403.087 F1000
X401.587 Z-12
X398.413
X396.913 Z-15 F300
X253.087 F1000
X251.587 Z-12
X248.413
X246.913 Z-15 F300
X103.088 F1000
X101.588 Z-12
X98.412
X96.912 Z-15 F300
X25 F1000
G2 X23.413 Y285 I0 J1.587
G1 Y369.413
Y370.913 Z-12
Y374.087
Y375.587 Z-15 F300
Y544.412 F1000
Y545.912 Z-12
Y549.088
Y550.588 Z-15 F300
Y635 F1000
G2 X25 Y636.588 I1.587 J0
G1 X96.912
X98.412 Z-12
X101.588
X103.088 Z-15 F300
X246.913 F1000
X248.413 Z-12
X251.587
X253.087 Z-15 F300
X396.913 F1000
X398.413 Z-12
X401.587
X403.087 Z-15 F300
X546.912 F1000
X548.412 Z-12
X551.588
X553.088 Z-15 F300
X625 F1000
G2 X626.588 Y635 I0 J-1.588
G1 Y550.588
Y549.088 Z-12
Y545.912
Y544.412 Z-15 F300
Y375.587 F1000
Y374.087 Z-12
Y370.913
Y369.413 Z-15 F300
Y285 F1000
G2 X625 Y283.413 I-1.588 J0
G3 X624.682 Y283.095 I0 J-0.318 F600
G1 Y282.777
G19 G2 Y282.46 Z-14.683 J0 K0.318
G1 Z-11
Z5
G0 X625.318
G1 Z-12.5 F300
Z-16.183
G3 Y282.777 Z-16.5 J0.318 K0 F600
G1 Y283.095
G17 G3 X625 Y283.413 I-0.318 J0
G1 X553.838 F1000
X551.588 Z-12
X548.412
X546.162 Z-16.5 F300
X403.837 F1000
X401.587 Z-12
X398.413
X396.163 Z-16.5 F300
X253.837 F1000
X251.587 Z-12
X248.413
X246.163 Z-16.5 F300
X103.838 F1000
X101.588 Z-12
X98.412
X96.162 Z-16.5 F300
X25 F1000
G2 X23.413 Y285 I0 J1.587
G1 Y368.663
Y370.913 Z-12
Y374.087
Y376.337 Z-16.5 F300
Y543.662 F1000
Y545.912 Z-12
Y549.088
Y551.338 Z-16.5 F300
Y635 F1000
G2 X25 Y636.588 I1.587 J0
G1 X96.162
X98.412 Z-12
X101.588
X103.838 Z-16.5 F300
X246.163 F1000
X248.413 Z-12
X251.587
X253.837 Z-16.5 F300
X396.163 F1000
X398.413 Z-12
X401.587
X403.837 Z-16.5 F300
X546.162 F1000
X548.412 Z-12
X551.588
X553.838 Z-16.5 F300
X625 F1000
G2 X626.588 Y635 I0 J-1.588
G1 Y551.338
Y549.088 Z-12
Y545.912
Y543.662 Z-16.5 F300
Y376.337 F1000
Y374.087 Z-12
Y370.913
Y368.663 Z-16.5 F300
Y285 F1000
G2 X625 Y283.413 I-1.588 J0
G3 X624.682 Y283.095 I0 J-0.318 F600
G1 Y282.777
G19 G2 Y282.46 Z-16.183 J0 K0.317
G1 Z-12.5
Z5
G0 X625.318
G1 Z-14 F300
Z-17.683
G3 Y282.777 Z-18 J0.318 K0 F600
G1 Y283.095
G17 G3 X625 Y283.413 I-0.318 J0
G1 X554.588 F1000
X551.588 Z-12
X548.412
X545.412 Z-18 F300
X404.587 F1000
X401.587 Z-12
X398.413
X395.413 Z-18 F300
X254.587 F1000
X251.587 Z-12
X248.413
X245.413 Z-18 F300
X104.588 F1000
X101.588 Z-12
X98.412
X95.412 Z-18 F300
X25 F1000
G2 X23.413 Y285 I0 J1.587
G1 Y367.913
Y370.913 Z-12
Y374.087
Y377.087 Z-18 F300
Y542.912 F1000
Y545.912 Z-12
Y549.088
Y552.088 Z-18 F300
Y635 F1000
G2 X25 Y636.588 I1.587 J0
G1 X95.412
X98.412 Z-12
X101.588
X104.588 Z-18 F300
X245.413 F1000
X248.413 Z-12
X251.587
X254.587 Z-18 F300
X395.413 F1000
X398.413 Z-12
X401.587
X404.587 Z-18 F300
X545.412 F1000
X548.412 Z-12
X551.588
X554.588 Z-18 F300
X625 F1000
G2 X626.588 Y635 I0 J-1.588
G1 Y552.088
Y549.088 Z-12
Y545.912
Y542.912 Z-18 F300
Y377.087 F1000
Y374.087 Z-12
Y370.913
Y367.913 Z-18 F300
Y285 F1000
G2 X625 Y283.413 I-1.588 J0
G3 X624.682 Y283.095 I0 J-0.318 F600
G1 Y282.777
G19 G2 Y282.46 Z-17.683 J0 K0.317
G1 Z5
G0 Z15
G17
G0 X0 Y0
G90
M5
M30
