(Plaque1)
(T1  D=3.175 CR=0 - ZMIN=-18 - fraise deux tailles)
G90 G94
G17
G21
G28 G91 Z0
G90

(Contour 2D7 3)
T1
S99999 M3
G54
G0 X159.712 Y1042.54
Z15
Z5
G1 Z2.5 F300
Z-1.183
G19 G2 Y1042.223 Z-1.5 J-0.318 K0 F600
G1 Y1041.905
G17 G3 X160.03 Y1041.588 I0.318 J0
G1 X240.03 F1000
G3 X240.03 Y1058.412 I0 J8.412
G1 X160.03
G3 X160.03 Y1041.588 I0 J-8.412
X160.348 Y1041.905 I0 J0.318 F600
G1 Y1042.223
G19 G3 Y1042.54 Z-1.183 J0 K0.317
G1 Z2.5
Z5
G0 X159.712
G1 Z1 F300
Z-2.683
G2 Y1042.223 Z-3 J-0.318 K0 F600
G1 Y1041.905
G17 G3 X160.03 Y1041.588 I0.318 J0
G1 X240.03 F1000
G3 X240.03 Y1058.412 I0 J8.412
G1 X160.03
G3 X160.03 Y1041.588 I0 J-8.412
X160.348 Y1041.905 I0 J0.318 F600
G1 Y1042.223
G19 G3 Y1042.54 Z-2.683 J0 K0.318
G1 Z1
Z5
G0 X159.712
G1 Z-0.5 F300
Z-4.183
G2 Y1042.223 Z-4.5 J-0.318 K0 F600
G1 Y1041.905
G17 G3 X160.03 Y1041.588 I0.318 J0
G1 X240.03 F1000
G3 X240.03 Y1058.412 I0 J8.412
G1 X160.03
G3 X160.03 Y1041.588 I0 J-8.412
X160.348 Y1041.905 I0 J0.318 F600
G1 Y1042.223
G19 G3 Y1042.54 Z-4.183 J0 K0.318
G1 Z-0.5
Z5
G0 X159.712
G1 Z-2 F300
Z-5.683
G2 Y1042.223 Z-6 J-0.318 K0 F600
G1 Y1041.905
G17 G3 X160.03 Y1041.588 I0.318 J0
G1 X240.03 F1000
G3 X240.03 Y1058.412 I0 J8.412
G1 X160.03
G3 X160.03 Y1041.588 I0 J-8.412
X160.348 Y1041.905 I0 J0.318 F600
G1 Y1042.223
G19 G3 Y1042.54 Z-5.683 J0 K0.318
G1 Z-2
Z5
G0 X159.712
G1 Z-3.5 F300
Z-7.183
G2 Y1042.223 Z-7.5 J-0.318 K0 F600
G1 Y1041.905
G17 G3 X160.03 Y1041.588 I0.318 J0
G1 X240.03 F1000
G3 X240.03 Y1058.412 I0 J8.412
G1 X160.03
G3 X160.03 Y1041.588 I0 J-8.412
X160.348 Y1041.905 I0 J0.318 F600
G1 Y1042.223
G19 G3 Y1042.54 Z-7.183 J0 K0.318
G1 Z-3.5
Z5
G0 X159.712
G1 Z-5 F300
Z-8.683
G2 Y1042.223 Z-9 J-0.318 K0 F600
G1 Y1041.905
G17 G3 X160.03 Y1041.588 I0.318 J0
G1 X240.03 F1000
G3 X240.03 Y1058.412 I0 J8.412
G1 X160.03
G3 X160.03 Y1041.588 I0 J-8.412
X160.348 Y1041.905 I0 J0.318 F600
G1 Y1042.223
G19 G3 Y1042.54 Z-8.683 J0 K0.318
G1 Z-5
Z5
G0 X159.712
G1 Z-6.5 F300
Z-10.183
G2 Y1042.223 Z-10.5 J-0.318 K0 F600
G1 Y1041.905
G17 G3 X160.03 Y1041.588 I0.318 J0
G1 X240.03 F1000
G3 X240.03 Y1058.412 I0 J8.412
G1 X160.03
G3 X160.03 Y1041.588 I0 J-8.412
X160.348 Y1041.905 I0 J0.318 F600
G1 Y1042.223
G19 G3 Y1042.54 Z-10.183 J0 K0.318
G1 Z-6.5
Z5
G0 X159.712
G1 Z-8 F300
Z-11.683
G2 Y1042.223 Z-12 J-0.318 K0 F600
G1 Y1041.905
G17 G3 X160.03 Y1041.588 I0.318 J0
G1 X240.03 F1000
G3 X240.03 Y1058.412 I0 J8.412
G1 X160.03
G3 X160.03 Y1041.588 I0 J-8.412
X160.348 Y1041.905 I0 J0.318 F600
G1 Y1042.223
G19 G3 Y1042.54 Z-11.683 J0 K0.318
G1 Z-8
Z5
G0 X159.712
G1 Z-9.5 F300
Z-13.183
G2 Y1042.223 Z-13.5 J-0.318 K0 F600
G1 Y1041.905
G17 G3 X160.03 Y1041.588 I0.318 J0
G1 X171.025 F1000
X171.775 Z-12
X174.951
X175.701 Z-13.5 F300
X197.693 F1000
X198.443 Z-12
X201.617
X202.367 Z-13.5 F300
X224.359 F1000
X225.109 Z-12
X228.283
X229.033 Z-13.5 F300
X240.03 F1000
G3 X248.111 Y1047.662 I0 J8.412
X248.291 Y1048.412 Z-12 I-8.081 J2.338
X248.291 Y1051.588 I-8.261 J1.588
X248.111 Y1052.338 Z-13.5 I-8.261 J-1.588 F300
X240.03 Y1058.412 I-8.081 J-2.338 F1000
G1 X229.033
X228.283 Z-12
X225.109
X224.359 Z-13.5 F300
X202.367 F1000
X201.617 Z-12
X198.443
X197.693 Z-13.5 F300
X175.701 F1000
X174.951 Z-12
X171.775
X171.025 Z-13.5 F300
X160.03 F1000
G3 X151.949 Y1052.338 I0 J-8.412
X151.769 Y1051.588 Z-12 I8.081 J-2.338
X151.769 Y1048.412 I8.261 J-1.588
X151.949 Y1047.662 Z-13.5 I8.261 J1.588 F300
X160.03 Y1041.588 I8.081 J2.338 F1000
X160.348 Y1041.905 I0 J0.318 F600
G1 Y1042.223
G19 G3 Y1042.54 Z-13.183 J0 K0.318
G1 Z-9.5
Z5
G0 X159.712
G1 Z-11 F300
Z-14.683
G2 Y1042.223 Z-15 J-0.318 K0 F600
G1 Y1041.905
G17 G3 X160.03 Y1041.588 I0.318 J0
G1 X170.275 F1000
X171.775 Z-12
X174.951
X176.451 Z-15 F300
X196.943 F1000
X198.443 Z-12
X201.617
X203.117 Z-15 F300
X223.609 F1000
X225.109 Z-12
X228.283
X229.783 Z-15 F300
X240.03 F1000
G3 X247.855 Y1046.912 I0 J8.412
X248.119 Y1047.689 Z-13.447 I-7.825 J3.088
X248.291 Y1048.412 Z-12 I-8.089 J2.311
X248.291 Y1051.588 I-8.261 J1.588
X248.098 Y1052.384 Z-13.594 I-8.261 J-1.588 F300
X247.855 Y1053.088 Z-15 I-8.068 J-2.384
X240.03 Y1058.412 I-7.825 J-3.088 F1000
G1 X229.783
X228.283 Z-12
X225.109
X223.609 Z-15 F300
X203.117 F1000
X201.617 Z-12
X198.443
X196.943 Z-15 F300
X176.451 F1000
X174.951 Z-12
X171.775
X170.275 Z-15 F300
X160.03 F1000
G3 X152.205 Y1053.088 I0 J-8.412
X151.941 Y1052.311 Z-13.447 I7.825 J-3.088
X151.769 Y1051.588 Z-12 I8.089 J-2.311
X151.769 Y1048.412 I8.261 J-1.588
X151.962 Y1047.616 Z-13.594 I8.261 J1.588 F300
X152.205 Y1046.912 Z-15 I8.068 J2.384
X160.03 Y1041.588 I7.825 J3.088 F1000
X160.348 Y1041.905 I0 J0.318 F600
G1 Y1042.223
G19 G3 Y1042.54 Z-14.683 J0 K0.318
G1 Z-11
Z5
G0 X159.712
G1 Z-12.5 F300
Z-16.183
G2 Y1042.223 Z-16.5 J-0.318 K0 F600
G1 Y1041.905
G17 G3 X160.03 Y1041.588 I0.318 J0
G1 X169.525 F1000
X171.775 Z-12
X174.951
X177.201 Z-16.5 F300
X196.193 F1000
X198.443 Z-12
X201.617
X203.867 Z-16.5 F300
X222.859 F1000
X225.109 Z-12
X228.283
X230.533 Z-16.5 F300
X240.03 F1000
G3 X247.516 Y1046.162 I0 J8.412
X247.854 Y1046.91 Z-15.006 I-7.486 J3.838
X248.118 Y1047.686 Z-13.453 I-7.824 J3.09
X248.291 Y1048.412 Z-12 I-8.088 J2.314
X248.291 Y1051.588 I-8.261 J1.588
X248.098 Y1052.384 Z-13.594 I-8.261 J-1.588 F300
X247.827 Y1053.159 Z-15.142 I-8.068 J-2.384
X247.516 Y1053.838 Z-16.5 I-7.797 J-3.159
X240.03 Y1058.412 I-7.486 J-3.838 F1000
G1 X230.533
X228.283 Z-12
X225.109
X222.859 Z-16.5 F300
X203.867 F1000
X201.617 Z-12
X198.443
X196.193 Z-16.5 F300
X177.201 F1000
X174.951 Z-12
X171.775
X169.525 Z-16.5 F300
X160.03 F1000
G3 X152.544 Y1053.838 I0 J-8.412
X152.206 Y1053.09 Z-15.006 I7.486 J-3.838
X151.942 Y1052.314 Z-13.453 I7.824 J-3.09
X151.769 Y1051.588 Z-12 I8.088 J-2.314
X151.769 Y1048.412 I8.261 J-1.588
X151.962 Y1047.616 Z-13.594 I8.261 J1.588 F300
X152.233 Y1046.841 Z-15.142 I8.068 J2.384
X152.544 Y1046.162 Z-16.5 I7.797 J3.159
X160.03 Y1041.588 I7.486 J3.838 F1000
X160.348 Y1041.905 I0 J0.318 F600
G1 Y1042.223
G19 G3 Y1042.54 Z-16.183 J0 K0.317
G1 Z-12.5
Z5
G0 X159.712
G1 Z-14 F300
Z-17.683
G2 Y1042.223 Z-18 J-0.318 K0 F600
G1 Y1041.905
G17 G3 X160.03 Y1041.588 I0.318 J0
G1 X168.775 F1000
X171.775 Z-12
X174.951
X177.951 Z-18 F300
X195.443 F1000
X198.443 Z-12
X201.617
X204.617 Z-18 F300
X222.109 F1000
X225.109 Z-12
X228.283
X231.283 Z-18 F300
X240.03 F1000
G3 X247.082 Y1045.412 I0 J8.412
X247.495 Y1046.121 Z-16.583 I-7.052 J4.588
X247.837 Y1046.866 Z-15.093 I-7.465 J3.879
X248.105 Y1047.641 Z-13.542 I-7.807 J3.134
X248.291 Y1048.412 Z-12 I-8.075 J2.359
X248.291 Y1051.588 I-8.261 J1.588
X248.098 Y1052.384 Z-13.594 I-8.261 J-1.588 F300
X247.827 Y1053.159 Z-15.142 I-8.068 J-2.384
X247.482 Y1053.903 Z-16.631 I-7.797 J-3.159
X247.082 Y1054.588 Z-18 I-7.452 J-3.903
X240.03 Y1058.412 I-7.052 J-4.588 F1000
G1 X231.283
X228.283 Z-12
X225.109
X222.109 Z-18 F300
X204.617 F1000
X201.617 Z-12
X198.443
X195.443 Z-18 F300
X177.951 F1000
X174.951 Z-12
X171.775
X168.775 Z-18 F300
X160.03 F1000
G3 X152.978 Y1054.588 I0 J-8.412
X152.565 Y1053.879 Z-16.583 I7.052 J-4.588
X152.223 Y1053.134 Z-15.093 I7.465 J-3.879
X151.955 Y1052.359 Z-13.542 I7.807 J-3.134
X151.769 Y1051.588 Z-12 I8.075 J-2.359
X151.769 Y1048.412 I8.261 J-1.588
X151.962 Y1047.616 Z-13.594 I8.261 J1.588 F300
X152.233 Y1046.841 Z-15.142 I8.068 J2.384
X152.578 Y1046.097 Z-16.631 I7.797 J3.159
X152.978 Y1045.412 Z-18 I7.452 J3.903
X160.03 Y1041.588 I7.052 J4.588 F1000
X160.348 Y1041.905 I0 J0.318 F600
G1 Y1042.223
G19 G3 Y1042.54 Z-17.683 J0 K0.317
G1 Z5
G0 Z15
G17

(Contour 2D7 4)
G0 X559.653 Y1042.54
Z15
Z5
G1 Z2.5 F300
Z-1.183
G19 G2 Y1042.223 Z-1.5 J-0.318 K0 F600
G1 Y1041.905
G17 G3 X559.97 Y1041.588 I0.317 J0
G1 X639.97 F1000
G3 X639.97 Y1058.412 I0 J8.412
G1 X559.97
G3 X559.97 Y1041.588 I0 J-8.412
X560.287 Y1041.905 I0 J0.318 F600
G1 Y1042.223
G19 G3 Y1042.54 Z-1.183 J0 K0.317
G1 Z2.5
Z5
G0 X559.653
G1 Z1 F300
Z-2.683
G2 Y1042.223 Z-3 J-0.318 K0 F600
G1 Y1041.905
G17 G3 X559.97 Y1041.588 I0.317 J0
G1 X639.97 F1000
G3 X639.97 Y1058.412 I0 J8.412
G1 X559.97
G3 X559.97 Y1041.588 I0 J-8.412
X560.287 Y1041.905 I0 J0.318 F600
G1 Y1042.223
G19 G3 Y1042.54 Z-2.683 J0 K0.318
G1 Z1
Z5
G0 X559.653
G1 Z-0.5 F300
Z-4.183
G2 Y1042.223 Z-4.5 J-0.318 K0 F600
G1 Y1041.905
G17 G3 X559.97 Y1041.588 I0.317 J0
G1 X639.97 F1000
G3 X639.97 Y1058.412 I0 J8.412
G1 X559.97
G3 X559.97 Y1041.588 I0 J-8.412
X560.287 Y1041.905 I0 J0.318 F600
G1 Y1042.223
G19 G3 Y1042.54 Z-4.183 J0 K0.318
G1 Z-0.5
Z5
G0 X559.653
G1 Z-2 F300
Z-5.683
G2 Y1042.223 Z-6 J-0.318 K0 F600
G1 Y1041.905
G17 G3 X559.97 Y1041.588 I0.317 J0
G1 X639.97 F1000
G3 X639.97 Y1058.412 I0 J8.412
G1 X559.97
G3 X559.97 Y1041.588 I0 J-8.412
X560.287 Y1041.905 I0 J0.318 F600
G1 Y1042.223
G19 G3 Y1042.54 Z-5.683 J0 K0.318
G1 Z-2
Z5
G0 X559.653
G1 Z-3.5 F300
Z-7.183
G2 Y1042.223 Z-7.5 J-0.318 K0 F600
G1 Y1041.905
G17 G3 X559.97 Y1041.588 I0.317 J0
G1 X639.97 F1000
G3 X639.97 Y1058.412 I0 J8.412
G1 X559.97
G3 X559.97 Y1041.588 I0 J-8.412
X560.287 Y1041.905 I0 J0.318 F600
G1 Y1042.223
G19 G3 Y1042.54 Z-7.183 J0 K0.318
G1 Z-3.5
Z5
G0 X559.653
G1 Z-5 F300
Z-8.683
G2 Y1042.223 Z-9 J-0.318 K0 F600
G1 Y1041.905
G17 G3 X559.97 Y1041.588 I0.317 J0
G1 X639.97 F1000
G3 X639.97 Y1058.412 I0 J8.412
G1 X559.97
G3 X559.97 Y1041.588 I0 J-8.412
X560.287 Y1041.905 I0 J0.318 F600
G1 Y1042.223
G19 G3 Y1042.54 Z-8.683 J0 K0.318
G1 Z-5
Z5
G0 X559.653
G1 Z-6.5 F300
Z-10.183
G2 Y1042.223 Z-10.5 J-0.318 K0 F600
G1 Y1041.905
G17 G3 X559.97 Y1041.588 I0.317 J0
G1 X639.97 F1000
G3 X639.97 Y1058.412 I0 J8.412
G1 X559.97
G3 X559.97 Y1041.588 I0 J-8.412
X560.287 Y1041.905 I0 J0.318 F600
G1 Y1042.223
G19 G3 Y1042.54 Z-10.183 J0 K0.318
G1 Z-6.5
Z5
G0 X559.653
G1 Z-8 F300
Z-11.683
G2 Y1042.223 Z-12 J-0.318 K0 F600
G1 Y1041.905
G17 G3 X559.97 Y1041.588 I0.317 J0
G1 X639.97 F1000
G3 X639.97 Y1058.412 I0 J8.412
G1 X559.97
G3 X559.97 Y1041.588 I0 J-8.412
X560.287 Y1041.905 I0 J0.318 F600
G1 Y1042.223
G19 G3 Y1042.54 Z-11.683 J0 K0.318
G1 Z-8
Z5
G0 X559.653
G1 Z-9.5 F300
Z-13.183
G2 Y1042.223 Z-13.5 J-0.318 K0 F600
G1 Y1041.905
G17 G3 X559.97 Y1041.588 I0.317 J0
G1 X570.966 F1000
X571.716 Z-12
X574.891
X575.641 Z-13.5 F300
X597.633 F1000
X598.383 Z-12
X601.557
X602.307 Z-13.5 F300
X624.299 F1000
X625.049 Z-12
X628.224
X628.974 Z-13.5 F300
X639.97 F1000
G3 X648.051 Y1047.662 I0 J8.412
X648.231 Y1048.412 Z-12 I-8.081 J2.338
X648.231 Y1051.588 I-8.261 J1.588
X648.051 Y1052.338 Z-13.5 I-8.261 J-1.588 F300
X639.97 Y1058.412 I-8.081 J-2.338 F1000
G1 X628.974
X628.224 Z-12
X625.049
X624.299 Z-13.5 F300
X602.307 F1000
X601.557 Z-12
X598.383
X597.633 Z-13.5 F300
X575.641 F1000
X574.891 Z-12
X571.716
X570.966 Z-13.5 F300
X559.97 F1000
G3 X551.889 Y1052.338 I0 J-8.412
X551.709 Y1051.588 Z-12 I8.081 J-2.338
X551.709 Y1048.412 I8.261 J-1.588
X551.889 Y1047.662 Z-13.5 I8.261 J1.588 F300
X559.97 Y1041.588 I8.081 J2.338 F1000
X560.287 Y1041.905 I0 J0.318 F600
G1 Y1042.223
G19 G3 Y1042.54 Z-13.183 J0 K0.318
G1 Z-9.5
Z5
G0 X559.653
G1 Z-11 F300
Z-14.683
G2 Y1042.223 Z-15 J-0.318 K0 F600
G1 Y1041.905
G17 G3 X559.97 Y1041.588 I0.317 J0
G1 X570.216 F1000
X571.716 Z-12
X574.891
X576.391 Z-15 F300
X596.883 F1000
X598.383 Z-12
X601.557
X603.057 Z-15 F300
X623.549 F1000
X625.049 Z-12
X628.224
X629.724 Z-15 F300
X639.97 F1000
G3 X647.795 Y1046.912 I0 J8.412
X648.059 Y1047.689 Z-13.447 I-7.825 J3.088
X648.231 Y1048.412 Z-12 I-8.089 J2.311
X648.231 Y1051.588 I-8.261 J1.588
X648.038 Y1052.384 Z-13.594 I-8.261 J-1.588 F300
X647.795 Y1053.088 Z-15 I-8.068 J-2.384
X639.97 Y1058.412 I-7.825 J-3.088 F1000
G1 X629.724
X628.224 Z-12
X625.049
X623.549 Z-15 F300
X603.057 F1000
X601.557 Z-12
X598.383
X596.883 Z-15 F300
X576.391 F1000
X574.891 Z-12
X571.716
X570.216 Z-15 F300
X559.97 F1000
G3 X552.145 Y1053.088 I0 J-8.412
X551.881 Y1052.311 Z-13.447 I7.825 J-3.088
X551.709 Y1051.588 Z-12 I8.089 J-2.311
X551.709 Y1048.412 I8.261 J-1.588
X551.902 Y1047.616 Z-13.594 I8.261 J1.588 F300
X552.145 Y1046.912 Z-15 I8.068 J2.384
X559.97 Y1041.588 I7.825 J3.088 F1000
X560.287 Y1041.905 I0 J0.318 F600
G1 Y1042.223
G19 G3 Y1042.54 Z-14.683 J0 K0.318
G1 Z-11
Z5
G0 X559.653
G1 Z-12.5 F300
Z-16.183
G2 Y1042.223 Z-16.5 J-0.318 K0 F600
G1 Y1041.905
G17 G3 X559.97 Y1041.588 I0.317 J0
G1 X569.466 F1000
X571.716 Z-12
X574.891
X577.141 Z-16.5 F300
X596.133 F1000
X598.383 Z-12
X601.557
X603.807 Z-16.5 F300
X622.799 F1000
X625.049 Z-12
X628.224
X630.474 Z-16.5 F300
X639.97 F1000
G3 X647.456 Y1046.162 I0 J8.412
X647.794 Y1046.91 Z-15.006 I-7.486 J3.838
X648.058 Y1047.686 Z-13.453 I-7.824 J3.09
X648.231 Y1048.412 Z-12 I-8.088 J2.314
X648.231 Y1051.588 I-8.261 J1.588
X648.038 Y1052.384 Z-13.594 I-8.261 J-1.588 F300
X647.767 Y1053.159 Z-15.142 I-8.068 J-2.384
X647.456 Y1053.838 Z-16.5 I-7.797 J-3.159
X639.97 Y1058.412 I-7.486 J-3.838 F1000
G1 X630.474
X628.224 Z-12
X625.049
X622.799 Z-16.5 F300
X603.807 F1000
X601.557 Z-12
X598.383
X596.133 Z-16.5 F300
X577.141 F1000
X574.891 Z-12
X571.716
X569.466 Z-16.5 F300
X559.97 F1000
G3 X552.484 Y1053.838 I0 J-8.412
X552.146 Y1053.09 Z-15.006 I7.486 J-3.838
X551.882 Y1052.314 Z-13.453 I7.824 J-3.09
X551.709 Y1051.588 Z-12 I8.088 J-2.314
X551.709 Y1048.412 I8.261 J-1.588
X551.902 Y1047.616 Z-13.594 I8.261 J1.588 F300
X552.173 Y1046.841 Z-15.142 I8.068 J2.384
X552.484 Y1046.162 Z-16.5 I7.797 J3.159
X559.97 Y1041.588 I7.486 J3.838 F1000
X560.287 Y1041.905 I0 J0.318 F600
G1 Y1042.223
G19 G3 Y1042.54 Z-16.183 J0 K0.317
G1 Z-12.5
Z5
G0 X559.653
G1 Z-14 F300
Z-17.683
G2 Y1042.223 Z-18 J-0.318 K0 F600
G1 Y1041.905
G17 G3 X559.97 Y1041.588 I0.317 J0
G1 X568.716 F1000
X571.716 Z-12
X574.891
X577.891 Z-18 F300
X595.383 F1000
X598.383 Z-12
X601.557
X604.557 Z-18 F300
X622.049 F1000
X625.049 Z-12
X628.224
X631.224 Z-18 F300
X639.97 F1000
G3 X647.022 Y1045.412 I0 J8.412
X647.435 Y1046.121 Z-16.583 I-7.052 J4.588
X647.777 Y1046.866 Z-15.093 I-7.465 J3.879
X648.045 Y1047.641 Z-13.542 I-7.807 J3.134
X648.231 Y1048.412 Z-12 I-8.075 J2.359
X648.231 Y1051.588 I-8.261 J1.588
X648.038 Y1052.384 Z-13.594 I-8.261 J-1.588 F300
X647.767 Y1053.159 Z-15.142 I-8.068 J-2.384
X647.422 Y1053.903 Z-16.631 I-7.797 J-3.159
X647.022 Y1054.588 Z-18 I-7.452 J-3.903
X639.97 Y1058.412 I-7.052 J-4.588 F1000
G1 X631.224
X628.224 Z-12
X625.049
X622.049 Z-18 F300
X604.557 F1000
X601.557 Z-12
X598.383
X595.383 Z-18 F300
X577.891 F1000
X574.891 Z-12
X571.716
X568.716 Z-18 F300
X559.97 F1000
G3 X552.918 Y1054.588 I0 J-8.412
X552.505 Y1053.879 Z-16.583 I7.052 J-4.588
X552.163 Y1053.134 Z-15.093 I7.465 J-3.879
X551.895 Y1052.359 Z-13.542 I7.807 J-3.134
X551.709 Y1051.588 Z-12 I8.075 J-2.359
X551.709 Y1048.412 I8.261 J-1.588
X551.902 Y1047.616 Z-13.594 I8.261 J1.588 F300
X552.173 Y1046.841 Z-15.142 I8.068 J2.384
X552.518 Y1046.097 Z-16.631 I7.797 J3.159
X552.918 Y1045.412 Z-18 I7.452 J3.903
X559.97 Y1041.588 I7.052 J4.588 F1000
X560.287 Y1041.905 I0 J0.318 F600
G1 Y1042.223
G19 G3 Y1042.54 Z-17.683 J0 K0.317
G1 Z5
G0 Z15
G17
G28 G91 Z0
G90
G28 G91 X0 Y0
G90
M5
M30
