(Plaque1)
(T1  D=3.175 CR=0 - ZMIN=-3 - fraise deux tailles)
G90 G94
G17
G21
G28 G91 Z0
G90

(Poche 2D1 2)
T1
S99999 M3
G54
G0 X344.44 Y1151.165
Z15
Z5
G1 Z2.817 F300
X344.424 Y1151.148 Z2.698
X344.38 Y1151.099 Z2.597
X344.319 Y1151.021 Z2.527
X344.253 Y1150.923 Z2.5
G3 X346.812 Y1149.326 Z2.335 I1.28 J-0.798
X344.253 Y1150.923 Z2.169 I-1.28 J0.798
X346.812 Y1149.326 Z2.004 I1.28 J-0.798
X344.253 Y1150.923 Z1.838 I-1.28 J0.798
X346.812 Y1149.326 Z1.673 I1.28 J-0.798
X344.253 Y1150.923 Z1.507 I-1.28 J0.798
X346.812 Y1149.326 Z1.342 I1.28 J-0.798
X344.253 Y1150.923 Z1.176 I-1.28 J0.798
X346.812 Y1149.326 Z1.011 I1.28 J-0.798
X344.253 Y1150.923 Z0.845 I-1.28 J0.798
X346.812 Y1149.326 Z0.68 I1.28 J-0.798
X344.253 Y1150.923 Z0.515 I-1.28 J0.798
X346.812 Y1149.326 Z0.349 I1.28 J-0.798
X344.253 Y1150.923 Z0.184 I-1.28 J0.798
X346.812 Y1149.326 Z0.018 I1.28 J-0.798
X344.253 Y1150.923 Z-0.147 I-1.28 J0.798
X346.812 Y1149.326 Z-0.313 I1.28 J-0.798
X344.253 Y1150.923 Z-0.478 I-1.28 J0.798
X346.812 Y1149.326 Z-0.644 I1.28 J-0.798
X344.253 Y1150.923 Z-0.809 I-1.28 J0.798
X346.812 Y1149.326 Z-0.974 I1.28 J-0.798
X344.253 Y1150.923 Z-1.14 I-1.28 J0.798
X346.812 Y1149.326 Z-1.305 I1.28 J-0.798
X344.253 Y1150.923 Z-1.471 I-1.28 J0.798
X344.024 Y1150.131 Z-1.5 I1.28 J-0.798
G1 X344.018 Y1148.813 F1000
G3 X344.358 Y1148.304 I0.551 J0
G1 X344.389 Y1148.291
G3 X344.831 Y1148.294 I0.218 J0.521
G2 X345.717 Y1148.651 I6.934 J-15.957
X346.617 Y1148.969 I11.334 J-30.57
G3 X346.953 Y1149.438 I-0.158 J0.469
G1 X346.909 Y1159.74
G3 X344.064 Y1159.74 I-1.423 J0
G1 X344.024 Y1150.131
G2 X342.952 Y1148.709 I-1.487 J0.006
G3 X342.897 Y1146.928 I0.261 J-0.899
G2 X343.401 Y1146.741 I-7.789 J-21.719
X344.229 Y1146.388 I-4.643 J-12.055
G3 X345.017 Y1146.394 I0.388 J0.831
G2 X348.428 Y1147.615 I7.367 J-15.204
G3 X348.759 Y1148.034 I-0.101 J0.42
G1 X348.714 Y1159.74
G3 X342.259 Y1159.74 I-3.228 J0
G1 X342.214 Y1147.525
G3 X342.555 Y1147.048 I0.504 J0
G2 X342.897 Y1146.928 I-7.447 J-21.839
X343.767 Y1145.438 I-0.453 J-1.264
G3 X345.177 Y1144.443 I0.943 J-0.161
G2 X350.24 Y1146.111 I6.819 J-12.185
G3 X350.564 Y1146.476 I-0.045 J0.366
G1 X350.518 Y1159.74
G3 X340.453 Y1159.74 I-5.033 J0
G1 X340.409 Y1146.202
G3 X340.742 Y1145.752 I0.471 J0
G2 X342.56 Y1145.134 I-8.869 J-29.081
X344.3 Y1144.323 I-4.392 J-11.697
G3 X344.975 Y1144.328 I0.334 J0.592
G1 X345.177 Y1144.443
G2 X346.867 Y1144.277 I0.726 J-1.297
G3 X348.527 Y1143.92 I1.161 J1.362
G2 X349.543 Y1144.177 I4.244 J-14.63
X351.546 Y1144.411 I2.2 J-10.147
X351.799 Y1144.408 I0.077 J-4.044
G3 X352.051 Y1144.405 I0.176 J4.041
X352.368 Y1144.729 I-0.006 J0.323
G1 X352.323 Y1159.74
G3 X338.648 Y1159.74 I-6.837 J0
G1 X338.603 Y1144.719
G3 X338.929 Y1144.332 I0.393 J0
G2 X341.499 Y1143.654 I-2.62 J-15.13
X343.886 Y1142.488 I-4.105 J-11.434
X344.102 Y1142.341 I-2.231 J-3.529
G3 X344.318 Y1142.195 I2.447 J3.382
X344.949 Y1142.197 I0.314 J0.496
G2 X346.237 Y1142.983 I18.303 J-28.537
X347.605 Y1143.62 I4.219 J-7.271
X348.527 Y1143.92 I5.167 J-14.331
X350.155 Y1143.365 I0.418 J-1.44
G3 X351.703 Y1142.615 I1.481 J1.082
G2 X353.872 Y1142.457 I0.364 J-9.95
G3 X354.173 Y1142.708 I0.046 J0.251
G1 X354.129 Y1159.74
G3 X336.844 Y1159.74 I-8.643 J0
G1 X336.798 Y1143.045
G3 X337.117 Y1142.707 I0.338 J0
G2 X338.562 Y1142.577 I-1.4 J-23.604
X339.977 Y1142.253 I-0.841 J-6.938
X341.494 Y1141.707 I-15.295 J-44.853
X342.937 Y1140.986 I-2.849 J-7.507
X343.691 Y1140.49 I-12.982 J-20.531
X344.431 Y1139.972 I-26.862 J-39.178
G3 X344.98 Y1139.986 I0.265 J0.372
G2 X346.52 Y1141.086 I11.672 J-14.712
X348.217 Y1141.922 I4.57 J-7.132
X351.009 Y1142.565 I4.065 J-11.276
X351.703 Y1142.615 I1.058 J-9.901
X353.148 Y1141.674 I0.055 J-1.497
G3 X354.411 Y1140.499 I1.879 J0.752
G2 X354.715 Y1140.394 I-2.207 J-6.901
X355.209 Y1140.194 I-3.103 J-8.394
X355.696 Y1139.978 I-21.348 J-48.636
G3 X355.978 Y1140.161 I0.082 J0.183
G1 X355.934 Y1159.74
G3 X335.039 Y1159.74 I-10.448 J0
G1 X334.993 Y1141.063
G3 X335.301 Y1140.8 I0.266 J0
G2 X336.213 Y1140.924 I3.496 J-22.289
X337.133 Y1140.942 I0.552 J-4.789
X343.916 Y1138.11 I-0.893 J-11.679
X344.172 Y1137.874 I-3.65 J-4.208
G3 X344.427 Y1137.637 I3.906 J3.971
X344.933 Y1137.635 I0.254 J0.292
G2 X346.764 Y1139.107 I24.941 J-29.168
X348.829 Y1140.224 I4.729 J-6.27
X351.757 Y1140.83 I3.577 J-9.923
X354.411 Y1140.499 I0.446 J-7.231
X355.45 Y1139.112 I-0.456 J-1.424
G3 X356.252 Y1137.575 I1.966 J0.049
G2 X357.121 Y1136.82 I-4.177 J-5.689
X357.326 Y1136.598 I-3.46 J-3.383
G3 X357.53 Y1136.375 I3.665 J3.161
X357.784 Y1136.478 I0.106 J0.103
G1 X357.738 Y1159.74
G3 X333.233 Y1159.74 I-12.253 J0
G1 X333.189 Y1138.557
G3 X333.476 Y1138.369 I0.205 J0
G1 X334.333 Y1138.741
G2 X335.272 Y1139.014 I1.535 J-3.531
X337.053 Y1139.141 I1.637 J-10.433
X338.812 Y1138.837 I-0.078 J-5.69
X340.881 Y1137.991 I-6.066 J-17.788
X342.749 Y1136.764 I-3.635 J-7.57
X343.571 Y1136.017 I-16.307 J-18.797
X344.368 Y1135.243 I-31.049 J-32.717
G3 X344.863 Y1135.212 I0.265 J0.265
X345.568 Y1135.837 I-4.625 J5.933
G2 X346.273 Y1136.461 I6.113 J-6.192
X347.773 Y1137.623 I49.858 J-62.843
X349.441 Y1138.526 I3.814 J-5.049
X351.751 Y1139.031 I3.066 J-8.503
X354.094 Y1138.712 I0.455 J-5.424
X355.713 Y1137.934 I-3.329 J-9.005
X356.252 Y1137.575 I-3.637 J-6.048
X356.781 Y1135.915 I-0.877 J-1.194
G3 X357.091 Y1134.201 I1.729 J-0.573
G2 X357.575 Y1133.59 I-42.411 J-34.091
G3 X358.517 Y1132.471 I15.65 J12.215
X358.842 Y1132.538 I0.143 J0.13
X359.552 Y1134.977 I-25.153 J8.645
X359.589 Y1135.287 I-1.309 J0.31
G1 X359.543 Y1159.74
G3 X331.428 Y1159.74 I-14.057 J0
G1 X331.384 Y1135.332
G3 X331.655 Y1135.188 I0.174 J0
X332.647 Y1135.914 I-8.719 J12.941
G2 X333.7 Y1136.547 I2.933 J-3.689
X335.23 Y1137.138 I7.844 J-18.042
X336.858 Y1137.343 I1.315 J-3.88
X338.104 Y1137.128 I-0.514 J-6.715
X339.314 Y1136.758 I-5.154 J-19.03
X340.263 Y1136.288 I-1.303 J-3.82
G3 X341.15 Y1135.71 I21.169 J31.496
G2 X342.529 Y1134.581 I-3.916 J-6.193
G3 X343.776 Y1133.308 I54.16 J51.802
G2 X343.962 Y1133.107 I-2.443 J-2.45
G3 X344.148 Y1132.904 I3.091 J2.644
X344.676 Y1132.842 I0.303 J0.297
X346.066 Y1133.907 I-4.998 J7.958
G2 X347.394 Y1135.047 I15.52 J-16.747
X349.36 Y1136.487 I19.742 J-24.884
X351.683 Y1137.222 I2.405 J-3.561
X353.337 Y1137.054 I0.132 J-6.95
X354.85 Y1136.366 I-0.89 J-3.967
X355.806 Y1135.605 I-8.941 J-12.199
X356.66 Y1134.73 I-4.771 J-5.514
X357.091 Y1134.201 I-41.98 J-34.621
X357.252 Y1132.568 I-1.169 J-0.94
G3 X357.461 Y1130.94 I1.273 J-0.664
G1 X357.984 Y1130.363
X358.536 Y1129.926
X358.914 Y1129.746
X359.064 Y1129.733
X359.213 Y1129.788
X359.557 Y1130.088
X360.012 Y1130.739
X360.478 Y1131.728
X360.895 Y1132.942
X361.225 Y1134.187
X361.348 Y1134.703
X361.398 Y1134.922
Y1159.74
G3 X329.573 Y1159.74 I-15.913 J0
G1 Y1134.808
X329.665 Y1133.736
X329.831 Y1133.012
X330.007 Y1132.629
X330.11 Y1132.51
X330.137 Y1132.495
X330.224 Y1132.481
X330.479 Y1132.51
X330.848 Y1132.629
X331.954 Y1133.206
X333.097 Y1133.977
X334.189 Y1134.709
G2 X334.44 Y1134.846 I0.884 J-1.319
G1 X335.452 Y1135.286
G2 X335.839 Y1135.398 I0.633 J-1.456
G1 X336.349 Y1135.478
G2 X336.716 Y1135.493 I0.246 J-1.568
G1 X337.239 Y1135.453
G2 X337.63 Y1135.373 I-0.121 J-1.583
G1 X338.715 Y1135.003
G2 X339.051 Y1134.842 I-0.512 J-1.503
G1 X340.158 Y1134.142
X340.257 Y1134.074
X340.35 Y1133.999
X341.422 Y1133.069
X341.503 Y1132.994
X342.486 Y1132.014
X342.499 Y1132.001
X343.305 Y1131.179
X343.823 Y1130.747
X344.142 Y1130.624
X344.301 Y1130.652
X345.115 Y1130.98
X346.136 Y1131.621
X347.302 Y1132.53
X348.502 Y1133.557
X348.547 Y1133.594
X349.694 Y1134.504
X349.772 Y1134.562
X349.853 Y1134.615
X350.393 Y1134.945
G2 X350.683 Y1135.083 I0.828 J-1.355
G1 X351.21 Y1135.273
G2 X351.718 Y1135.367 I0.538 J-1.493
G1 X352.244 Y1135.377
G2 X352.824 Y1135.279 I0.03 J-1.587
G1 X353.365 Y1135.079
G2 X353.754 Y1134.87 I-0.55 J-1.489
G1 X354.327 Y1134.45
G2 X354.523 Y1134.28 I-0.939 J-1.28
G1 X355.139 Y1133.65
X355.229 Y1133.55
X356.574 Y1131.919
X357.461 Y1130.94
X357.506 Y1130.899 Z-1.488 F600
X357.558 Y1130.868 Z-1.476
X357.606 Y1130.849 Z-1.441
X357.656 Y1130.838 Z-1.407
X357.725 Y1130.837 Z-1.304
X357.749 Y1130.84 Z-1.183
Z5
G0 X344.44 Y1151.165
G1 Z1.317 F300
X344.424 Y1151.148 Z1.198
X344.38 Y1151.099 Z1.097
X344.319 Y1151.021 Z1.027
X344.253 Y1150.923 Z1
G3 X346.812 Y1149.326 Z0.835 I1.28 J-0.798
X344.253 Y1150.923 Z0.669 I-1.28 J0.798
X346.812 Y1149.326 Z0.504 I1.28 J-0.798
X344.253 Y1150.923 Z0.338 I-1.28 J0.798
X346.812 Y1149.326 Z0.173 I1.28 J-0.798
X344.253 Y1150.923 Z0.007 I-1.28 J0.798
X346.812 Y1149.326 Z-0.158 I1.28 J-0.798
X344.253 Y1150.923 Z-0.324 I-1.28 J0.798
X346.812 Y1149.326 Z-0.489 I1.28 J-0.798
X344.253 Y1150.923 Z-0.655 I-1.28 J0.798
X346.812 Y1149.326 Z-0.82 I1.28 J-0.798
X344.253 Y1150.923 Z-0.985 I-1.28 J0.798
X346.812 Y1149.326 Z-1.151 I1.28 J-0.798
X344.253 Y1150.923 Z-1.316 I-1.28 J0.798
X346.812 Y1149.326 Z-1.482 I1.28 J-0.798
X344.253 Y1150.923 Z-1.647 I-1.28 J0.798
X346.812 Y1149.326 Z-1.813 I1.28 J-0.798
X344.253 Y1150.923 Z-1.978 I-1.28 J0.798
X346.812 Y1149.326 Z-2.144 I1.28 J-0.798
X344.253 Y1150.923 Z-2.309 I-1.28 J0.798
X346.812 Y1149.326 Z-2.474 I1.28 J-0.798
X344.253 Y1150.923 Z-2.64 I-1.28 J0.798
X346.812 Y1149.326 Z-2.805 I1.28 J-0.798
X344.253 Y1150.923 Z-2.971 I-1.28 J0.798
X344.024 Y1150.131 Z-3 I1.28 J-0.798
G1 X344.018 Y1148.813 F1000
G3 X344.358 Y1148.304 I0.551 J0
G1 X344.389 Y1148.291
G3 X344.831 Y1148.294 I0.218 J0.521
G2 X345.717 Y1148.651 I6.934 J-15.957
X346.617 Y1148.969 I11.334 J-30.57
G3 X346.953 Y1149.438 I-0.158 J0.469
G1 X346.909 Y1159.74
G3 X344.064 Y1159.74 I-1.423 J0
G1 X344.024 Y1150.131
G2 X342.952 Y1148.709 I-1.487 J0.006
G3 X342.897 Y1146.928 I0.261 J-0.899
G2 X343.401 Y1146.741 I-7.789 J-21.719
X344.229 Y1146.388 I-4.643 J-12.055
G3 X345.017 Y1146.394 I0.388 J0.831
G2 X348.428 Y1147.615 I7.367 J-15.204
G3 X348.759 Y1148.034 I-0.101 J0.42
G1 X348.714 Y1159.74
G3 X342.259 Y1159.74 I-3.228 J0
G1 X342.214 Y1147.525
G3 X342.555 Y1147.048 I0.504 J0
G2 X342.897 Y1146.928 I-7.447 J-21.839
X343.767 Y1145.438 I-0.453 J-1.264
G3 X345.177 Y1144.443 I0.943 J-0.161
G2 X350.24 Y1146.111 I6.819 J-12.185
G3 X350.564 Y1146.476 I-0.045 J0.366
G1 X350.518 Y1159.74
G3 X340.453 Y1159.74 I-5.033 J0
G1 X340.409 Y1146.202
G3 X340.742 Y1145.752 I0.471 J0
G2 X342.56 Y1145.134 I-8.869 J-29.081
X344.3 Y1144.323 I-4.392 J-11.697
G3 X344.975 Y1144.328 I0.334 J0.592
G1 X345.177 Y1144.443
G2 X346.867 Y1144.277 I0.726 J-1.297
G3 X348.527 Y1143.92 I1.161 J1.362
G2 X349.543 Y1144.177 I4.244 J-14.63
X351.546 Y1144.411 I2.2 J-10.147
X351.799 Y1144.408 I0.077 J-4.044
G3 X352.051 Y1144.405 I0.176 J4.041
X352.368 Y1144.729 I-0.006 J0.323
G1 X352.323 Y1159.74
G3 X338.648 Y1159.74 I-6.837 J0
G1 X338.603 Y1144.719
G3 X338.929 Y1144.332 I0.393 J0
G2 X341.499 Y1143.654 I-2.62 J-15.13
X343.886 Y1142.488 I-4.105 J-11.434
X344.102 Y1142.341 I-2.231 J-3.529
G3 X344.318 Y1142.195 I2.447 J3.382
X344.949 Y1142.197 I0.314 J0.496
G2 X346.237 Y1142.983 I18.303 J-28.537
X347.605 Y1143.62 I4.219 J-7.271
X348.527 Y1143.92 I5.167 J-14.331
X350.155 Y1143.365 I0.418 J-1.44
G3 X351.703 Y1142.615 I1.481 J1.082
G2 X353.872 Y1142.457 I0.364 J-9.95
G3 X354.173 Y1142.708 I0.046 J0.251
G1 X354.129 Y1159.74
G3 X336.844 Y1159.74 I-8.643 J0
G1 X336.798 Y1143.045
G3 X337.117 Y1142.707 I0.338 J0
G2 X338.562 Y1142.577 I-1.4 J-23.604
X339.977 Y1142.253 I-0.841 J-6.938
X341.494 Y1141.707 I-15.295 J-44.853
X342.937 Y1140.986 I-2.849 J-7.507
X343.691 Y1140.49 I-12.982 J-20.531
X344.431 Y1139.972 I-26.862 J-39.178
G3 X344.98 Y1139.986 I0.265 J0.372
G2 X346.52 Y1141.086 I11.672 J-14.712
X348.217 Y1141.922 I4.57 J-7.132
X351.009 Y1142.565 I4.065 J-11.276
X351.703 Y1142.615 I1.058 J-9.901
X353.148 Y1141.674 I0.055 J-1.497
G3 X354.411 Y1140.499 I1.879 J0.752
G2 X354.715 Y1140.394 I-2.207 J-6.901
X355.209 Y1140.194 I-3.103 J-8.394
X355.696 Y1139.978 I-21.348 J-48.636
G3 X355.978 Y1140.161 I0.082 J0.183
G1 X355.934 Y1159.74
G3 X335.039 Y1159.74 I-10.448 J0
G1 X334.993 Y1141.063
G3 X335.301 Y1140.8 I0.266 J0
G2 X336.213 Y1140.924 I3.496 J-22.289
X337.133 Y1140.942 I0.552 J-4.789
X343.916 Y1138.11 I-0.893 J-11.679
X344.172 Y1137.874 I-3.65 J-4.208
G3 X344.427 Y1137.637 I3.906 J3.971
X344.933 Y1137.635 I0.254 J0.292
G2 X346.764 Y1139.107 I24.941 J-29.168
X348.829 Y1140.224 I4.729 J-6.27
X351.757 Y1140.83 I3.577 J-9.923
X354.411 Y1140.499 I0.446 J-7.231
X355.45 Y1139.112 I-0.456 J-1.424
G3 X356.252 Y1137.575 I1.966 J0.049
G2 X357.121 Y1136.82 I-4.177 J-5.689
X357.326 Y1136.598 I-3.46 J-3.383
G3 X357.53 Y1136.375 I3.665 J3.161
X357.784 Y1136.478 I0.106 J0.103
G1 X357.738 Y1159.74
G3 X333.233 Y1159.74 I-12.253 J0
G1 X333.189 Y1138.557
G3 X333.476 Y1138.369 I0.205 J0
G1 X334.333 Y1138.741
G2 X335.272 Y1139.014 I1.535 J-3.531
X337.053 Y1139.141 I1.637 J-10.433
X338.812 Y1138.837 I-0.078 J-5.69
X340.881 Y1137.991 I-6.066 J-17.788
X342.749 Y1136.764 I-3.635 J-7.57
X343.571 Y1136.017 I-16.307 J-18.797
X344.368 Y1135.243 I-31.049 J-32.717
G3 X344.863 Y1135.212 I0.265 J0.265
X345.568 Y1135.837 I-4.625 J5.933
G2 X346.273 Y1136.461 I6.113 J-6.192
X347.773 Y1137.623 I49.858 J-62.843
X349.441 Y1138.526 I3.814 J-5.049
X351.751 Y1139.031 I3.066 J-8.503
X354.094 Y1138.712 I0.455 J-5.424
X355.713 Y1137.934 I-3.329 J-9.005
X356.252 Y1137.575 I-3.637 J-6.048
X356.781 Y1135.915 I-0.877 J-1.194
G3 X357.091 Y1134.201 I1.729 J-0.573
G2 X357.575 Y1133.59 I-42.411 J-34.091
G3 X358.517 Y1132.471 I15.65 J12.215
X358.842 Y1132.538 I0.143 J0.13
X359.552 Y1134.977 I-25.153 J8.645
X359.589 Y1135.287 I-1.309 J0.31
G1 X359.543 Y1159.74
G3 X331.428 Y1159.74 I-14.057 J0
G1 X331.384 Y1135.332
G3 X331.655 Y1135.188 I0.174 J0
X332.647 Y1135.914 I-8.719 J12.941
G2 X333.7 Y1136.547 I2.933 J-3.689
X335.23 Y1137.138 I7.844 J-18.042
X336.858 Y1137.343 I1.315 J-3.88
X338.104 Y1137.128 I-0.514 J-6.715
X339.314 Y1136.758 I-5.154 J-19.03
X340.263 Y1136.288 I-1.303 J-3.82
G3 X341.15 Y1135.71 I21.169 J31.496
G2 X342.529 Y1134.581 I-3.916 J-6.193
G3 X343.776 Y1133.308 I54.16 J51.802
G2 X343.962 Y1133.107 I-2.443 J-2.45
G3 X344.148 Y1132.904 I3.091 J2.644
X344.676 Y1132.842 I0.303 J0.297
X346.066 Y1133.907 I-4.998 J7.958
G2 X347.394 Y1135.047 I15.52 J-16.747
X349.36 Y1136.487 I19.742 J-24.884
X351.683 Y1137.222 I2.405 J-3.561
X353.337 Y1137.054 I0.132 J-6.95
X354.85 Y1136.366 I-0.89 J-3.967
X355.806 Y1135.605 I-8.941 J-12.199
X356.66 Y1134.73 I-4.771 J-5.514
X357.091 Y1134.201 I-41.98 J-34.621
X357.252 Y1132.568 I-1.169 J-0.94
G3 X357.461 Y1130.94 I1.273 J-0.664
G1 X357.984 Y1130.363
X358.536 Y1129.926
X358.914 Y1129.746
X359.064 Y1129.733
X359.213 Y1129.788
X359.557 Y1130.088
X360.012 Y1130.739
X360.478 Y1131.728
X360.895 Y1132.942
X361.225 Y1134.187
X361.348 Y1134.703
X361.398 Y1134.922
Y1159.74
G3 X329.573 Y1159.74 I-15.913 J0
G1 Y1134.808
X329.665 Y1133.736
X329.831 Y1133.012
X330.007 Y1132.629
X330.11 Y1132.51
X330.137 Y1132.495
X330.224 Y1132.481
X330.479 Y1132.51
X330.848 Y1132.629
X331.954 Y1133.206
X333.097 Y1133.977
X334.189 Y1134.709
G2 X334.44 Y1134.846 I0.884 J-1.319
G1 X335.452 Y1135.286
G2 X335.839 Y1135.398 I0.633 J-1.456
G1 X336.349 Y1135.478
G2 X336.716 Y1135.493 I0.246 J-1.568
G1 X337.239 Y1135.453
G2 X337.63 Y1135.373 I-0.121 J-1.583
G1 X338.715 Y1135.003
G2 X339.051 Y1134.842 I-0.512 J-1.503
G1 X340.158 Y1134.142
X340.257 Y1134.074
X340.35 Y1133.999
X341.422 Y1133.069
X341.503 Y1132.994
X342.486 Y1132.014
X342.499 Y1132.001
X343.305 Y1131.179
X343.823 Y1130.747
X344.142 Y1130.624
X344.301 Y1130.652
X345.115 Y1130.98
X346.136 Y1131.621
X347.302 Y1132.53
X348.502 Y1133.557
X348.547 Y1133.594
X349.694 Y1134.504
X349.772 Y1134.562
X349.853 Y1134.615
X350.393 Y1134.945
G2 X350.683 Y1135.083 I0.828 J-1.355
G1 X351.21 Y1135.273
G2 X351.718 Y1135.367 I0.538 J-1.493
G1 X352.244 Y1135.377
G2 X352.824 Y1135.279 I0.03 J-1.587
G1 X353.365 Y1135.079
G2 X353.754 Y1134.87 I-0.55 J-1.489
G1 X354.327 Y1134.45
G2 X354.523 Y1134.28 I-0.939 J-1.28
G1 X355.139 Y1133.65
X355.229 Y1133.55
X356.574 Y1131.919
X357.461 Y1130.94
X357.506 Y1130.899 Z-2.988 F600
X357.558 Y1130.868 Z-2.976
X357.606 Y1130.849 Z-2.941
X357.656 Y1130.838 Z-2.907
X357.725 Y1130.837 Z-2.804
X357.749 Y1130.84 Z-2.683
Z5
G0 X232.562 Y1149.954
G1 Z2.817 F300
X232.577 Y1149.971 Z2.698
X232.621 Y1150.021 Z2.597
X232.682 Y1150.099 Z2.527
X232.748 Y1150.197 Z2.5
G3 X230.183 Y1151.783 Z2.335 I-1.283 J0.793
X232.748 Y1150.197 Z2.169 I1.283 J-0.793
X230.183 Y1151.783 Z2.004 I-1.283 J0.793
X232.748 Y1150.197 Z1.838 I1.283 J-0.793
X230.183 Y1151.783 Z1.673 I-1.283 J0.793
X232.748 Y1150.197 Z1.507 I1.283 J-0.793
X230.183 Y1151.783 Z1.342 I-1.283 J0.793
X232.748 Y1150.197 Z1.176 I1.283 J-0.793
X230.183 Y1151.783 Z1.011 I-1.283 J0.793
X232.748 Y1150.197 Z0.845 I1.283 J-0.793
X230.183 Y1151.783 Z0.68 I-1.283 J0.793
X232.748 Y1150.197 Z0.515 I1.283 J-0.793
X230.183 Y1151.783 Z0.349 I-1.283 J0.793
X232.748 Y1150.197 Z0.184 I1.283 J-0.793
X230.183 Y1151.783 Z0.018 I-1.283 J0.793
X232.748 Y1150.197 Z-0.147 I1.283 J-0.793
X230.183 Y1151.783 Z-0.313 I-1.283 J0.793
X232.748 Y1150.197 Z-0.478 I1.283 J-0.793
X230.183 Y1151.783 Z-0.644 I-1.283 J0.793
X232.748 Y1150.197 Z-0.809 I1.283 J-0.793
X230.183 Y1151.783 Z-0.974 I-1.283 J0.793
X232.748 Y1150.197 Z-1.14 I1.283 J-0.793
X230.183 Y1151.783 Z-1.305 I-1.283 J0.793
X232.748 Y1150.197 Z-1.471 I1.283 J-0.793
X232.973 Y1150.99 Z-1.5 I-1.283 J0.793
X231.628 Y1150.99 I-0.673 J0 F1000
X234.878 Y1150.99 I1.625 J0
X229.723 Y1150.99 I-2.577 J0
X236.783 Y1150.99 I3.53 J0
X227.818 Y1150.99 I-4.482 J0
X238.689 Y1150.99 I5.435 J0
X225.913 Y1150.99 I-6.388 J0
X240.594 Y1150.99 I7.34 J0
X224.008 Y1150.99 I-8.293 J0
X242.499 Y1150.99 I9.245 J0
X222.104 Y1150.99 I-10.198 J0
X244.404 Y1150.99 I11.15 J0
X220.199 Y1150.99 I-12.103 J0
X246.309 Y1150.99 I13.055 J0
X218.294 Y1150.99 I-14.008 J0
X248.214 Y1150.99 I14.96 J0
X216.388 Y1150.99 I-15.913 J0
X248.214 Y1150.99 I15.913 J0
G1 X248.208 Y1151.05 Z-1.488 F600
X248.191 Y1151.109 Z-1.476
X248.168 Y1151.155 Z-1.441
X248.137 Y1151.196 Z-1.407
X248.087 Y1151.243 Z-1.304
X248.068 Y1151.257 Z-1.183
Z5
G0 X232.562 Y1149.954
G1 Z1.317 F300
X232.577 Y1149.971 Z1.198
X232.621 Y1150.021 Z1.097
X232.682 Y1150.099 Z1.027
X232.748 Y1150.197 Z1
G3 X230.183 Y1151.783 Z0.835 I-1.283 J0.793
X232.748 Y1150.197 Z0.669 I1.283 J-0.793
X230.183 Y1151.783 Z0.504 I-1.283 J0.793
X232.748 Y1150.197 Z0.338 I1.283 J-0.793
X230.183 Y1151.783 Z0.173 I-1.283 J0.793
X232.748 Y1150.197 Z0.007 I1.283 J-0.793
X230.183 Y1151.783 Z-0.158 I-1.283 J0.793
X232.748 Y1150.197 Z-0.324 I1.283 J-0.793
X230.183 Y1151.783 Z-0.489 I-1.283 J0.793
X232.748 Y1150.197 Z-0.655 I1.283 J-0.793
X230.183 Y1151.783 Z-0.82 I-1.283 J0.793
X232.748 Y1150.197 Z-0.985 I1.283 J-0.793
X230.183 Y1151.783 Z-1.151 I-1.283 J0.793
X232.748 Y1150.197 Z-1.316 I1.283 J-0.793
X230.183 Y1151.783 Z-1.482 I-1.283 J0.793
X232.748 Y1150.197 Z-1.647 I1.283 J-0.793
X230.183 Y1151.783 Z-1.813 I-1.283 J0.793
X232.748 Y1150.197 Z-1.978 I1.283 J-0.793
X230.183 Y1151.783 Z-2.144 I-1.283 J0.793
X232.748 Y1150.197 Z-2.309 I1.283 J-0.793
X230.183 Y1151.783 Z-2.474 I-1.283 J0.793
X232.748 Y1150.197 Z-2.64 I1.283 J-0.793
X230.183 Y1151.783 Z-2.805 I-1.283 J0.793
X232.748 Y1150.197 Z-2.971 I1.283 J-0.793
X232.973 Y1150.99 Z-3 I-1.283 J0.793
X231.628 Y1150.99 I-0.673 J0 F1000
X234.878 Y1150.99 I1.625 J0
X229.723 Y1150.99 I-2.577 J0
X236.783 Y1150.99 I3.53 J0
X227.818 Y1150.99 I-4.482 J0
X238.689 Y1150.99 I5.435 J0
X225.913 Y1150.99 I-6.388 J0
X240.594 Y1150.99 I7.34 J0
X224.008 Y1150.99 I-8.293 J0
X242.499 Y1150.99 I9.245 J0
X222.104 Y1150.99 I-10.198 J0
X244.404 Y1150.99 I11.15 J0
X220.199 Y1150.99 I-12.103 J0
X246.309 Y1150.99 I13.055 J0
X218.294 Y1150.99 I-14.008 J0
X248.214 Y1150.99 I14.96 J0
X216.388 Y1150.99 I-15.913 J0
X248.214 Y1150.99 I15.913 J0
G1 X248.208 Y1151.05 Z-2.988 F600
X248.191 Y1151.109 Z-2.976
X248.168 Y1151.155 Z-2.941
X248.137 Y1151.196 Z-2.907
X248.087 Y1151.243 Z-2.804
X248.068 Y1151.257 Z-2.683
Z5
G0 X223.716 Y1352.086
G1 Z2.817 F300
X223.7 Y1352.069 Z2.698
X223.656 Y1352.019 Z2.597
X223.595 Y1351.941 Z2.527
X223.529 Y1351.843 Z2.5
G3 X226.095 Y1350.257 Z2.335 I1.283 J-0.793
X223.529 Y1351.843 Z2.169 I-1.283 J0.793
X226.095 Y1350.257 Z2.004 I1.283 J-0.793
X223.529 Y1351.843 Z1.838 I-1.283 J0.793
X226.095 Y1350.257 Z1.673 I1.283 J-0.793
X223.529 Y1351.843 Z1.507 I-1.283 J0.793
X226.095 Y1350.257 Z1.342 I1.283 J-0.793
X223.529 Y1351.843 Z1.176 I-1.283 J0.793
X226.095 Y1350.257 Z1.011 I1.283 J-0.793
X223.529 Y1351.843 Z0.845 I-1.283 J0.793
X226.095 Y1350.257 Z0.68 I1.283 J-0.793
X223.529 Y1351.843 Z0.515 I-1.283 J0.793
X226.095 Y1350.257 Z0.349 I1.283 J-0.793
X223.529 Y1351.843 Z0.184 I-1.283 J0.793
X226.095 Y1350.257 Z0.018 I1.283 J-0.793
X223.529 Y1351.843 Z-0.147 I-1.283 J0.793
X226.095 Y1350.257 Z-0.313 I1.283 J-0.793
X223.529 Y1351.843 Z-0.478 I-1.283 J0.793
X226.095 Y1350.257 Z-0.644 I1.283 J-0.793
X223.529 Y1351.843 Z-0.809 I-1.283 J0.793
X226.095 Y1350.257 Z-0.974 I1.283 J-0.793
X223.529 Y1351.843 Z-1.14 I-1.283 J0.793
X226.095 Y1350.257 Z-1.305 I1.283 J-0.793
X223.529 Y1351.843 Z-1.471 I-1.283 J0.793
X223.304 Y1351.05 Z-1.5 I1.283 J-0.793
X224.762 Y1346.147 I8.972 J0 F1000
X228.688 Y1342.868 I7.325 J4.78
G1 X228.724 Y1342.86
X228.759 Y1342.866
X228.79 Y1342.885
X228.812 Y1342.914
X228.822 Y1342.948
X228.818 Y1342.984
X228.801 Y1343.016
X228.774 Y1343.04
G3 X228.293 Y1343.298 I-4.369 J-7.567
G2 X227.812 Y1343.556 I3.888 J7.825
X227.812 Y1358.544 I4.327 J7.494
X228.293 Y1358.802 I4.369 J-7.567
G3 X228.774 Y1359.06 I-3.888 J7.825
G1 X228.801 Y1359.084
X228.818 Y1359.116
X228.822 Y1359.152
X228.812 Y1359.186
X228.79 Y1359.215
X228.759 Y1359.234
X228.724 Y1359.24
X228.688 Y1359.232
G3 X224.762 Y1355.953 I3.399 J-8.06
X223.304 Y1351.05 I7.513 J-4.903
G2 X222.567 Y1349.89 I-1.281 J0
G3 X221.97 Y1348.653 I0.464 J-0.987
X235.112 Y1340.988 I10.205 J2.397
G1 X235.151 Y1341.007
X235.181 Y1341.037
X235.2 Y1341.076
X235.205 Y1341.119
X235.196 Y1341.161
X235.174 Y1341.198
X235.14 Y1341.225
X228.613 Y1344.942
G2 X228.613 Y1357.158 I3.526 J6.108
X231.877 Y1359.016 I156.743 J-271.479
G3 X235.14 Y1360.875 I-153.479 J273.337
G1 X235.174 Y1360.902
X235.196 Y1360.939
X235.205 Y1360.981
X235.2 Y1361.024
X235.181 Y1361.063
X235.151 Y1361.093
X235.112 Y1361.112
G3 X221.692 Y1351.05 I-2.963 J-10.028
X221.97 Y1348.653 I10.482 J0
G2 X221.461 Y1347.198 I-1.398 J-0.328
G3 X221.116 Y1345.695 I0.763 J-0.966
X238.955 Y1340.815 I11.052 J5.355
X238.946 Y1341.113 I-0.097 J0.146
G1 X229.515 Y1346.506
G2 X229.515 Y1355.594 I2.624 J4.544
G1 X238.946 Y1360.987
G3 X238.955 Y1361.285 I-0.088 J0.152
X219.887 Y1351.05 I-6.8 J-10.211
X221.116 Y1345.695 I12.281 J0
G2 X220.933 Y1344.152 I-1.296 J-0.628
G3 X220.899 Y1342.6 I0.972 J-0.798
X242.078 Y1341.046 I11.267 J8.45
X242.03 Y1341.416 I-0.166 J0.167
G1 X230.418 Y1348.069
G2 X230.418 Y1354.031 I1.721 J2.981
G1 X242.03 Y1360.684
G3 X242.078 Y1361.054 I-0.118 J0.204
X218.082 Y1351.05 I-9.92 J-9.986
X220.899 Y1342.6 I14.084 J0
G2 X221.015 Y1341.006 I-1.183 J-0.888
G3 X221.27 Y1339.428 I1.148 J-0.624
X245.057 Y1341.759 I10.869 J11.622
G1 X231.345 Y1349.675
G2 X231.345 Y1352.425 I0.794 J1.375
G1 X245.057 Y1360.341
G3 X221.632 Y1363 I-12.918 J-9.291
X221.27 Y1339.428 I10.507 J-11.95
G1 X221.318 Y1339.391 Z-1.488 F600
X221.373 Y1339.364 Z-1.476
X221.422 Y1339.349 Z-1.441
X221.473 Y1339.343 Z-1.407
X221.542 Y1339.347 Z-1.304
X221.565 Y1339.352 Z-1.183
Z5
G0 X223.716 Y1352.086
G1 Z1.317 F300
X223.7 Y1352.069 Z1.198
X223.656 Y1352.019 Z1.097
X223.595 Y1351.941 Z1.027
X223.529 Y1351.843 Z1
G3 X226.095 Y1350.257 Z0.835 I1.283 J-0.793
X223.529 Y1351.843 Z0.669 I-1.283 J0.793
X226.095 Y1350.257 Z0.504 I1.283 J-0.793
X223.529 Y1351.843 Z0.338 I-1.283 J0.793
X226.095 Y1350.257 Z0.173 I1.283 J-0.793
X223.529 Y1351.843 Z0.007 I-1.283 J0.793
X226.095 Y1350.257 Z-0.158 I1.283 J-0.793
X223.529 Y1351.843 Z-0.324 I-1.283 J0.793
X226.095 Y1350.257 Z-0.489 I1.283 J-0.793
X223.529 Y1351.843 Z-0.655 I-1.283 J0.793
X226.095 Y1350.257 Z-0.82 I1.283 J-0.793
X223.529 Y1351.843 Z-0.985 I-1.283 J0.793
X226.095 Y1350.257 Z-1.151 I1.283 J-0.793
X223.529 Y1351.843 Z-1.316 I-1.283 J0.793
X226.095 Y1350.257 Z-1.482 I1.283 J-0.793
X223.529 Y1351.843 Z-1.647 I-1.283 J0.793
X226.095 Y1350.257 Z-1.813 I1.283 J-0.793
X223.529 Y1351.843 Z-1.978 I-1.283 J0.793
X226.095 Y1350.257 Z-2.144 I1.283 J-0.793
X223.529 Y1351.843 Z-2.309 I-1.283 J0.793
X226.095 Y1350.257 Z-2.474 I1.283 J-0.793
X223.529 Y1351.843 Z-2.64 I-1.283 J0.793
X226.095 Y1350.257 Z-2.805 I1.283 J-0.793
X223.529 Y1351.843 Z-2.971 I-1.283 J0.793
X223.304 Y1351.05 Z-3 I1.283 J-0.793
X224.762 Y1346.147 I8.972 J0 F1000
X228.688 Y1342.868 I7.325 J4.78
G1 X228.724 Y1342.86
X228.759 Y1342.866
X228.79 Y1342.885
X228.812 Y1342.914
X228.822 Y1342.948
X228.818 Y1342.984
X228.801 Y1343.016
X228.774 Y1343.04
G3 X228.293 Y1343.298 I-4.369 J-7.567
G2 X227.812 Y1343.556 I3.888 J7.825
X227.812 Y1358.544 I4.327 J7.494
X228.293 Y1358.802 I4.369 J-7.567
G3 X228.774 Y1359.06 I-3.888 J7.825
G1 X228.801 Y1359.084
X228.818 Y1359.116
X228.822 Y1359.152
X228.812 Y1359.186
X228.79 Y1359.215
X228.759 Y1359.234
X228.724 Y1359.24
X228.688 Y1359.232
G3 X224.762 Y1355.953 I3.399 J-8.06
X223.304 Y1351.05 I7.513 J-4.903
G2 X222.567 Y1349.89 I-1.281 J0
G3 X221.97 Y1348.653 I0.464 J-0.987
X235.112 Y1340.988 I10.205 J2.397
G1 X235.151 Y1341.007
X235.181 Y1341.037
X235.2 Y1341.076
X235.205 Y1341.119
X235.196 Y1341.161
X235.174 Y1341.198
X235.14 Y1341.225
X228.613 Y1344.942
G2 X228.613 Y1357.158 I3.526 J6.108
X231.877 Y1359.016 I156.743 J-271.479
G3 X235.14 Y1360.875 I-153.479 J273.337
G1 X235.174 Y1360.902
X235.196 Y1360.939
X235.205 Y1360.981
X235.2 Y1361.024
X235.181 Y1361.063
X235.151 Y1361.093
X235.112 Y1361.112
G3 X221.692 Y1351.05 I-2.963 J-10.028
X221.97 Y1348.653 I10.482 J0
G2 X221.461 Y1347.198 I-1.398 J-0.328
G3 X221.116 Y1345.695 I0.763 J-0.966
X238.955 Y1340.815 I11.052 J5.355
X238.946 Y1341.113 I-0.097 J0.146
G1 X229.515 Y1346.506
G2 X229.515 Y1355.594 I2.624 J4.544
G1 X238.946 Y1360.987
G3 X238.955 Y1361.285 I-0.088 J0.152
X219.887 Y1351.05 I-6.8 J-10.211
X221.116 Y1345.695 I12.281 J0
G2 X220.933 Y1344.152 I-1.296 J-0.628
G3 X220.899 Y1342.6 I0.972 J-0.798
X242.078 Y1341.046 I11.267 J8.45
X242.03 Y1341.416 I-0.166 J0.167
G1 X230.418 Y1348.069
G2 X230.418 Y1354.031 I1.721 J2.981
G1 X242.03 Y1360.684
G3 X242.078 Y1361.054 I-0.118 J0.204
X218.082 Y1351.05 I-9.92 J-9.986
X220.899 Y1342.6 I14.084 J0
G2 X221.015 Y1341.006 I-1.183 J-0.888
G3 X221.27 Y1339.428 I1.148 J-0.624
X245.057 Y1341.759 I10.869 J11.622
G1 X231.345 Y1349.675
G2 X231.345 Y1352.425 I0.794 J1.375
G1 X245.057 Y1360.341
G3 X221.632 Y1363 I-12.918 J-9.291
X221.27 Y1339.428 I10.507 J-11.95
G1 X221.318 Y1339.391 Z-2.988 F600
X221.373 Y1339.364 Z-2.976
X221.422 Y1339.349 Z-2.941
X221.473 Y1339.343 Z-2.907
X221.542 Y1339.347 Z-2.804
X221.565 Y1339.352 Z-2.683
Z5
G0 X347.765 Y1345.384
G1 Z2.817 F300
X347.78 Y1345.401 Z2.698
X347.824 Y1345.451 Z2.597
X347.884 Y1345.529 Z2.527
X347.95 Y1345.627 Z2.5
G3 X345.378 Y1347.203 Z2.335 I-1.286 J0.788
X347.95 Y1345.627 Z2.169 I1.286 J-0.788
X345.378 Y1347.203 Z2.004 I-1.286 J0.788
X347.95 Y1345.627 Z1.838 I1.286 J-0.788
X345.378 Y1347.203 Z1.673 I-1.286 J0.788
X347.95 Y1345.627 Z1.507 I1.286 J-0.788
X345.378 Y1347.203 Z1.342 I-1.286 J0.788
X347.95 Y1345.627 Z1.176 I1.286 J-0.788
X345.378 Y1347.203 Z1.011 I-1.286 J0.788
X347.95 Y1345.627 Z0.845 I1.286 J-0.788
X345.378 Y1347.203 Z0.68 I-1.286 J0.788
X347.95 Y1345.627 Z0.515 I1.286 J-0.788
X345.378 Y1347.203 Z0.349 I-1.286 J0.788
X347.95 Y1345.627 Z0.184 I1.286 J-0.788
X345.378 Y1347.203 Z0.018 I-1.286 J0.788
X347.95 Y1345.627 Z-0.147 I1.286 J-0.788
X345.378 Y1347.203 Z-0.313 I-1.286 J0.788
X347.95 Y1345.627 Z-0.478 I1.286 J-0.788
X345.378 Y1347.203 Z-0.644 I-1.286 J0.788
X347.95 Y1345.627 Z-0.809 I1.286 J-0.788
X345.378 Y1347.203 Z-0.974 I-1.286 J0.788
X347.95 Y1345.627 Z-1.14 I1.286 J-0.788
X345.378 Y1347.203 Z-1.305 I-1.286 J0.788
X347.95 Y1345.627 Z-1.471 I1.286 J-0.788
X348.172 Y1346.421 Z-1.5 I-1.286 J0.788
G1 X348.133 Y1356.03 F1000
G3 X345.288 Y1356.03 I-1.423 J0
G1 X345.242 Y1345.728
G3 X345.579 Y1345.259 I0.494 J0
G2 X346.473 Y1344.943 I-10.452 J-30.944
X347.353 Y1344.589 I-6.064 J-16.367
G3 X347.796 Y1344.586 I0.225 J0.518
G1 X347.838 Y1344.604
G3 X348.177 Y1345.113 I-0.212 J0.509
G1 X348.172 Y1346.421
G2 X349.068 Y1347.775 I1.463 J0.006
G3 X349.963 Y1349.13 I-0.568 J1.349
G1 X349.938 Y1356.03
G3 X343.483 Y1356.03 I-3.228 J0
G1 X343.438 Y1344.324
G3 X343.768 Y1343.905 I0.432 J0
G2 X347.169 Y1342.689 I-3.913 J-16.303
G3 X347.957 Y1342.684 I0.399 J0.826
G2 X348.79 Y1343.04 I5.673 J-12.109
X349.642 Y1343.347 I6.554 J-16.879
G3 X349.983 Y1343.818 I-0.157 J0.472
G1 X349.963 Y1349.13
G2 X350.86 Y1350.485 I1.464 J0.005
G3 X351.756 Y1351.84 I-0.568 J1.35
G1 X351.742 Y1356.03
G3 X341.677 Y1356.03 I-5.033 J0
G1 X341.633 Y1342.766
G3 X341.956 Y1342.401 I0.368 J0
G2 X347.213 Y1340.623 I-1.659 J-13.567
G3 X347.888 Y1340.619 I0.341 J0.588
G2 X348.953 Y1341.179 I9.952 J-17.635
X350.067 Y1341.633 I3.944 J-8.076
X350.759 Y1341.842 I4.129 J-12.445
G3 X351.454 Y1342.042 I-6.15 J22.645
X351.788 Y1342.492 I-0.137 J0.45
G1 X351.756 Y1351.84
G2 X352.654 Y1353.196 I1.465 J0.005
G3 X353.552 Y1354.551 I-0.568 J1.351
G1 X353.547 Y1356.03
G3 X339.872 Y1356.03 I-6.837 J0
G1 X339.828 Y1341.019
G3 X340.145 Y1340.695 I0.323 J0
X340.397 Y1340.698 I0.077 J4.044
G2 X340.65 Y1340.701 I0.176 J-4.041
X343.704 Y1340.223 I-0.216 J-11.37
X346.526 Y1338.963 I-3.469 J-11.554
X346.887 Y1338.727 I-3.916 J-6.408
G3 X347.246 Y1338.488 I6.848 J9.883
X347.873 Y1338.488 I0.314 J0.489
G1 X348.063 Y1338.619
X348.253 Y1338.749
G2 X350.666 Y1339.936 I6.43 J-10.026
X353.267 Y1340.622 I5.262 J-14.688
G3 X353.592 Y1341.009 I-0.067 J0.387
G1 X353.552 Y1354.551
G2 X354.456 Y1355.875 I1.416 J0.004
G3 X355.265 Y1357.259 I-0.466 J1.201
X338.068 Y1356.03 I-8.555 J-1.229
G1 X338.022 Y1338.998
G3 X338.324 Y1338.746 I0.256 J0
G2 X341.187 Y1338.855 I1.805 J-9.792
X343.979 Y1338.213 I-1.273 J-11.918
X345.676 Y1337.376 I-2.873 J-7.968
X347.216 Y1336.276 I-10.132 J-15.812
G3 X347.765 Y1336.262 I0.284 J0.358
G2 X349.412 Y1337.364 I18.949 J-26.54
X351.204 Y1338.207 I4.409 J-7.043
X352.781 Y1338.685 I10.013 J-30.177
X354.404 Y1338.968 I2.279 J-8.28
X354.742 Y1338.984 I0.446 J-5.833
G3 X355.079 Y1338.997 I-0.154 J8.308
X355.397 Y1339.335 I-0.02 J0.338
G1 X355.353 Y1356.03
G3 X355.265 Y1357.259 I-8.643 J0
G2 X355.888 Y1358.654 I1.416 J0.203
G3 X356.325 Y1360.117 I-0.663 J0.995
X336.263 Y1356.03 I-9.615 J-4.087
G1 X336.217 Y1336.451
G3 X336.5 Y1336.268 I0.2 J0
G2 X338.23 Y1336.897 I5.061 J-11.224
X340.056 Y1337.131 I1.706 J-6.07
X343.146 Y1336.583 I-0.191 J-10.066
X345.898 Y1335.075 I-3.035 J-8.803
X346.467 Y1334.607 I-12.461 J-15.707
G1 X347.263 Y1333.926
G3 X347.768 Y1333.927 I0.252 J0.294
X348.404 Y1334.5 I-14.358 J16.55
G2 X349.079 Y1335.026 I3.198 J-3.407
X350.379 Y1335.844 I46.011 J-71.738
X351.772 Y1336.494 I3.484 J-5.654
X353.395 Y1336.963 I6.879 J-20.733
X355.063 Y1337.232 I2.442 J-9.851
X355.983 Y1337.214 I0.368 J-4.807
X356.895 Y1337.09 I-2.585 J-22.413
G3 X357.203 Y1337.354 I0.041 J0.263
G1 X357.158 Y1356.03
G3 X356.325 Y1360.117 I-10.448 J0
G2 X356.578 Y1361.638 I1.322 J0.562
G3 X356.662 Y1363.178 I-0.916 J0.822
X334.457 Y1356.03 I-9.952 J-7.148
G1 X334.413 Y1332.768
G3 X334.666 Y1332.665 I0.148 J0
X335.165 Y1333.2 I-11.093 J10.846
G2 X335.706 Y1333.692 I2.592 J-2.306
X337.729 Y1334.864 I6.432 J-8.775
X340.022 Y1335.327 I2.19 J-4.94
X342.536 Y1334.885 I-0.157 J-8.265
X344.776 Y1333.661 I-2.427 J-7.106
X345.984 Y1332.647 I-17.893 J-22.553
G3 X347.185 Y1331.625 I25.733 J29.017
G1 X347.259 Y1331.563
X347.333 Y1331.502
G3 X347.828 Y1331.532 I0.23 J0.296
G2 X348.888 Y1332.579 I113.846 J-114.194
X350.053 Y1333.507 I5.107 J-5.218
G1 X351.16 Y1334.217
G2 X352.34 Y1334.781 I2.833 J-4.417
X354.341 Y1335.326 I6.019 J-18.14
X356.414 Y1335.384 I1.193 J-5.549
X357.319 Y1335.203 I-1.684 J-10.733
X358.193 Y1334.908 I-1.297 J-5.289
X358.456 Y1334.783 I-1.862 J-4.284
G3 X358.72 Y1334.658 I2.126 J4.159
X359.008 Y1334.847 I0.082 J0.188
G1 X358.962 Y1356.03
G3 X356.662 Y1363.178 I-12.253 J0
G2 X356.579 Y1364.729 I1.17 J0.84
G3 X356.347 Y1366.265 I-1.094 J0.62
X332.652 Y1356.03 I-9.637 J-10.234
G1 X332.608 Y1331.577
G3 X332.644 Y1331.266 I1.345 J0
X333.354 Y1328.828 I24.459 J5.798
X333.679 Y1328.761 I0.183 J0.063
X334.998 Y1330.326 I-20.896 J18.943
G2 X336.347 Y1331.867 I14.62 J-11.437
X337.457 Y1332.72 I3.55 J-3.471
X338.728 Y1333.309 I4.32 J-7.658
X341.113 Y1333.424 I1.375 J-3.719
X343.31 Y1332.487 I-2.098 J-7.965
X344.727 Y1331.419 I-4.757 J-7.784
G3 X346.068 Y1330.257 I20.504 J22.303
G2 X346.776 Y1329.672 I-51.959 J-63.625
G3 X347.52 Y1329.132 I4.361 J5.22
X348.048 Y1329.194 I0.226 J0.359
X349.459 Y1330.675 I-52.787 J51.708
G2 X351.027 Y1331.988 I5.942 J-5.507
G3 X351.934 Y1332.586 I-22.299 J34.768
G2 X352.909 Y1333.067 I2.217 J-3.265
X354.49 Y1333.527 I6.925 J-20.871
X356.134 Y1333.601 I1.004 J-4.009
X357.645 Y1333.229 I-1.404 J-8.953
X359.04 Y1332.539 I-1.908 J-5.616
X359.79 Y1332.008 I-10.179 J-15.185
G3 X360.541 Y1331.477 I12.031 J16.211
X360.813 Y1331.622 I0.097 J0.144
G1 X360.767 Y1356.03
G3 X356.347 Y1366.265 I-14.057 J0
G2 X355.959 Y1367.82 I1.017 J1.08
G3 X355.437 Y1369.336 I-1.241 J0.421
X330.797 Y1356.03 I-8.727 J-13.306
G1 Y1331.212
X330.848 Y1330.993
X330.971 Y1330.477
X331.301 Y1329.232
X331.718 Y1328.018
X332.184 Y1327.029
X332.639 Y1326.378
X332.983 Y1326.078
X333.132 Y1326.023
X333.282 Y1326.036
X333.66 Y1326.216
X334.212 Y1326.653
X335.622 Y1328.209
X336.967 Y1329.84
X337.057 Y1329.94
X337.673 Y1330.57
G2 X337.87 Y1330.74 I1.135 J-1.11
G1 X338.443 Y1331.16
G2 X338.831 Y1331.369 I0.939 J-1.28
G1 X339.372 Y1331.569
G2 X339.952 Y1331.667 I0.55 J-1.489
G1 X340.478 Y1331.657
G2 X340.986 Y1331.563 I-0.03 J-1.587
G1 X341.513 Y1331.373
G2 X341.803 Y1331.235 I-0.538 J-1.493
G1 X342.343 Y1330.905
X342.424 Y1330.851
X342.502 Y1330.794
X343.649 Y1329.884
X343.694 Y1329.847
X344.894 Y1328.82
X346.06 Y1327.911
X347.081 Y1327.27
X347.88 Y1326.948
X348.049 Y1326.92
X348.071 Y1326.921
X348.373 Y1327.037
X348.891 Y1327.469
X349.697 Y1328.291
X349.71 Y1328.304
X350.693 Y1329.284
X350.774 Y1329.359
X351.846 Y1330.289
X351.935 Y1330.361
X352.029 Y1330.426
X353.136 Y1331.136
G2 X353.493 Y1331.307 I0.857 J-1.336
G1 X354.578 Y1331.667
G2 X354.957 Y1331.743 I0.5 J-1.507
G1 X355.48 Y1331.783
G2 X355.847 Y1331.768 I0.121 J-1.583
G1 X356.357 Y1331.688
G2 X356.744 Y1331.576 I-0.246 J-1.568
G1 X357.756 Y1331.136
G2 X358.007 Y1330.999 I-0.633 J-1.456
G1 X359.096 Y1330.269
X360.242 Y1329.496
X361.348 Y1328.919
X361.717 Y1328.8
X361.972 Y1328.771
X362.059 Y1328.785
X362.086 Y1328.8
X362.189 Y1328.919
X362.365 Y1329.302
X362.531 Y1330.026
X362.622 Y1331.098
Y1356.03
G3 X355.437 Y1369.336 I-15.913 J0
G1 X355.383 Y1369.364 Z-1.488 F600
X355.325 Y1369.382 Z-1.476
X355.274 Y1369.388 Z-1.441
X355.222 Y1369.386 Z-1.407
X355.156 Y1369.37 Z-1.304
X355.133 Y1369.361 Z-1.183
Z5
G0 X347.765 Y1345.384
G1 Z1.317 F300
X347.78 Y1345.401 Z1.198
X347.824 Y1345.451 Z1.097
X347.884 Y1345.529 Z1.027
X347.95 Y1345.627 Z1
G3 X345.378 Y1347.203 Z0.835 I-1.286 J0.788
X347.95 Y1345.627 Z0.669 I1.286 J-0.788
X345.378 Y1347.203 Z0.504 I-1.286 J0.788
X347.95 Y1345.627 Z0.338 I1.286 J-0.788
X345.378 Y1347.203 Z0.173 I-1.286 J0.788
X347.95 Y1345.627 Z0.007 I1.286 J-0.788
X345.378 Y1347.203 Z-0.158 I-1.286 J0.788
X347.95 Y1345.627 Z-0.324 I1.286 J-0.788
X345.378 Y1347.203 Z-0.489 I-1.286 J0.788
X347.95 Y1345.627 Z-0.655 I1.286 J-0.788
X345.378 Y1347.203 Z-0.82 I-1.286 J0.788
X347.95 Y1345.627 Z-0.985 I1.286 J-0.788
X345.378 Y1347.203 Z-1.151 I-1.286 J0.788
X347.95 Y1345.627 Z-1.316 I1.286 J-0.788
X345.378 Y1347.203 Z-1.482 I-1.286 J0.788
X347.95 Y1345.627 Z-1.647 I1.286 J-0.788
X345.378 Y1347.203 Z-1.813 I-1.286 J0.788
X347.95 Y1345.627 Z-1.978 I1.286 J-0.788
X345.378 Y1347.203 Z-2.144 I-1.286 J0.788
X347.95 Y1345.627 Z-2.309 I1.286 J-0.788
X345.378 Y1347.203 Z-2.474 I-1.286 J0.788
X347.95 Y1345.627 Z-2.64 I1.286 J-0.788
X345.378 Y1347.203 Z-2.805 I-1.286 J0.788
X347.95 Y1345.627 Z-2.971 I1.286 J-0.788
X348.172 Y1346.421 Z-3 I-1.286 J0.788
G1 X348.133 Y1356.03 F1000
G3 X345.288 Y1356.03 I-1.423 J0
G1 X345.242 Y1345.728
G3 X345.579 Y1345.259 I0.494 J0
G2 X346.473 Y1344.943 I-10.452 J-30.944
X347.353 Y1344.589 I-6.064 J-16.367
G3 X347.796 Y1344.586 I0.225 J0.518
G1 X347.838 Y1344.604
G3 X348.177 Y1345.113 I-0.212 J0.509
G1 X348.172 Y1346.421
G2 X349.068 Y1347.775 I1.463 J0.006
G3 X349.963 Y1349.13 I-0.568 J1.349
G1 X349.938 Y1356.03
G3 X343.483 Y1356.03 I-3.228 J0
G1 X343.438 Y1344.324
G3 X343.768 Y1343.905 I0.432 J0
G2 X347.169 Y1342.689 I-3.913 J-16.303
G3 X347.957 Y1342.684 I0.399 J0.826
G2 X348.79 Y1343.04 I5.673 J-12.109
X349.642 Y1343.347 I6.554 J-16.879
G3 X349.983 Y1343.818 I-0.157 J0.472
G1 X349.963 Y1349.13
G2 X350.86 Y1350.485 I1.464 J0.005
G3 X351.756 Y1351.84 I-0.568 J1.35
G1 X351.742 Y1356.03
G3 X341.677 Y1356.03 I-5.033 J0
G1 X341.633 Y1342.766
G3 X341.956 Y1342.401 I0.368 J0
G2 X347.213 Y1340.623 I-1.659 J-13.567
G3 X347.888 Y1340.619 I0.341 J0.588
G2 X348.953 Y1341.179 I9.952 J-17.635
X350.067 Y1341.633 I3.944 J-8.076
X350.759 Y1341.842 I4.129 J-12.445
G3 X351.454 Y1342.042 I-6.15 J22.645
X351.788 Y1342.492 I-0.137 J0.45
G1 X351.756 Y1351.84
G2 X352.654 Y1353.196 I1.465 J0.005
G3 X353.552 Y1354.551 I-0.568 J1.351
G1 X353.547 Y1356.03
G3 X339.872 Y1356.03 I-6.837 J0
G1 X339.828 Y1341.019
G3 X340.145 Y1340.695 I0.323 J0
X340.397 Y1340.698 I0.077 J4.044
G2 X340.65 Y1340.701 I0.176 J-4.041
X343.704 Y1340.223 I-0.216 J-11.37
X346.526 Y1338.963 I-3.469 J-11.554
X346.887 Y1338.727 I-3.916 J-6.408
G3 X347.246 Y1338.488 I6.848 J9.883
X347.873 Y1338.488 I0.314 J0.489
G1 X348.063 Y1338.619
X348.253 Y1338.749
G2 X350.666 Y1339.936 I6.43 J-10.026
X353.267 Y1340.622 I5.262 J-14.688
G3 X353.592 Y1341.009 I-0.067 J0.387
G1 X353.552 Y1354.551
G2 X354.456 Y1355.875 I1.416 J0.004
G3 X355.265 Y1357.259 I-0.466 J1.201
X338.068 Y1356.03 I-8.555 J-1.229
G1 X338.022 Y1338.998
G3 X338.324 Y1338.746 I0.256 J0
G2 X341.187 Y1338.855 I1.805 J-9.792
X343.979 Y1338.213 I-1.273 J-11.918
X345.676 Y1337.376 I-2.873 J-7.968
X347.216 Y1336.276 I-10.132 J-15.812
G3 X347.765 Y1336.262 I0.284 J0.358
G2 X349.412 Y1337.364 I18.949 J-26.54
X351.204 Y1338.207 I4.409 J-7.043
X352.781 Y1338.685 I10.013 J-30.177
X354.404 Y1338.968 I2.279 J-8.28
X354.742 Y1338.984 I0.446 J-5.833
G3 X355.079 Y1338.997 I-0.154 J8.308
X355.397 Y1339.335 I-0.02 J0.338
G1 X355.353 Y1356.03
G3 X355.265 Y1357.259 I-8.643 J0
G2 X355.888 Y1358.654 I1.416 J0.203
G3 X356.325 Y1360.117 I-0.663 J0.995
X336.263 Y1356.03 I-9.615 J-4.087
G1 X336.217 Y1336.451
G3 X336.5 Y1336.268 I0.2 J0
G2 X338.23 Y1336.897 I5.061 J-11.224
X340.056 Y1337.131 I1.706 J-6.07
X343.146 Y1336.583 I-0.191 J-10.066
X345.898 Y1335.075 I-3.035 J-8.803
X346.467 Y1334.607 I-12.461 J-15.707
G1 X347.263 Y1333.926
G3 X347.768 Y1333.927 I0.252 J0.294
X348.404 Y1334.5 I-14.358 J16.55
G2 X349.079 Y1335.026 I3.198 J-3.407
X350.379 Y1335.844 I46.011 J-71.738
X351.772 Y1336.494 I3.484 J-5.654
X353.395 Y1336.963 I6.879 J-20.733
X355.063 Y1337.232 I2.442 J-9.851
X355.983 Y1337.214 I0.368 J-4.807
X356.895 Y1337.09 I-2.585 J-22.413
G3 X357.203 Y1337.354 I0.041 J0.263
G1 X357.158 Y1356.03
G3 X356.325 Y1360.117 I-10.448 J0
G2 X356.578 Y1361.638 I1.322 J0.562
G3 X356.662 Y1363.178 I-0.916 J0.822
X334.457 Y1356.03 I-9.952 J-7.148
G1 X334.413 Y1332.768
G3 X334.666 Y1332.665 I0.148 J0
X335.165 Y1333.2 I-11.093 J10.846
G2 X335.706 Y1333.692 I2.592 J-2.306
X337.729 Y1334.864 I6.432 J-8.775
X340.022 Y1335.327 I2.19 J-4.94
X342.536 Y1334.885 I-0.157 J-8.265
X344.776 Y1333.661 I-2.427 J-7.106
X345.984 Y1332.647 I-17.893 J-22.553
G3 X347.185 Y1331.625 I25.733 J29.017
G1 X347.259 Y1331.563
X347.333 Y1331.502
G3 X347.828 Y1331.532 I0.23 J0.296
G2 X348.888 Y1332.579 I113.846 J-114.194
X350.053 Y1333.507 I5.107 J-5.218
G1 X351.16 Y1334.217
G2 X352.34 Y1334.781 I2.833 J-4.417
X354.341 Y1335.326 I6.019 J-18.14
X356.414 Y1335.384 I1.193 J-5.549
X357.319 Y1335.203 I-1.684 J-10.733
X358.193 Y1334.908 I-1.297 J-5.289
X358.456 Y1334.783 I-1.862 J-4.284
G3 X358.72 Y1334.658 I2.126 J4.159
X359.008 Y1334.847 I0.082 J0.188
G1 X358.962 Y1356.03
G3 X356.662 Y1363.178 I-12.253 J0
G2 X356.579 Y1364.729 I1.17 J0.84
G3 X356.347 Y1366.265 I-1.094 J0.62
X332.652 Y1356.03 I-9.637 J-10.234
G1 X332.608 Y1331.577
G3 X332.644 Y1331.266 I1.345 J0
X333.354 Y1328.828 I24.459 J5.798
X333.679 Y1328.761 I0.183 J0.063
X334.998 Y1330.326 I-20.896 J18.943
G2 X336.347 Y1331.867 I14.62 J-11.437
X337.457 Y1332.72 I3.55 J-3.471
X338.728 Y1333.309 I4.32 J-7.658
X341.113 Y1333.424 I1.375 J-3.719
X343.31 Y1332.487 I-2.098 J-7.965
X344.727 Y1331.419 I-4.757 J-7.784
G3 X346.068 Y1330.257 I20.504 J22.303
G2 X346.776 Y1329.672 I-51.959 J-63.625
G3 X347.52 Y1329.132 I4.361 J5.22
X348.048 Y1329.194 I0.226 J0.359
X349.459 Y1330.675 I-52.787 J51.708
G2 X351.027 Y1331.988 I5.942 J-5.507
G3 X351.934 Y1332.586 I-22.299 J34.768
G2 X352.909 Y1333.067 I2.217 J-3.265
X354.49 Y1333.527 I6.925 J-20.871
X356.134 Y1333.601 I1.004 J-4.009
X357.645 Y1333.229 I-1.404 J-8.953
X359.04 Y1332.539 I-1.908 J-5.616
X359.79 Y1332.008 I-10.179 J-15.185
G3 X360.541 Y1331.477 I12.031 J16.211
X360.813 Y1331.622 I0.097 J0.144
G1 X360.767 Y1356.03
G3 X356.347 Y1366.265 I-14.057 J0
G2 X355.959 Y1367.82 I1.017 J1.08
G3 X355.437 Y1369.336 I-1.241 J0.421
X330.797 Y1356.03 I-8.727 J-13.306
G1 Y1331.212
X330.848 Y1330.993
X330.971 Y1330.477
X331.301 Y1329.232
X331.718 Y1328.018
X332.184 Y1327.029
X332.639 Y1326.378
X332.983 Y1326.078
X333.132 Y1326.023
X333.282 Y1326.036
X333.66 Y1326.216
X334.212 Y1326.653
X335.622 Y1328.209
X336.967 Y1329.84
X337.057 Y1329.94
X337.673 Y1330.57
G2 X337.87 Y1330.74 I1.135 J-1.11
G1 X338.443 Y1331.16
G2 X338.831 Y1331.369 I0.939 J-1.28
G1 X339.372 Y1331.569
G2 X339.952 Y1331.667 I0.55 J-1.489
G1 X340.478 Y1331.657
G2 X340.986 Y1331.563 I-0.03 J-1.587
G1 X341.513 Y1331.373
G2 X341.803 Y1331.235 I-0.538 J-1.493
G1 X342.343 Y1330.905
X342.424 Y1330.851
X342.502 Y1330.794
X343.649 Y1329.884
X343.694 Y1329.847
X344.894 Y1328.82
X346.06 Y1327.911
X347.081 Y1327.27
X347.88 Y1326.948
X348.049 Y1326.92
X348.071 Y1326.921
X348.373 Y1327.037
X348.891 Y1327.469
X349.697 Y1328.291
X349.71 Y1328.304
X350.693 Y1329.284
X350.774 Y1329.359
X351.846 Y1330.289
X351.935 Y1330.361
X352.029 Y1330.426
X353.136 Y1331.136
G2 X353.493 Y1331.307 I0.857 J-1.336
G1 X354.578 Y1331.667
G2 X354.957 Y1331.743 I0.5 J-1.507
G1 X355.48 Y1331.783
G2 X355.847 Y1331.768 I0.121 J-1.583
G1 X356.357 Y1331.688
G2 X356.744 Y1331.576 I-0.246 J-1.568
G1 X357.756 Y1331.136
G2 X358.007 Y1330.999 I-0.633 J-1.456
G1 X359.096 Y1330.269
X360.242 Y1329.496
X361.348 Y1328.919
X361.717 Y1328.8
X361.972 Y1328.771
X362.059 Y1328.785
X362.086 Y1328.8
X362.189 Y1328.919
X362.365 Y1329.302
X362.531 Y1330.026
X362.622 Y1331.098
Y1356.03
G3 X355.437 Y1369.336 I-15.913 J0
G1 X355.383 Y1369.364 Z-2.988 F600
X355.325 Y1369.382 Z-2.976
X355.274 Y1369.388 Z-2.941
X355.222 Y1369.386 Z-2.907
X355.156 Y1369.37 Z-2.804
X355.133 Y1369.361 Z-2.683
Z5
G0 Z15

(Poche 2D2 2)
X565.271 Y1136.094
Z15
Z5
G1 Z2.817 F300
X565.255 Y1136.078 Z2.698
X565.211 Y1136.028 Z2.597
X565.15 Y1135.95 Z2.527
X565.083 Y1135.853 Z2.5
G3 X567.642 Y1134.256 Z2.335 I1.279 J-0.798
X565.083 Y1135.853 Z2.169 I-1.279 J0.798
X567.642 Y1134.256 Z2.004 I1.279 J-0.798
X565.083 Y1135.853 Z1.838 I-1.279 J0.798
X567.642 Y1134.256 Z1.673 I1.279 J-0.798
X565.083 Y1135.853 Z1.507 I-1.279 J0.798
X567.642 Y1134.256 Z1.342 I1.279 J-0.798
X565.083 Y1135.853 Z1.176 I-1.279 J0.798
X567.642 Y1134.256 Z1.011 I1.279 J-0.798
X565.083 Y1135.853 Z0.845 I-1.279 J0.798
X567.642 Y1134.256 Z0.68 I1.279 J-0.798
X565.083 Y1135.853 Z0.515 I-1.279 J0.798
X567.642 Y1134.256 Z0.349 I1.279 J-0.798
X565.083 Y1135.853 Z0.184 I-1.279 J0.798
X567.642 Y1134.256 Z0.018 I1.279 J-0.798
X565.083 Y1135.853 Z-0.147 I-1.279 J0.798
X567.642 Y1134.256 Z-0.313 I1.279 J-0.798
X565.083 Y1135.853 Z-0.478 I-1.279 J0.798
X567.642 Y1134.256 Z-0.644 I1.279 J-0.798
X565.083 Y1135.853 Z-0.809 I-1.279 J0.798
X567.642 Y1134.256 Z-0.974 I1.279 J-0.798
X565.083 Y1135.853 Z-1.14 I-1.279 J0.798
X567.642 Y1134.256 Z-1.305 I1.279 J-0.798
X565.083 Y1135.853 Z-1.471 I-1.279 J0.798
X564.855 Y1135.061 Z-1.5 I1.279 J-0.798
G1 X564.849 Y1133.753 F1000
G3 X565.189 Y1133.244 I0.551 J0
G1 X565.232 Y1133.226
G3 X565.675 Y1133.229 I0.218 J0.521
G2 X566.555 Y1133.583 I6.941 J-16.007
X567.448 Y1133.899 I11.364 J-30.673
G3 X567.784 Y1134.368 I-0.158 J0.469
G1 X567.74 Y1144.68
G3 X564.894 Y1144.68 I-1.422 J0
G1 X564.855 Y1135.061
G2 X563.789 Y1133.64 I-1.487 J0.006
G3 X563.738 Y1131.865 I0.265 J-0.896
G2 X564.237 Y1131.679 I-7.719 J-21.499
X565.071 Y1131.324 I-4.653 J-12.066
G3 X565.859 Y1131.328 I0.389 J0.83
G2 X569.259 Y1132.544 I7.363 J-15.227
G3 X569.589 Y1132.964 I-0.101 J0.42
G1 X569.544 Y1144.68
G3 X563.089 Y1144.68 I-3.227 J0
G1 X563.044 Y1132.465
G3 X563.386 Y1131.988 I0.503 J0
G2 X563.738 Y1131.865 I-7.367 J-21.622
X564.608 Y1130.375 I-0.454 J-1.265
G3 X566.018 Y1129.378 I0.943 J-0.161
G2 X571.071 Y1131.041 I6.813 J-12.199
G3 X571.394 Y1131.406 I-0.045 J0.366
G1 X571.349 Y1144.68
G3 X561.284 Y1144.68 I-5.032 J0
G1 X561.24 Y1131.142
G3 X561.573 Y1130.692 I0.471 J0
G2 X563.393 Y1130.073 I-8.891 J-29.15
X565.136 Y1129.261 I-4.385 J-11.68
G3 X565.819 Y1129.265 I0.338 J0.599
G1 X566.018 Y1129.378
G2 X567.712 Y1129.217 I0.73 J-1.307
G3 X569.379 Y1128.88 I1.142 J1.356
G2 X570.546 Y1129.165 I2.899 J-9.334
X572.175 Y1129.342 I2.074 J-11.516
X572.529 Y1129.345 I0.231 J-6.066
G3 X572.883 Y1129.345 I0.174 J8.597
X573.2 Y1129.669 I-0.007 J0.323
G1 X573.154 Y1144.68
G3 X559.479 Y1144.68 I-6.837 J0
G1 X559.435 Y1129.659
G3 X559.76 Y1129.272 I0.393 J0
G2 X562.364 Y1128.581 I-2.611 J-15.079
X564.778 Y1127.387 I-4.124 J-11.379
G1 X564.963 Y1127.26
X565.147 Y1127.133
G3 X565.774 Y1127.133 I0.313 J0.488
G2 X567.323 Y1128.027 I10.07 J-15.676
X568.964 Y1128.74 I6.35 J-12.35
X569.379 Y1128.88 I3.315 J-9.195
X571.05 Y1128.328 I0.449 J-1.446
G3 X572.63 Y1127.555 I1.525 J1.116
G2 X574.703 Y1127.396 I0.289 J-9.833
G3 X575.005 Y1127.648 I0.046 J0.251
G1 X574.959 Y1144.68
G3 X557.674 Y1144.68 I-8.642 J0
G1 X557.63 Y1127.975
G3 X557.948 Y1127.637 I0.338 J0
X558.201 Y1127.63 I0.232 J4.046
G2 X558.455 Y1127.624 I0.021 J-4.053
X560.2 Y1127.341 I-0.49 J-8.543
X561.892 Y1126.824 I-7.215 J-26.658
X563.645 Y1125.987 I-2.683 J-7.875
X565.259 Y1124.904 I-18.135 J-28.768
G3 X565.806 Y1124.92 I0.263 J0.369
G2 X567.347 Y1126.02 I10.511 J-13.094
X569.049 Y1126.853 I4.661 J-7.375
X571.84 Y1127.5 I4.126 J-11.444
X572.63 Y1127.555 I1.08 J-9.778
X574.07 Y1126.602 I0.044 J-1.498
G3 X575.322 Y1125.413 I1.893 J0.739
G1 X575.542 Y1125.335
G2 X576.038 Y1125.136 I-3.107 J-8.419
X576.527 Y1124.918 I-20.623 J-47.053
G3 X576.81 Y1125.101 I0.082 J0.183
G1 X576.765 Y1144.68
G3 X555.87 Y1144.68 I-10.448 J0
G1 X555.825 Y1126.005
G3 X556.134 Y1125.736 I0.272 J0
G2 X556.978 Y1125.849 I21.998 J-160.275
X557.83 Y1125.881 I0.592 J-4.491
X559.596 Y1125.616 I-0.56 J-9.763
X561.309 Y1125.116 I-4.814 J-19.66
X563.111 Y1124.254 I-2.741 J-8.044
X564.717 Y1123.067 I-7.375 J-11.661
X564.989 Y1122.819 I-3.828 J-4.465
G3 X565.26 Y1122.572 I4.1 J4.217
X565.769 Y1122.57 I0.256 J0.298
G2 X567.6 Y1124.036 I28.049 J-33.146
X569.661 Y1125.155 I4.703 J-6.208
X572.586 Y1125.765 I3.621 J-10.044
X575.322 Y1125.413 I0.469 J-7.171
X576.347 Y1124.018 I-0.472 J-1.421
G3 X577.135 Y1122.477 I1.967 J0.034
G2 X577.956 Y1121.757 I-4.222 J-5.643
X578.159 Y1121.536 I-3.434 J-3.352
G3 X578.361 Y1121.315 I3.637 J3.131
X578.615 Y1121.418 I0.106 J0.103
G1 X578.57 Y1144.68
G3 X554.065 Y1144.68 I-12.253 J0
G1 X554.019 Y1123.497
G3 X554.307 Y1123.308 I0.205 J0
G2 X555.232 Y1123.704 I30.669 J-70.539
X556.202 Y1123.969 I1.497 J-3.57
X560.121 Y1123.63 I1.211 J-8.824
X563.557 Y1121.714 I-3.01 J-9.434
X564.392 Y1120.964 I-16.232 J-18.931
X565.199 Y1120.183 I-25.146 J-26.787
G3 X565.694 Y1120.152 I0.265 J0.265
X566.39 Y1120.76 I-5.118 J6.565
G2 X567.081 Y1121.372 I6.669 J-6.834
X568.591 Y1122.546 I38.919 J-48.48
X570.273 Y1123.456 I3.856 J-5.118
X572.58 Y1123.965 I3.117 J-8.645
X574.922 Y1123.653 I0.475 J-5.37
X576.545 Y1122.874 I-3.322 J-9.004
X577.135 Y1122.477 I-3.632 J-6.041
X577.651 Y1120.816 I-0.887 J-1.186
G3 X577.953 Y1119.102 I1.713 J-0.581
G2 X578.407 Y1118.529 I-42.621 J-34.224
G3 X579.351 Y1117.408 I15.837 J12.372
X579.675 Y1117.475 I0.142 J0.129
X580.382 Y1119.905 I-26.355 J8.992
X580.419 Y1120.218 I-1.308 J0.313
G1 X580.375 Y1144.68
G3 X552.26 Y1144.68 I-14.057 J0
G1 X552.214 Y1120.267
G3 X552.485 Y1120.124 I0.173 J0
X553.476 Y1120.854 I-9.538 J13.985
G2 X554.531 Y1121.487 I2.94 J-3.701
X556.031 Y1122.063 I7.424 J-17.075
X557.623 Y1122.277 I1.349 J-4.02
X558.904 Y1122.073 I-0.371 J-6.463
X560.145 Y1121.699 I-4.699 J-17.811
X561.105 Y1121.219 I-1.288 J-3.78
G3 X562.001 Y1120.627 I22.178 J32.561
G2 X563.571 Y1119.318 I-4.467 J-6.958
G3 X564.982 Y1117.838 I83.787 J78.397
X565.506 Y1117.776 I0.3 J0.291
X566.888 Y1118.833 I-5.439 J8.548
G2 X568.211 Y1119.964 I18.819 J-20.663
X570.154 Y1121.398 I18.565 J-23.125
X572.449 Y1122.15 I2.462 J-3.638
X574.137 Y1122.002 I0.257 J-6.757
X575.682 Y1121.307 I-0.861 J-3.978
X576.637 Y1120.545 I-8.87 J-12.102
X577.49 Y1119.671 I-4.797 J-5.537
X577.953 Y1119.102 I-42.158 J-34.793
X578.115 Y1117.471 I-1.17 J-0.94
G3 X578.325 Y1115.845 I1.274 J-0.662
G1 X578.816 Y1115.303
X579.373 Y1114.861
X579.745 Y1114.68
X579.885 Y1114.669
X580.051 Y1114.73
X580.389 Y1115.021
X580.843 Y1115.677
X581.309 Y1116.659
X581.726 Y1117.881
X582.058 Y1119.129
X582.178 Y1119.631
X582.229 Y1119.858
Y1144.68
G3 X550.404 Y1144.68 I-15.912 J0
G1 Y1119.748
X550.497 Y1118.666
X550.663 Y1117.942
X550.838 Y1117.558
X550.933 Y1117.449
X550.956 Y1117.437
X551.055 Y1117.421
X551.31 Y1117.45
X551.684 Y1117.571
X552.785 Y1118.137
X553.921 Y1118.911
X553.931 Y1118.919
X555.02 Y1119.649
G2 X555.271 Y1119.786 I0.884 J-1.319
G1 X556.283 Y1120.226
G2 X556.7 Y1120.343 I0.633 J-1.456
G1 X557.21 Y1120.413
G2 X557.517 Y1120.425 I0.216 J-1.573
G1 X558.04 Y1120.395
G2 X558.461 Y1120.313 I-0.091 J-1.585
G1 X559.547 Y1119.943
G2 X559.893 Y1119.776 I-0.512 J-1.503
G1 X560.999 Y1119.066
X561.089 Y1119.004
X561.174 Y1118.935
X562.247 Y1118.015
X562.335 Y1117.934
X563.317 Y1116.954
X563.336 Y1116.935
X564.136 Y1116.11
X564.648 Y1115.689
X564.973 Y1115.564
X564.996 Y1115.563
X565.148 Y1115.588
X565.941 Y1115.908
X566.964 Y1116.559
X568.136 Y1117.472
X569.341 Y1118.492
X569.372 Y1118.518
X570.518 Y1119.438
X570.609 Y1119.505
X570.704 Y1119.566
X571.245 Y1119.886
G2 X571.515 Y1120.013 I0.808 J-1.366
G1 X572.042 Y1120.203
G2 X572.52 Y1120.296 I0.538 J-1.493
G1 X573.045 Y1120.316
G2 X573.655 Y1120.219 I0.06 J-1.586
G1 X574.197 Y1120.019
G2 X574.586 Y1119.81 I-0.55 J-1.489
G1 X575.159 Y1119.39
G2 X575.356 Y1119.219 I-0.939 J-1.28
G1 X575.971 Y1118.589
X576.059 Y1118.49
X577.406 Y1116.859
X578.325 Y1115.845
X578.37 Y1115.804 Z-1.488 F600
X578.421 Y1115.772 Z-1.476
X578.469 Y1115.754 Z-1.441
X578.52 Y1115.743 Z-1.407
X578.588 Y1115.742 Z-1.304
X578.612 Y1115.745 Z-1.183
Z5
G0 X565.271 Y1136.094
G1 Z1.317 F300
X565.255 Y1136.078 Z1.198
X565.211 Y1136.028 Z1.097
X565.15 Y1135.95 Z1.027
X565.083 Y1135.853 Z1
G3 X567.642 Y1134.256 Z0.835 I1.279 J-0.798
X565.083 Y1135.853 Z0.669 I-1.279 J0.798
X567.642 Y1134.256 Z0.504 I1.279 J-0.798
X565.083 Y1135.853 Z0.338 I-1.279 J0.798
X567.642 Y1134.256 Z0.173 I1.279 J-0.798
X565.083 Y1135.853 Z0.007 I-1.279 J0.798
X567.642 Y1134.256 Z-0.158 I1.279 J-0.798
X565.083 Y1135.853 Z-0.324 I-1.279 J0.798
X567.642 Y1134.256 Z-0.489 I1.279 J-0.798
X565.083 Y1135.853 Z-0.655 I-1.279 J0.798
X567.642 Y1134.256 Z-0.82 I1.279 J-0.798
X565.083 Y1135.853 Z-0.985 I-1.279 J0.798
X567.642 Y1134.256 Z-1.151 I1.279 J-0.798
X565.083 Y1135.853 Z-1.316 I-1.279 J0.798
X567.642 Y1134.256 Z-1.482 I1.279 J-0.798
X565.083 Y1135.853 Z-1.647 I-1.279 J0.798
X567.642 Y1134.256 Z-1.813 I1.279 J-0.798
X565.083 Y1135.853 Z-1.978 I-1.279 J0.798
X567.642 Y1134.256 Z-2.144 I1.279 J-0.798
X565.083 Y1135.853 Z-2.309 I-1.279 J0.798
X567.642 Y1134.256 Z-2.474 I1.279 J-0.798
X565.083 Y1135.853 Z-2.64 I-1.279 J0.798
X567.642 Y1134.256 Z-2.805 I1.279 J-0.798
X565.083 Y1135.853 Z-2.971 I-1.279 J0.798
X564.855 Y1135.061 Z-3 I1.279 J-0.798
G1 X564.849 Y1133.753 F1000
G3 X565.189 Y1133.244 I0.551 J0
G1 X565.232 Y1133.226
G3 X565.675 Y1133.229 I0.218 J0.521
G2 X566.555 Y1133.583 I6.941 J-16.007
X567.448 Y1133.899 I11.364 J-30.673
G3 X567.784 Y1134.368 I-0.158 J0.469
G1 X567.74 Y1144.68
G3 X564.894 Y1144.68 I-1.422 J0
G1 X564.855 Y1135.061
G2 X563.789 Y1133.64 I-1.487 J0.006
G3 X563.738 Y1131.865 I0.265 J-0.896
G2 X564.237 Y1131.679 I-7.719 J-21.499
X565.071 Y1131.324 I-4.653 J-12.066
G3 X565.859 Y1131.328 I0.389 J0.83
G2 X569.259 Y1132.544 I7.363 J-15.227
G3 X569.589 Y1132.964 I-0.101 J0.42
G1 X569.544 Y1144.68
G3 X563.089 Y1144.68 I-3.227 J0
G1 X563.044 Y1132.465
G3 X563.386 Y1131.988 I0.503 J0
G2 X563.738 Y1131.865 I-7.367 J-21.622
X564.608 Y1130.375 I-0.454 J-1.265
G3 X566.018 Y1129.378 I0.943 J-0.161
G2 X571.071 Y1131.041 I6.813 J-12.199
G3 X571.394 Y1131.406 I-0.045 J0.366
G1 X571.349 Y1144.68
G3 X561.284 Y1144.68 I-5.032 J0
G1 X561.24 Y1131.142
G3 X561.573 Y1130.692 I0.471 J0
G2 X563.393 Y1130.073 I-8.891 J-29.15
X565.136 Y1129.261 I-4.385 J-11.68
G3 X565.819 Y1129.265 I0.338 J0.599
G1 X566.018 Y1129.378
G2 X567.712 Y1129.217 I0.73 J-1.307
G3 X569.379 Y1128.88 I1.142 J1.356
G2 X570.546 Y1129.165 I2.899 J-9.334
X572.175 Y1129.342 I2.074 J-11.516
X572.529 Y1129.345 I0.231 J-6.066
G3 X572.883 Y1129.345 I0.174 J8.597
X573.2 Y1129.669 I-0.007 J0.323
G1 X573.154 Y1144.68
G3 X559.479 Y1144.68 I-6.837 J0
G1 X559.435 Y1129.659
G3 X559.76 Y1129.272 I0.393 J0
G2 X562.364 Y1128.581 I-2.611 J-15.079
X564.778 Y1127.387 I-4.124 J-11.379
G1 X564.963 Y1127.26
X565.147 Y1127.133
G3 X565.774 Y1127.133 I0.313 J0.488
G2 X567.323 Y1128.027 I10.07 J-15.676
X568.964 Y1128.74 I6.35 J-12.35
X569.379 Y1128.88 I3.315 J-9.195
X571.05 Y1128.328 I0.449 J-1.446
G3 X572.63 Y1127.555 I1.525 J1.116
G2 X574.703 Y1127.396 I0.289 J-9.833
G3 X575.005 Y1127.648 I0.046 J0.251
G1 X574.959 Y1144.68
G3 X557.674 Y1144.68 I-8.642 J0
G1 X557.63 Y1127.975
G3 X557.948 Y1127.637 I0.338 J0
X558.201 Y1127.63 I0.232 J4.046
G2 X558.455 Y1127.624 I0.021 J-4.053
X560.2 Y1127.341 I-0.49 J-8.543
X561.892 Y1126.824 I-7.215 J-26.658
X563.645 Y1125.987 I-2.683 J-7.875
X565.259 Y1124.904 I-18.135 J-28.768
G3 X565.806 Y1124.92 I0.263 J0.369
G2 X567.347 Y1126.02 I10.511 J-13.094
X569.049 Y1126.853 I4.661 J-7.375
X571.84 Y1127.5 I4.126 J-11.444
X572.63 Y1127.555 I1.08 J-9.778
X574.07 Y1126.602 I0.044 J-1.498
G3 X575.322 Y1125.413 I1.893 J0.739
G1 X575.542 Y1125.335
G2 X576.038 Y1125.136 I-3.107 J-8.419
X576.527 Y1124.918 I-20.623 J-47.053
G3 X576.81 Y1125.101 I0.082 J0.183
G1 X576.765 Y1144.68
G3 X555.87 Y1144.68 I-10.448 J0
G1 X555.825 Y1126.005
G3 X556.134 Y1125.736 I0.272 J0
G2 X556.978 Y1125.849 I21.998 J-160.275
X557.83 Y1125.881 I0.592 J-4.491
X559.596 Y1125.616 I-0.56 J-9.763
X561.309 Y1125.116 I-4.814 J-19.66
X563.111 Y1124.254 I-2.741 J-8.044
X564.717 Y1123.067 I-7.375 J-11.661
X564.989 Y1122.819 I-3.828 J-4.465
G3 X565.26 Y1122.572 I4.1 J4.217
X565.769 Y1122.57 I0.256 J0.298
G2 X567.6 Y1124.036 I28.049 J-33.146
X569.661 Y1125.155 I4.703 J-6.208
X572.586 Y1125.765 I3.621 J-10.044
X575.322 Y1125.413 I0.469 J-7.171
X576.347 Y1124.018 I-0.472 J-1.421
G3 X577.135 Y1122.477 I1.967 J0.034
G2 X577.956 Y1121.757 I-4.222 J-5.643
X578.159 Y1121.536 I-3.434 J-3.352
G3 X578.361 Y1121.315 I3.637 J3.131
X578.615 Y1121.418 I0.106 J0.103
G1 X578.57 Y1144.68
G3 X554.065 Y1144.68 I-12.253 J0
G1 X554.019 Y1123.497
G3 X554.307 Y1123.308 I0.205 J0
G2 X555.232 Y1123.704 I30.669 J-70.539
X556.202 Y1123.969 I1.497 J-3.57
X560.121 Y1123.63 I1.211 J-8.824
X563.557 Y1121.714 I-3.01 J-9.434
X564.392 Y1120.964 I-16.232 J-18.931
X565.199 Y1120.183 I-25.146 J-26.787
G3 X565.694 Y1120.152 I0.265 J0.265
X566.39 Y1120.76 I-5.118 J6.565
G2 X567.081 Y1121.372 I6.669 J-6.834
X568.591 Y1122.546 I38.919 J-48.48
X570.273 Y1123.456 I3.856 J-5.118
X572.58 Y1123.965 I3.117 J-8.645
X574.922 Y1123.653 I0.475 J-5.37
X576.545 Y1122.874 I-3.322 J-9.004
X577.135 Y1122.477 I-3.632 J-6.041
X577.651 Y1120.816 I-0.887 J-1.186
G3 X577.953 Y1119.102 I1.713 J-0.581
G2 X578.407 Y1118.529 I-42.621 J-34.224
G3 X579.351 Y1117.408 I15.837 J12.372
X579.675 Y1117.475 I0.142 J0.129
X580.382 Y1119.905 I-26.355 J8.992
X580.419 Y1120.218 I-1.308 J0.313
G1 X580.375 Y1144.68
G3 X552.26 Y1144.68 I-14.057 J0
G1 X552.214 Y1120.267
G3 X552.485 Y1120.124 I0.173 J0
X553.476 Y1120.854 I-9.538 J13.985
G2 X554.531 Y1121.487 I2.94 J-3.701
X556.031 Y1122.063 I7.424 J-17.075
X557.623 Y1122.277 I1.349 J-4.02
X558.904 Y1122.073 I-0.371 J-6.463
X560.145 Y1121.699 I-4.699 J-17.811
X561.105 Y1121.219 I-1.288 J-3.78
G3 X562.001 Y1120.627 I22.178 J32.561
G2 X563.571 Y1119.318 I-4.467 J-6.958
G3 X564.982 Y1117.838 I83.787 J78.397
X565.506 Y1117.776 I0.3 J0.291
X566.888 Y1118.833 I-5.439 J8.548
G2 X568.211 Y1119.964 I18.819 J-20.663
X570.154 Y1121.398 I18.565 J-23.125
X572.449 Y1122.15 I2.462 J-3.638
X574.137 Y1122.002 I0.257 J-6.757
X575.682 Y1121.307 I-0.861 J-3.978
X576.637 Y1120.545 I-8.87 J-12.102
X577.49 Y1119.671 I-4.797 J-5.537
X577.953 Y1119.102 I-42.158 J-34.793
X578.115 Y1117.471 I-1.17 J-0.94
G3 X578.325 Y1115.845 I1.274 J-0.662
G1 X578.816 Y1115.303
X579.373 Y1114.861
X579.745 Y1114.68
X579.885 Y1114.669
X580.051 Y1114.73
X580.389 Y1115.021
X580.843 Y1115.677
X581.309 Y1116.659
X581.726 Y1117.881
X582.058 Y1119.129
X582.178 Y1119.631
X582.229 Y1119.858
Y1144.68
G3 X550.404 Y1144.68 I-15.912 J0
G1 Y1119.748
X550.497 Y1118.666
X550.663 Y1117.942
X550.838 Y1117.558
X550.933 Y1117.449
X550.956 Y1117.437
X551.055 Y1117.421
X551.31 Y1117.45
X551.684 Y1117.571
X552.785 Y1118.137
X553.921 Y1118.911
X553.931 Y1118.919
X555.02 Y1119.649
G2 X555.271 Y1119.786 I0.884 J-1.319
G1 X556.283 Y1120.226
G2 X556.7 Y1120.343 I0.633 J-1.456
G1 X557.21 Y1120.413
G2 X557.517 Y1120.425 I0.216 J-1.573
G1 X558.04 Y1120.395
G2 X558.461 Y1120.313 I-0.091 J-1.585
G1 X559.547 Y1119.943
G2 X559.893 Y1119.776 I-0.512 J-1.503
G1 X560.999 Y1119.066
X561.089 Y1119.004
X561.174 Y1118.935
X562.247 Y1118.015
X562.335 Y1117.934
X563.317 Y1116.954
X563.336 Y1116.935
X564.136 Y1116.11
X564.648 Y1115.689
X564.973 Y1115.564
X564.996 Y1115.563
X565.148 Y1115.588
X565.941 Y1115.908
X566.964 Y1116.559
X568.136 Y1117.472
X569.341 Y1118.492
X569.372 Y1118.518
X570.518 Y1119.438
X570.609 Y1119.505
X570.704 Y1119.566
X571.245 Y1119.886
G2 X571.515 Y1120.013 I0.808 J-1.366
G1 X572.042 Y1120.203
G2 X572.52 Y1120.296 I0.538 J-1.493
G1 X573.045 Y1120.316
G2 X573.655 Y1120.219 I0.06 J-1.586
G1 X574.197 Y1120.019
G2 X574.586 Y1119.81 I-0.55 J-1.489
G1 X575.159 Y1119.39
G2 X575.356 Y1119.219 I-0.939 J-1.28
G1 X575.971 Y1118.589
X576.059 Y1118.49
X577.406 Y1116.859
X578.325 Y1115.845
X578.37 Y1115.804 Z-2.988 F600
X578.421 Y1115.772 Z-2.976
X578.469 Y1115.754 Z-2.941
X578.52 Y1115.743 Z-2.907
X578.588 Y1115.742 Z-2.804
X578.612 Y1115.745 Z-2.683
Z5
G0 X453.393 Y1134.894
G1 Z2.817 F300
X453.408 Y1134.911 Z2.698
X453.452 Y1134.961 Z2.597
X453.513 Y1135.039 Z2.527
X453.579 Y1135.137 Z2.5
G3 X451.014 Y1136.723 Z2.335 I-1.283 J0.793
X453.579 Y1135.137 Z2.169 I1.283 J-0.793
X451.014 Y1136.723 Z2.004 I-1.283 J0.793
X453.579 Y1135.137 Z1.838 I1.283 J-0.793
X451.014 Y1136.723 Z1.673 I-1.283 J0.793
X453.579 Y1135.137 Z1.507 I1.283 J-0.793
X451.014 Y1136.723 Z1.342 I-1.283 J0.793
X453.579 Y1135.137 Z1.176 I1.283 J-0.793
X451.014 Y1136.723 Z1.011 I-1.283 J0.793
X453.579 Y1135.137 Z0.845 I1.283 J-0.793
X451.014 Y1136.723 Z0.68 I-1.283 J0.793
X453.579 Y1135.137 Z0.515 I1.283 J-0.793
X451.014 Y1136.723 Z0.349 I-1.283 J0.793
X453.579 Y1135.137 Z0.184 I1.283 J-0.793
X451.014 Y1136.723 Z0.018 I-1.283 J0.793
X453.579 Y1135.137 Z-0.147 I1.283 J-0.793
X451.014 Y1136.723 Z-0.313 I-1.283 J0.793
X453.579 Y1135.137 Z-0.478 I1.283 J-0.793
X451.014 Y1136.723 Z-0.644 I-1.283 J0.793
X453.579 Y1135.137 Z-0.809 I1.283 J-0.793
X451.014 Y1136.723 Z-0.974 I-1.283 J0.793
X453.579 Y1135.137 Z-1.14 I1.283 J-0.793
X451.014 Y1136.723 Z-1.305 I-1.283 J0.793
X453.579 Y1135.137 Z-1.471 I1.283 J-0.793
X453.805 Y1135.93 Z-1.5 I-1.283 J0.793
X452.46 Y1135.93 I-0.673 J0 F1000
X455.71 Y1135.93 I1.625 J0
X450.555 Y1135.93 I-2.578 J0
X457.615 Y1135.93 I3.53 J0
X448.65 Y1135.93 I-4.483 J0
X459.52 Y1135.93 I5.435 J0
X446.745 Y1135.93 I-6.388 J0
X461.424 Y1135.93 I7.34 J0
X444.84 Y1135.93 I-8.293 J0
X463.329 Y1135.93 I9.245 J0
X442.935 Y1135.93 I-10.198 J0
X465.234 Y1135.93 I11.15 J0
X441.03 Y1135.93 I-12.103 J0
X467.139 Y1135.93 I13.055 J0
X439.125 Y1135.93 I-14.008 J0
X469.044 Y1135.93 I14.96 J0
X437.219 Y1135.93 I-15.913 J0
X469.044 Y1135.93 I15.913 J0
G1 X469.039 Y1135.99 Z-1.488 F600
X469.022 Y1136.049 Z-1.476
X468.999 Y1136.095 Z-1.441
X468.968 Y1136.136 Z-1.407
X468.918 Y1136.183 Z-1.304
X468.899 Y1136.197 Z-1.183
Z5
G0 X453.393 Y1134.894
G1 Z1.317 F300
X453.408 Y1134.911 Z1.198
X453.452 Y1134.961 Z1.097
X453.513 Y1135.039 Z1.027
X453.579 Y1135.137 Z1
G3 X451.014 Y1136.723 Z0.835 I-1.283 J0.793
X453.579 Y1135.137 Z0.669 I1.283 J-0.793
X451.014 Y1136.723 Z0.504 I-1.283 J0.793
X453.579 Y1135.137 Z0.338 I1.283 J-0.793
X451.014 Y1136.723 Z0.173 I-1.283 J0.793
X453.579 Y1135.137 Z0.007 I1.283 J-0.793
X451.014 Y1136.723 Z-0.158 I-1.283 J0.793
X453.579 Y1135.137 Z-0.324 I1.283 J-0.793
X451.014 Y1136.723 Z-0.489 I-1.283 J0.793
X453.579 Y1135.137 Z-0.655 I1.283 J-0.793
X451.014 Y1136.723 Z-0.82 I-1.283 J0.793
X453.579 Y1135.137 Z-0.985 I1.283 J-0.793
X451.014 Y1136.723 Z-1.151 I-1.283 J0.793
X453.579 Y1135.137 Z-1.316 I1.283 J-0.793
X451.014 Y1136.723 Z-1.482 I-1.283 J0.793
X453.579 Y1135.137 Z-1.647 I1.283 J-0.793
X451.014 Y1136.723 Z-1.813 I-1.283 J0.793
X453.579 Y1135.137 Z-1.978 I1.283 J-0.793
X451.014 Y1136.723 Z-2.144 I-1.283 J0.793
X453.579 Y1135.137 Z-2.309 I1.283 J-0.793
X451.014 Y1136.723 Z-2.474 I-1.283 J0.793
X453.579 Y1135.137 Z-2.64 I1.283 J-0.793
X451.014 Y1136.723 Z-2.805 I-1.283 J0.793
X453.579 Y1135.137 Z-2.971 I1.283 J-0.793
X453.805 Y1135.93 Z-3 I-1.283 J0.793
X452.46 Y1135.93 I-0.673 J0 F1000
X455.71 Y1135.93 I1.625 J0
X450.555 Y1135.93 I-2.578 J0
X457.615 Y1135.93 I3.53 J0
X448.65 Y1135.93 I-4.483 J0
X459.52 Y1135.93 I5.435 J0
X446.745 Y1135.93 I-6.388 J0
X461.424 Y1135.93 I7.34 J0
X444.84 Y1135.93 I-8.293 J0
X463.329 Y1135.93 I9.245 J0
X442.935 Y1135.93 I-10.198 J0
X465.234 Y1135.93 I11.15 J0
X441.03 Y1135.93 I-12.103 J0
X467.139 Y1135.93 I13.055 J0
X439.125 Y1135.93 I-14.008 J0
X469.044 Y1135.93 I14.96 J0
X437.219 Y1135.93 I-15.913 J0
X469.044 Y1135.93 I15.913 J0
G1 X469.039 Y1135.99 Z-2.988 F600
X469.022 Y1136.049 Z-2.976
X468.999 Y1136.095 Z-2.941
X468.968 Y1136.136 Z-2.907
X468.918 Y1136.183 Z-2.804
X468.899 Y1136.197 Z-2.683
Z5
G0 X444.546 Y1337.016
G1 Z2.817 F300
X444.53 Y1336.999 Z2.698
X444.487 Y1336.949 Z2.597
X444.426 Y1336.871 Z2.527
X444.36 Y1336.773 Z2.5
G3 X446.925 Y1335.187 Z2.335 I1.283 J-0.793
X444.36 Y1336.773 Z2.169 I-1.283 J0.793
X446.925 Y1335.187 Z2.004 I1.283 J-0.793
X444.36 Y1336.773 Z1.838 I-1.283 J0.793
X446.925 Y1335.187 Z1.673 I1.283 J-0.793
X444.36 Y1336.773 Z1.507 I-1.283 J0.793
X446.925 Y1335.187 Z1.342 I1.283 J-0.793
X444.36 Y1336.773 Z1.176 I-1.283 J0.793
X446.925 Y1335.187 Z1.011 I1.283 J-0.793
X444.36 Y1336.773 Z0.845 I-1.283 J0.793
X446.925 Y1335.187 Z0.68 I1.283 J-0.793
X444.36 Y1336.773 Z0.515 I-1.283 J0.793
X446.925 Y1335.187 Z0.349 I1.283 J-0.793
X444.36 Y1336.773 Z0.184 I-1.283 J0.793
X446.925 Y1335.187 Z0.018 I1.283 J-0.793
X444.36 Y1336.773 Z-0.147 I-1.283 J0.793
X446.925 Y1335.187 Z-0.313 I1.283 J-0.793
X444.36 Y1336.773 Z-0.478 I-1.283 J0.793
X446.925 Y1335.187 Z-0.644 I1.283 J-0.793
X444.36 Y1336.773 Z-0.809 I-1.283 J0.793
X446.925 Y1335.187 Z-0.974 I1.283 J-0.793
X444.36 Y1336.773 Z-1.14 I-1.283 J0.793
X446.925 Y1335.187 Z-1.305 I1.283 J-0.793
X444.36 Y1336.773 Z-1.471 I-1.283 J0.793
X444.134 Y1335.98 Z-1.5 I1.283 J-0.793
X445.594 Y1331.075 I8.972 J0 F1000
X449.522 Y1327.796 I7.325 J4.782
G1 X449.557 Y1327.788
X449.593 Y1327.794
X449.624 Y1327.813
X449.646 Y1327.842
X449.656 Y1327.877
X449.652 Y1327.913
X449.635 Y1327.945
X449.608 Y1327.968
G3 X449.125 Y1328.227 I-4.38 J-7.587
G2 X448.643 Y1328.485 I3.898 J7.845
X448.643 Y1343.474 I4.327 J7.495
X449.125 Y1343.733 I4.38 J-7.587
G3 X449.608 Y1343.992 I-3.898 J7.845
G1 X449.635 Y1344.016
X449.652 Y1344.048
X449.656 Y1344.083
X449.646 Y1344.118
X449.624 Y1344.147
X449.593 Y1344.166
X449.557 Y1344.172
X449.522 Y1344.164
G3 X445.594 Y1340.885 I3.396 J-8.061
X444.134 Y1335.98 I7.513 J-4.905
G2 X443.398 Y1334.82 I-1.282 J0
G3 X442.8 Y1333.583 I0.464 J-0.987
X455.944 Y1325.917 I10.205 J2.397
G1 X455.983 Y1325.936
X456.014 Y1325.967
X456.033 Y1326.006
X456.038 Y1326.049
X456.028 Y1326.091
X456.006 Y1326.128
X455.973 Y1326.155
X449.444 Y1329.872
G2 X449.444 Y1342.088 I3.526 J6.108
X452.708 Y1343.946 I156.785 J-271.57
G3 X455.973 Y1345.805 I-153.521 J273.428
G1 X456.006 Y1345.833
X456.028 Y1345.869
X456.038 Y1345.911
X456.033 Y1345.954
X456.014 Y1345.993
X455.983 Y1346.024
X455.944 Y1346.043
G3 X442.522 Y1335.98 I-2.965 J-10.029
X442.8 Y1333.583 I10.483 J0
G2 X442.291 Y1332.127 I-1.398 J-0.328
G3 X441.946 Y1330.624 I0.763 J-0.966
X459.788 Y1325.745 I11.053 J5.356
X459.778 Y1326.042 I-0.097 J0.146
G1 X450.346 Y1331.436
G2 X450.346 Y1340.525 I2.624 J4.544
G1 X459.778 Y1345.918
G3 X459.788 Y1346.215 I-0.088 J0.152
X440.717 Y1335.98 I-6.802 J-10.211
X441.946 Y1330.624 I12.282 J0
G2 X441.763 Y1329.082 I-1.296 J-0.628
G3 X441.729 Y1327.529 I0.972 J-0.798
X462.91 Y1325.975 I11.267 J8.451
X462.862 Y1326.346 I-0.166 J0.167
G1 X451.249 Y1332.999
G2 X451.249 Y1338.961 I1.721 J2.981
G1 X462.862 Y1345.614
G3 X462.91 Y1345.984 I-0.118 J0.204
X438.912 Y1335.98 I-9.921 J-9.986
X441.729 Y1327.529 I14.084 J0
G2 X441.845 Y1325.935 I-1.183 J-0.888
G3 X442.101 Y1324.358 I1.148 J-0.624
X465.889 Y1326.689 I10.869 J11.622
G1 X452.176 Y1334.605
G2 X452.176 Y1337.355 I0.794 J1.375
G1 X465.889 Y1345.271
G3 X442.463 Y1347.931 I-12.919 J-9.291
X442.101 Y1324.358 I10.507 J-11.951
G1 X442.149 Y1324.321 Z-1.488 F600
X442.203 Y1324.293 Z-1.476
X442.252 Y1324.279 Z-1.441
X442.303 Y1324.272 Z-1.407
X442.372 Y1324.277 Z-1.304
X442.395 Y1324.282 Z-1.183
Z5
G0 X444.546 Y1337.016
G1 Z1.317 F300
X444.53 Y1336.999 Z1.198
X444.487 Y1336.949 Z1.097
X444.426 Y1336.871 Z1.027
X444.36 Y1336.773 Z1
G3 X446.925 Y1335.187 Z0.835 I1.283 J-0.793
X444.36 Y1336.773 Z0.669 I-1.283 J0.793
X446.925 Y1335.187 Z0.504 I1.283 J-0.793
X444.36 Y1336.773 Z0.338 I-1.283 J0.793
X446.925 Y1335.187 Z0.173 I1.283 J-0.793
X444.36 Y1336.773 Z0.007 I-1.283 J0.793
X446.925 Y1335.187 Z-0.158 I1.283 J-0.793
X444.36 Y1336.773 Z-0.324 I-1.283 J0.793
X446.925 Y1335.187 Z-0.489 I1.283 J-0.793
X444.36 Y1336.773 Z-0.655 I-1.283 J0.793
X446.925 Y1335.187 Z-0.82 I1.283 J-0.793
X444.36 Y1336.773 Z-0.985 I-1.283 J0.793
X446.925 Y1335.187 Z-1.151 I1.283 J-0.793
X444.36 Y1336.773 Z-1.316 I-1.283 J0.793
X446.925 Y1335.187 Z-1.482 I1.283 J-0.793
X444.36 Y1336.773 Z-1.647 I-1.283 J0.793
X446.925 Y1335.187 Z-1.813 I1.283 J-0.793
X444.36 Y1336.773 Z-1.978 I-1.283 J0.793
X446.925 Y1335.187 Z-2.144 I1.283 J-0.793
X444.36 Y1336.773 Z-2.309 I-1.283 J0.793
X446.925 Y1335.187 Z-2.474 I1.283 J-0.793
X444.36 Y1336.773 Z-2.64 I-1.283 J0.793
X446.925 Y1335.187 Z-2.805 I1.283 J-0.793
X444.36 Y1336.773 Z-2.971 I-1.283 J0.793
X444.134 Y1335.98 Z-3 I1.283 J-0.793
X445.594 Y1331.075 I8.972 J0 F1000
X449.522 Y1327.796 I7.325 J4.782
G1 X449.557 Y1327.788
X449.593 Y1327.794
X449.624 Y1327.813
X449.646 Y1327.842
X449.656 Y1327.877
X449.652 Y1327.913
X449.635 Y1327.945
X449.608 Y1327.968
G3 X449.125 Y1328.227 I-4.38 J-7.587
G2 X448.643 Y1328.485 I3.898 J7.845
X448.643 Y1343.474 I4.327 J7.495
X449.125 Y1343.733 I4.38 J-7.587
G3 X449.608 Y1343.992 I-3.898 J7.845
G1 X449.635 Y1344.016
X449.652 Y1344.048
X449.656 Y1344.083
X449.646 Y1344.118
X449.624 Y1344.147
X449.593 Y1344.166
X449.557 Y1344.172
X449.522 Y1344.164
G3 X445.594 Y1340.885 I3.396 J-8.061
X444.134 Y1335.98 I7.513 J-4.905
G2 X443.398 Y1334.82 I-1.282 J0
G3 X442.8 Y1333.583 I0.464 J-0.987
X455.944 Y1325.917 I10.205 J2.397
G1 X455.983 Y1325.936
X456.014 Y1325.967
X456.033 Y1326.006
X456.038 Y1326.049
X456.028 Y1326.091
X456.006 Y1326.128
X455.973 Y1326.155
X449.444 Y1329.872
G2 X449.444 Y1342.088 I3.526 J6.108
X452.708 Y1343.946 I156.785 J-271.57
G3 X455.973 Y1345.805 I-153.521 J273.428
G1 X456.006 Y1345.833
X456.028 Y1345.869
X456.038 Y1345.911
X456.033 Y1345.954
X456.014 Y1345.993
X455.983 Y1346.024
X455.944 Y1346.043
G3 X442.522 Y1335.98 I-2.965 J-10.029
X442.8 Y1333.583 I10.483 J0
G2 X442.291 Y1332.127 I-1.398 J-0.328
G3 X441.946 Y1330.624 I0.763 J-0.966
X459.788 Y1325.745 I11.053 J5.356
X459.778 Y1326.042 I-0.097 J0.146
G1 X450.346 Y1331.436
G2 X450.346 Y1340.525 I2.624 J4.544
G1 X459.778 Y1345.918
G3 X459.788 Y1346.215 I-0.088 J0.152
X440.717 Y1335.98 I-6.802 J-10.211
X441.946 Y1330.624 I12.282 J0
G2 X441.763 Y1329.082 I-1.296 J-0.628
G3 X441.729 Y1327.529 I0.972 J-0.798
X462.91 Y1325.975 I11.267 J8.451
X462.862 Y1326.346 I-0.166 J0.167
G1 X451.249 Y1332.999
G2 X451.249 Y1338.961 I1.721 J2.981
G1 X462.862 Y1345.614
G3 X462.91 Y1345.984 I-0.118 J0.204
X438.912 Y1335.98 I-9.921 J-9.986
X441.729 Y1327.529 I14.084 J0
G2 X441.845 Y1325.935 I-1.183 J-0.888
G3 X442.101 Y1324.358 I1.148 J-0.624
X465.889 Y1326.689 I10.869 J11.622
G1 X452.176 Y1334.605
G2 X452.176 Y1337.355 I0.794 J1.375
G1 X465.889 Y1345.271
G3 X442.463 Y1347.931 I-12.919 J-9.291
X442.101 Y1324.358 I10.507 J-11.951
G1 X442.149 Y1324.321 Z-2.988 F600
X442.203 Y1324.293 Z-2.976
X442.252 Y1324.279 Z-2.941
X442.303 Y1324.272 Z-2.907
X442.372 Y1324.277 Z-2.804
X442.395 Y1324.282 Z-2.683
Z5
G0 X568.597 Y1330.313
G1 Z2.817 F300
X568.612 Y1330.33 Z2.698
X568.656 Y1330.38 Z2.597
X568.716 Y1330.458 Z2.527
X568.782 Y1330.557 Z2.5
G3 X566.21 Y1332.132 Z2.335 I-1.286 J0.788
X568.782 Y1330.557 Z2.169 I1.286 J-0.788
X566.21 Y1332.132 Z2.004 I-1.286 J0.788
X568.782 Y1330.557 Z1.838 I1.286 J-0.788
X566.21 Y1332.132 Z1.673 I-1.286 J0.788
X568.782 Y1330.557 Z1.507 I1.286 J-0.788
X566.21 Y1332.132 Z1.342 I-1.286 J0.788
X568.782 Y1330.557 Z1.176 I1.286 J-0.788
X566.21 Y1332.132 Z1.011 I-1.286 J0.788
X568.782 Y1330.557 Z0.845 I1.286 J-0.788
X566.21 Y1332.132 Z0.68 I-1.286 J0.788
X568.782 Y1330.557 Z0.515 I1.286 J-0.788
X566.21 Y1332.132 Z0.349 I-1.286 J0.788
X568.782 Y1330.557 Z0.184 I1.286 J-0.788
X566.21 Y1332.132 Z0.018 I-1.286 J0.788
X568.782 Y1330.557 Z-0.147 I1.286 J-0.788
X566.21 Y1332.132 Z-0.313 I-1.286 J0.788
X568.782 Y1330.557 Z-0.478 I1.286 J-0.788
X566.21 Y1332.132 Z-0.644 I-1.286 J0.788
X568.782 Y1330.557 Z-0.809 I1.286 J-0.788
X566.21 Y1332.132 Z-0.974 I-1.286 J0.788
X568.782 Y1330.557 Z-1.14 I1.286 J-0.788
X566.21 Y1332.132 Z-1.305 I-1.286 J0.788
X568.782 Y1330.557 Z-1.471 I1.286 J-0.788
X569.004 Y1331.351 Z-1.5 I-1.286 J0.788
G1 X568.964 Y1340.97 F1000
G3 X566.12 Y1340.97 I-1.422 J0
G1 X566.075 Y1330.657
G3 X566.411 Y1330.189 I0.495 J0
G2 X567.304 Y1329.873 I-10.47 J-30.989
X568.184 Y1329.519 I-6.061 J-16.36
G3 X568.627 Y1329.516 I0.225 J0.518
G1 X568.67 Y1329.534
G3 X569.01 Y1330.043 I-0.212 J0.509
G1 X569.004 Y1331.351
G2 X569.9 Y1332.705 I1.463 J0.006
G3 X570.795 Y1334.059 I-0.568 J1.349
G1 X570.769 Y1340.97
G3 X564.315 Y1340.97 I-3.227 J0
G1 X564.269 Y1329.254
G3 X564.6 Y1328.834 I0.432 J0
G2 X568 Y1327.619 I-3.914 J-16.305
G3 X568.788 Y1327.614 I0.399 J0.826
G2 X569.622 Y1327.969 I5.486 J-11.71
X570.473 Y1328.278 I8.218 J-21.313
G3 X570.815 Y1328.755 I-0.162 J0.477
G1 X570.795 Y1334.059
G2 X571.692 Y1335.414 I1.464 J0.005
G3 X572.588 Y1336.77 I-0.568 J1.35
G1 X572.575 Y1340.97
G3 X562.51 Y1340.97 I-5.033 J0
G1 X562.464 Y1327.696
G3 X562.788 Y1327.33 I0.368 J0
G2 X568.04 Y1325.555 I-1.661 J-13.567
G3 X568.723 Y1325.551 I0.345 J0.595
G2 X569.74 Y1326.089 I10.559 J-18.727
X570.803 Y1326.531 I3.889 J-7.852
X571.543 Y1326.763 I4.969 J-14.585
G3 X572.286 Y1326.982 I-11.844 J41.49
X572.62 Y1327.432 I-0.137 J0.45
G1 X572.588 Y1336.77
G2 X573.486 Y1338.125 I1.465 J0.005
G3 X574.384 Y1339.481 I-0.568 J1.351
G1 X574.38 Y1340.97
G3 X560.705 Y1340.97 I-6.838 J0
G1 X560.659 Y1325.958
G3 X560.976 Y1325.635 I0.323 J0
X561.33 Y1325.635 I0.18 J8.552
G2 X561.683 Y1325.632 I0.123 J-6.062
X564.559 Y1325.15 I-0.433 J-11.395
X567.228 Y1323.976 I-3.537 J-11.666
X567.659 Y1323.704 I-4.465 J-7.549
G3 X568.085 Y1323.423 I13.346 J19.832
X568.712 Y1323.423 I0.313 J0.488
G1 X568.896 Y1323.55
X569.081 Y1323.677
G2 X571.495 Y1324.87 I6.538 J-10.185
X574.099 Y1325.562 I5.214 J-14.388
G3 X574.424 Y1325.949 I-0.067 J0.387
G1 X574.384 Y1339.481
G2 X575.288 Y1340.805 I1.416 J0.004
G3 X576.098 Y1342.189 I-0.466 J1.202
X558.899 Y1340.97 I-8.556 J-1.219
G1 X558.854 Y1323.938
G3 X559.156 Y1323.687 I0.256 J0
G2 X562.019 Y1323.79 I1.783 J-9.678
X564.81 Y1323.142 I-1.335 J-12.092
X566.512 Y1322.31 I-2.959 J-8.207
X568.053 Y1321.21 I-8.97 J-14.194
G3 X568.6 Y1321.194 I0.284 J0.353
G2 X570.214 Y1322.277 I19.749 J-27.685
X571.967 Y1323.114 I4.437 J-7.038
X573.659 Y1323.631 I8.907 J-26.142
X575.404 Y1323.914 I2.236 J-8.26
X575.658 Y1323.92 I0.232 J-4.046
G3 X575.911 Y1323.927 I0.021 J4.053
X576.229 Y1324.265 I-0.019 J0.338
G1 X576.185 Y1340.97
G3 X576.098 Y1342.189 I-8.643 J0
G2 X576.723 Y1343.583 I1.416 J0.202
G3 X577.162 Y1345.045 I-0.662 J0.996
X557.094 Y1340.97 I-9.62 J-4.075
G1 X557.049 Y1321.391
G3 X557.332 Y1321.208 I0.2 J0
G2 X559.127 Y1321.852 I4.943 J-10.965
X561.021 Y1322.067 I1.654 J-6.099
X564.059 Y1321.491 I-0.394 J-10.362
X566.762 Y1319.99 I-3.032 J-8.645
X567.429 Y1319.429 I-12.368 J-15.406
G3 X568.09 Y1318.86 I31.48 J35.851
X568.599 Y1318.862 I0.254 J0.3
X569.235 Y1319.431 I-12.889 J15.032
G2 X569.908 Y1319.955 I3.221 J-3.444
X571.185 Y1320.76 I51.965 J-80.948
X572.55 Y1321.406 I3.517 J-5.673
X574.263 Y1321.906 I6.527 J-19.159
X576.029 Y1322.171 I2.326 J-9.499
X576.881 Y1322.14 I0.259 J-4.522
X577.725 Y1322.026 I-21.154 J-160.388
G3 X578.034 Y1322.295 I0.037 J0.27
G1 X577.99 Y1340.97
G3 X577.162 Y1345.045 I-10.448 J0
G2 X577.417 Y1346.566 I1.323 J0.56
G3 X577.502 Y1348.106 I-0.915 J0.823
X555.289 Y1340.97 I-9.96 J-7.136
G1 X555.245 Y1317.709
G3 X555.498 Y1317.606 I0.148 J0
X555.996 Y1318.141 I-11.09 J10.843
G2 X556.537 Y1318.632 I2.59 J-2.304
X558.607 Y1319.822 I6.371 J-8.692
X560.952 Y1320.264 I2.142 J-4.921
X563.428 Y1319.8 I-0.326 J-8.569
X565.632 Y1318.582 I-2.405 J-6.96
X566.82 Y1317.578 I-19.108 J-23.802
G3 X568.007 Y1316.574 I26.111 J29.675
G1 X568.086 Y1316.508
X568.165 Y1316.443
G3 X568.66 Y1316.473 I0.23 J0.295
G2 X569.719 Y1317.514 I68.367 J-68.507
X570.883 Y1318.436 I5.216 J-5.39
G1 X571.989 Y1319.146
G2 X573.132 Y1319.697 I2.835 J-4.416
X574.609 Y1320.135 I6.157 J-18.072
X576.133 Y1320.369 I1.988 J-7.862
X579.025 Y1319.848 I0.361 J-6.285
X579.288 Y1319.723 I-1.862 J-4.284
G3 X579.552 Y1319.599 I2.126 J4.159
X579.839 Y1319.787 I0.082 J0.188
G1 X579.794 Y1340.97
G3 X577.502 Y1348.106 I-12.253 J0
G2 X577.421 Y1349.657 I1.171 J0.839
G3 X577.191 Y1351.193 I-1.093 J0.622
X553.484 Y1340.97 I-9.649 J-10.223
G1 X553.44 Y1316.508
G3 X553.477 Y1316.195 I1.345 J0
X554.184 Y1313.765 I25.575 J6.128
X554.508 Y1313.698 I0.182 J0.062
X555.828 Y1315.265 I-21.034 J19.056
G2 X557.178 Y1316.807 I14.641 J-11.455
X558.288 Y1317.66 I3.55 J-3.471
X559.559 Y1318.249 I4.32 J-7.658
X561.919 Y1318.364 I1.362 J-3.683
X564.1 Y1317.453 I-2.175 J-8.274
X564.939 Y1316.856 I-3.124 J-5.281
G1 X565.717 Y1316.198
G2 X566.999 Y1315.087 I-47.686 J-56.352
G3 X568.353 Y1314.066 I7.121 J8.034
X568.877 Y1314.127 I0.224 J0.352
X570.287 Y1315.608 I-82.338 J79.84
G2 X571.858 Y1316.917 I6.038 J-5.649
G3 X572.754 Y1317.509 I-21.283 J33.153
G2 X573.714 Y1317.989 I2.248 J-3.301
X575.275 Y1318.451 I6.453 J-18.94
X576.901 Y1318.541 I1.045 J-4.144
X578.448 Y1318.179 I-1.161 J-8.461
X579.873 Y1317.479 I-1.882 J-5.63
X580.623 Y1316.946 I-9.645 J-14.375
G3 X581.374 Y1316.413 I14.394 J19.473
X581.644 Y1316.556 I0.098 J0.143
G1 X581.599 Y1340.97
G3 X577.191 Y1351.193 I-14.057 J0
G2 X576.805 Y1352.749 I1.018 J1.078
G3 X576.285 Y1354.266 I-1.24 J0.422
X551.63 Y1340.97 I-8.743 J-13.296
G1 Y1316.148
X551.681 Y1315.921
X551.801 Y1315.419
X552.133 Y1314.171
X552.55 Y1312.949
X553.016 Y1311.967
X553.47 Y1311.311
X553.808 Y1311.02
X553.964 Y1310.963
X554.113 Y1310.976
X554.493 Y1311.156
X555.043 Y1311.593
X556.453 Y1313.149
X557.798 Y1314.78
X557.888 Y1314.88
X558.504 Y1315.51
G2 X558.701 Y1315.68 I1.135 J-1.11
G1 X559.273 Y1316.1
G2 X559.662 Y1316.309 I0.938 J-1.28
G1 X560.203 Y1316.509
G2 X560.813 Y1316.606 I0.55 J-1.489
G1 X561.339 Y1316.586
G2 X561.817 Y1316.493 I-0.06 J-1.586
G1 X562.344 Y1316.303
G2 X562.614 Y1316.176 I-0.538 J-1.493
G1 X563.155 Y1315.856
X563.25 Y1315.795
X563.341 Y1315.728
X564.487 Y1314.808
X564.518 Y1314.782
X565.723 Y1313.762
X566.896 Y1312.848
X567.917 Y1312.198
X568.711 Y1311.878
X568.863 Y1311.853
X568.886 Y1311.854
X569.21 Y1311.979
X569.724 Y1312.4
X570.523 Y1313.225
X570.542 Y1313.244
X571.524 Y1314.224
X571.612 Y1314.305
X572.685 Y1315.225
X572.77 Y1315.294
X572.86 Y1315.356
X573.966 Y1316.066
G2 X574.312 Y1316.233 I0.858 J-1.336
G1 X575.398 Y1316.603
G2 X575.819 Y1316.685 I0.512 J-1.503
G1 X576.342 Y1316.715
G2 X576.649 Y1316.703 I0.091 J-1.585
G1 X577.159 Y1316.633
G2 X577.576 Y1316.516 I-0.216 J-1.573
G1 X578.588 Y1316.076
G2 X578.839 Y1315.938 I-0.633 J-1.456
G1 X579.927 Y1315.208
X579.937 Y1315.202
X581.073 Y1314.427
X582.174 Y1313.861
X582.549 Y1313.74
X582.803 Y1313.711
X582.904 Y1313.727
X582.926 Y1313.739
X583.021 Y1313.848
X583.196 Y1314.232
X583.362 Y1314.956
X583.455 Y1316.038
Y1340.97
G3 X576.285 Y1354.266 I-15.913 J0
G1 X576.231 Y1354.294 Z-1.488 F600
X576.173 Y1354.312 Z-1.476
X576.122 Y1354.318 Z-1.441
X576.07 Y1354.315 Z-1.407
X576.004 Y1354.299 Z-1.304
X575.981 Y1354.291 Z-1.183
Z5
G0 X568.597 Y1330.313
G1 Z1.317 F300
X568.612 Y1330.33 Z1.198
X568.656 Y1330.38 Z1.097
X568.716 Y1330.458 Z1.027
X568.782 Y1330.557 Z1
G3 X566.21 Y1332.132 Z0.835 I-1.286 J0.788
X568.782 Y1330.557 Z0.669 I1.286 J-0.788
X566.21 Y1332.132 Z0.504 I-1.286 J0.788
X568.782 Y1330.557 Z0.338 I1.286 J-0.788
X566.21 Y1332.132 Z0.173 I-1.286 J0.788
X568.782 Y1330.557 Z0.007 I1.286 J-0.788
X566.21 Y1332.132 Z-0.158 I-1.286 J0.788
X568.782 Y1330.557 Z-0.324 I1.286 J-0.788
X566.21 Y1332.132 Z-0.489 I-1.286 J0.788
X568.782 Y1330.557 Z-0.655 I1.286 J-0.788
X566.21 Y1332.132 Z-0.82 I-1.286 J0.788
X568.782 Y1330.557 Z-0.985 I1.286 J-0.788
X566.21 Y1332.132 Z-1.151 I-1.286 J0.788
X568.782 Y1330.557 Z-1.316 I1.286 J-0.788
X566.21 Y1332.132 Z-1.482 I-1.286 J0.788
X568.782 Y1330.557 Z-1.647 I1.286 J-0.788
X566.21 Y1332.132 Z-1.813 I-1.286 J0.788
X568.782 Y1330.557 Z-1.978 I1.286 J-0.788
X566.21 Y1332.132 Z-2.144 I-1.286 J0.788
X568.782 Y1330.557 Z-2.309 I1.286 J-0.788
X566.21 Y1332.132 Z-2.474 I-1.286 J0.788
X568.782 Y1330.557 Z-2.64 I1.286 J-0.788
X566.21 Y1332.132 Z-2.805 I-1.286 J0.788
X568.782 Y1330.557 Z-2.971 I1.286 J-0.788
X569.004 Y1331.351 Z-3 I-1.286 J0.788
G1 X568.964 Y1340.97 F1000
G3 X566.12 Y1340.97 I-1.422 J0
G1 X566.075 Y1330.657
G3 X566.411 Y1330.189 I0.495 J0
G2 X567.304 Y1329.873 I-10.47 J-30.989
X568.184 Y1329.519 I-6.061 J-16.36
G3 X568.627 Y1329.516 I0.225 J0.518
G1 X568.67 Y1329.534
G3 X569.01 Y1330.043 I-0.212 J0.509
G1 X569.004 Y1331.351
G2 X569.9 Y1332.705 I1.463 J0.006
G3 X570.795 Y1334.059 I-0.568 J1.349
G1 X570.769 Y1340.97
G3 X564.315 Y1340.97 I-3.227 J0
G1 X564.269 Y1329.254
G3 X564.6 Y1328.834 I0.432 J0
G2 X568 Y1327.619 I-3.914 J-16.305
G3 X568.788 Y1327.614 I0.399 J0.826
G2 X569.622 Y1327.969 I5.486 J-11.71
X570.473 Y1328.278 I8.218 J-21.313
G3 X570.815 Y1328.755 I-0.162 J0.477
G1 X570.795 Y1334.059
G2 X571.692 Y1335.414 I1.464 J0.005
G3 X572.588 Y1336.77 I-0.568 J1.35
G1 X572.575 Y1340.97
G3 X562.51 Y1340.97 I-5.033 J0
G1 X562.464 Y1327.696
G3 X562.788 Y1327.33 I0.368 J0
G2 X568.04 Y1325.555 I-1.661 J-13.567
G3 X568.723 Y1325.551 I0.345 J0.595
G2 X569.74 Y1326.089 I10.559 J-18.727
X570.803 Y1326.531 I3.889 J-7.852
X571.543 Y1326.763 I4.969 J-14.585
G3 X572.286 Y1326.982 I-11.844 J41.49
X572.62 Y1327.432 I-0.137 J0.45
G1 X572.588 Y1336.77
G2 X573.486 Y1338.125 I1.465 J0.005
G3 X574.384 Y1339.481 I-0.568 J1.351
G1 X574.38 Y1340.97
G3 X560.705 Y1340.97 I-6.838 J0
G1 X560.659 Y1325.958
G3 X560.976 Y1325.635 I0.323 J0
X561.33 Y1325.635 I0.18 J8.552
G2 X561.683 Y1325.632 I0.123 J-6.062
X564.559 Y1325.15 I-0.433 J-11.395
X567.228 Y1323.976 I-3.537 J-11.666
X567.659 Y1323.704 I-4.465 J-7.549
G3 X568.085 Y1323.423 I13.346 J19.832
X568.712 Y1323.423 I0.313 J0.488
G1 X568.896 Y1323.55
X569.081 Y1323.677
G2 X571.495 Y1324.87 I6.538 J-10.185
X574.099 Y1325.562 I5.214 J-14.388
G3 X574.424 Y1325.949 I-0.067 J0.387
G1 X574.384 Y1339.481
G2 X575.288 Y1340.805 I1.416 J0.004
G3 X576.098 Y1342.189 I-0.466 J1.202
X558.899 Y1340.97 I-8.556 J-1.219
G1 X558.854 Y1323.938
G3 X559.156 Y1323.687 I0.256 J0
G2 X562.019 Y1323.79 I1.783 J-9.678
X564.81 Y1323.142 I-1.335 J-12.092
X566.512 Y1322.31 I-2.959 J-8.207
X568.053 Y1321.21 I-8.97 J-14.194
G3 X568.6 Y1321.194 I0.284 J0.353
G2 X570.214 Y1322.277 I19.749 J-27.685
X571.967 Y1323.114 I4.437 J-7.038
X573.659 Y1323.631 I8.907 J-26.142
X575.404 Y1323.914 I2.236 J-8.26
X575.658 Y1323.92 I0.232 J-4.046
G3 X575.911 Y1323.927 I0.021 J4.053
X576.229 Y1324.265 I-0.019 J0.338
G1 X576.185 Y1340.97
G3 X576.098 Y1342.189 I-8.643 J0
G2 X576.723 Y1343.583 I1.416 J0.202
G3 X577.162 Y1345.045 I-0.662 J0.996
X557.094 Y1340.97 I-9.62 J-4.075
G1 X557.049 Y1321.391
G3 X557.332 Y1321.208 I0.2 J0
G2 X559.127 Y1321.852 I4.943 J-10.965
X561.021 Y1322.067 I1.654 J-6.099
X564.059 Y1321.491 I-0.394 J-10.362
X566.762 Y1319.99 I-3.032 J-8.645
X567.429 Y1319.429 I-12.368 J-15.406
G3 X568.09 Y1318.86 I31.48 J35.851
X568.599 Y1318.862 I0.254 J0.3
X569.235 Y1319.431 I-12.889 J15.032
G2 X569.908 Y1319.955 I3.221 J-3.444
X571.185 Y1320.76 I51.965 J-80.948
X572.55 Y1321.406 I3.517 J-5.673
X574.263 Y1321.906 I6.527 J-19.159
X576.029 Y1322.171 I2.326 J-9.499
X576.881 Y1322.14 I0.259 J-4.522
X577.725 Y1322.026 I-21.154 J-160.388
G3 X578.034 Y1322.295 I0.037 J0.27
G1 X577.99 Y1340.97
G3 X577.162 Y1345.045 I-10.448 J0
G2 X577.417 Y1346.566 I1.323 J0.56
G3 X577.502 Y1348.106 I-0.915 J0.823
X555.289 Y1340.97 I-9.96 J-7.136
G1 X555.245 Y1317.709
G3 X555.498 Y1317.606 I0.148 J0
X555.996 Y1318.141 I-11.09 J10.843
G2 X556.537 Y1318.632 I2.59 J-2.304
X558.607 Y1319.822 I6.371 J-8.692
X560.952 Y1320.264 I2.142 J-4.921
X563.428 Y1319.8 I-0.326 J-8.569
X565.632 Y1318.582 I-2.405 J-6.96
X566.82 Y1317.578 I-19.108 J-23.802
G3 X568.007 Y1316.574 I26.111 J29.675
G1 X568.086 Y1316.508
X568.165 Y1316.443
G3 X568.66 Y1316.473 I0.23 J0.295
G2 X569.719 Y1317.514 I68.367 J-68.507
X570.883 Y1318.436 I5.216 J-5.39
G1 X571.989 Y1319.146
G2 X573.132 Y1319.697 I2.835 J-4.416
X574.609 Y1320.135 I6.157 J-18.072
X576.133 Y1320.369 I1.988 J-7.862
X579.025 Y1319.848 I0.361 J-6.285
X579.288 Y1319.723 I-1.862 J-4.284
G3 X579.552 Y1319.599 I2.126 J4.159
X579.839 Y1319.787 I0.082 J0.188
G1 X579.794 Y1340.97
G3 X577.502 Y1348.106 I-12.253 J0
G2 X577.421 Y1349.657 I1.171 J0.839
G3 X577.191 Y1351.193 I-1.093 J0.622
X553.484 Y1340.97 I-9.649 J-10.223
G1 X553.44 Y1316.508
G3 X553.477 Y1316.195 I1.345 J0
X554.184 Y1313.765 I25.575 J6.128
X554.508 Y1313.698 I0.182 J0.062
X555.828 Y1315.265 I-21.034 J19.056
G2 X557.178 Y1316.807 I14.641 J-11.455
X558.288 Y1317.66 I3.55 J-3.471
X559.559 Y1318.249 I4.32 J-7.658
X561.919 Y1318.364 I1.362 J-3.683
X564.1 Y1317.453 I-2.175 J-8.274
X564.939 Y1316.856 I-3.124 J-5.281
G1 X565.717 Y1316.198
G2 X566.999 Y1315.087 I-47.686 J-56.352
G3 X568.353 Y1314.066 I7.121 J8.034
X568.877 Y1314.127 I0.224 J0.352
X570.287 Y1315.608 I-82.338 J79.84
G2 X571.858 Y1316.917 I6.038 J-5.649
G3 X572.754 Y1317.509 I-21.283 J33.153
G2 X573.714 Y1317.989 I2.248 J-3.301
X575.275 Y1318.451 I6.453 J-18.94
X576.901 Y1318.541 I1.045 J-4.144
X578.448 Y1318.179 I-1.161 J-8.461
X579.873 Y1317.479 I-1.882 J-5.63
X580.623 Y1316.946 I-9.645 J-14.375
G3 X581.374 Y1316.413 I14.394 J19.473
X581.644 Y1316.556 I0.098 J0.143
G1 X581.599 Y1340.97
G3 X577.191 Y1351.193 I-14.057 J0
G2 X576.805 Y1352.749 I1.018 J1.078
G3 X576.285 Y1354.266 I-1.24 J0.422
X551.63 Y1340.97 I-8.743 J-13.296
G1 Y1316.148
X551.681 Y1315.921
X551.801 Y1315.419
X552.133 Y1314.171
X552.55 Y1312.949
X553.016 Y1311.967
X553.47 Y1311.311
X553.808 Y1311.02
X553.964 Y1310.963
X554.113 Y1310.976
X554.493 Y1311.156
X555.043 Y1311.593
X556.453 Y1313.149
X557.798 Y1314.78
X557.888 Y1314.88
X558.504 Y1315.51
G2 X558.701 Y1315.68 I1.135 J-1.11
G1 X559.273 Y1316.1
G2 X559.662 Y1316.309 I0.938 J-1.28
G1 X560.203 Y1316.509
G2 X560.813 Y1316.606 I0.55 J-1.489
G1 X561.339 Y1316.586
G2 X561.817 Y1316.493 I-0.06 J-1.586
G1 X562.344 Y1316.303
G2 X562.614 Y1316.176 I-0.538 J-1.493
G1 X563.155 Y1315.856
X563.25 Y1315.795
X563.341 Y1315.728
X564.487 Y1314.808
X564.518 Y1314.782
X565.723 Y1313.762
X566.896 Y1312.848
X567.917 Y1312.198
X568.711 Y1311.878
X568.863 Y1311.853
X568.886 Y1311.854
X569.21 Y1311.979
X569.724 Y1312.4
X570.523 Y1313.225
X570.542 Y1313.244
X571.524 Y1314.224
X571.612 Y1314.305
X572.685 Y1315.225
X572.77 Y1315.294
X572.86 Y1315.356
X573.966 Y1316.066
G2 X574.312 Y1316.233 I0.858 J-1.336
G1 X575.398 Y1316.603
G2 X575.819 Y1316.685 I0.512 J-1.503
G1 X576.342 Y1316.715
G2 X576.649 Y1316.703 I0.091 J-1.585
G1 X577.159 Y1316.633
G2 X577.576 Y1316.516 I-0.216 J-1.573
G1 X578.588 Y1316.076
G2 X578.839 Y1315.938 I-0.633 J-1.456
G1 X579.927 Y1315.208
X579.937 Y1315.202
X581.073 Y1314.427
X582.174 Y1313.861
X582.549 Y1313.74
X582.803 Y1313.711
X582.904 Y1313.727
X582.926 Y1313.739
X583.021 Y1313.848
X583.196 Y1314.232
X583.362 Y1314.956
X583.455 Y1316.038
Y1340.97
G3 X576.285 Y1354.266 I-15.913 J0
G1 X576.231 Y1354.294 Z-2.988 F600
X576.173 Y1354.312 Z-2.976
X576.122 Y1354.318 Z-2.941
X576.07 Y1354.315 Z-2.907
X576.004 Y1354.299 Z-2.804
X575.981 Y1354.291 Z-2.683
Z5
G0 Z15
G28 G91 Z0
G90
G28 G91 X0 Y0
G90
M5
M30
