(GrandePlaqueV2)
(T1  D=3.175 CR=0 - ZMIN=-18 - fraise deux tailles)
G90 G94
G17
G21

(Contour 2D2 5)
S99999 M3
G54
G0 Z15
G0 X24.683 Y822.344
Z15
Z5
G1 Z2.5 F300
Z-1.183
G19 G2 Y822.026 Z-1.5 J-0.318 K0 F600
G1 Y821.709
G17 G3 X25 Y821.391 I0.317 J0
G1 X589 F1000
G2 X590.588 Y819.804 I0 J-1.587
G1 Y669.804
G2 X589 Y668.216 I-1.588 J0
G1 X25
G2 X23.413 Y669.804 I0 J1.588
G1 Y819.804
G2 X25 Y821.391 I1.587 J0
G3 X25.317 Y821.709 I0 J0.318 F600
G1 Y822.026
G19 G3 Y822.344 Z-1.183 J0 K0.317
G1 Z2.5
Z5
G0 X24.683
G1 Z1 F300
Z-2.683
G2 Y822.026 Z-3 J-0.318 K0 F600
G1 Y821.709
G17 G3 X25 Y821.391 I0.317 J0
G1 X589 F1000
G2 X590.588 Y819.804 I0 J-1.587
G1 Y669.804
G2 X589 Y668.216 I-1.588 J0
G1 X25
G2 X23.413 Y669.804 I0 J1.588
G1 Y819.804
G2 X25 Y821.391 I1.587 J0
G3 X25.317 Y821.709 I0 J0.318 F600
G1 Y822.026
G19 G3 Y822.344 Z-2.683 J0 K0.318
G1 Z1
Z5
G0 X24.683
G1 Z-0.5 F300
Z-4.183
G2 Y822.026 Z-4.5 J-0.318 K0 F600
G1 Y821.709
G17 G3 X25 Y821.391 I0.317 J0
G1 X589 F1000
G2 X590.588 Y819.804 I0 J-1.587
G1 Y669.804
G2 X589 Y668.216 I-1.588 J0
G1 X25
G2 X23.413 Y669.804 I0 J1.588
G1 Y819.804
G2 X25 Y821.391 I1.587 J0
G3 X25.317 Y821.709 I0 J0.318 F600
G1 Y822.026
G19 G3 Y822.344 Z-4.183 J0 K0.318
G1 Z-0.5
Z5
G0 X24.683
G1 Z-2 F300
Z-5.683
G2 Y822.026 Z-6 J-0.318 K0 F600
G1 Y821.709
G17 G3 X25 Y821.391 I0.317 J0
G1 X589 F1000
G2 X590.588 Y819.804 I0 J-1.587
G1 Y669.804
G2 X589 Y668.216 I-1.588 J0
G1 X25
G2 X23.413 Y669.804 I0 J1.588
G1 Y819.804
G2 X25 Y821.391 I1.587 J0
G3 X25.317 Y821.709 I0 J0.318 F600
G1 Y822.026
G19 G3 Y822.344 Z-5.683 J0 K0.318
G1 Z-2
Z5
G0 X24.683
G1 Z-3.5 F300
Z-7.183
G2 Y822.026 Z-7.5 J-0.318 K0 F600
G1 Y821.709
G17 G3 X25 Y821.391 I0.317 J0
G1 X589 F1000
G2 X590.588 Y819.804 I0 J-1.587
G1 Y669.804
G2 X589 Y668.216 I-1.588 J0
G1 X25
G2 X23.413 Y669.804 I0 J1.588
G1 Y819.804
G2 X25 Y821.391 I1.587 J0
G3 X25.317 Y821.709 I0 J0.318 F600
G1 Y822.026
G19 G3 Y822.344 Z-7.183 J0 K0.318
G1 Z-3.5
Z5
G0 X24.683
G1 Z-5 F300
Z-8.683
G2 Y822.026 Z-9 J-0.318 K0 F600
G1 Y821.709
G17 G3 X25 Y821.391 I0.317 J0
G1 X589 F1000
G2 X590.588 Y819.804 I0 J-1.587
G1 Y669.804
G2 X589 Y668.216 I-1.588 J0
G1 X25
G2 X23.413 Y669.804 I0 J1.588
G1 Y819.804
G2 X25 Y821.391 I1.587 J0
G3 X25.317 Y821.709 I0 J0.318 F600
G1 Y822.026
G19 G3 Y822.344 Z-8.683 J0 K0.318
G1 Z-5
Z5
G0 X24.683
G1 Z-6.5 F300
Z-10.183
G2 Y822.026 Z-10.5 J-0.318 K0 F600
G1 Y821.709
G17 G3 X25 Y821.391 I0.317 J0
G1 X589 F1000
G2 X590.588 Y819.804 I0 J-1.587
G1 Y669.804
G2 X589 Y668.216 I-1.588 J0
G1 X25
G2 X23.413 Y669.804 I0 J1.588
G1 Y819.804
G2 X25 Y821.391 I1.587 J0
G3 X25.317 Y821.709 I0 J0.318 F600
G1 Y822.026
G19 G3 Y822.344 Z-10.183 J0 K0.318
G1 Z-6.5
Z5
G0 X24.683
G1 Z-8 F300
Z-11.683
G2 Y822.026 Z-12 J-0.318 K0 F600
G1 Y821.709
G17 G3 X25 Y821.391 I0.317 J0
G1 X589 F1000
G2 X590.588 Y819.804 I0 J-1.587
G1 Y669.804
G2 X589 Y668.216 I-1.588 J0
G1 X25
G2 X23.413 Y669.804 I0 J1.588
G1 Y819.804
G2 X25 Y821.391 I1.587 J0
G3 X25.317 Y821.709 I0 J0.318 F600
G1 Y822.026
G19 G3 Y822.344 Z-11.683 J0 K0.318
G1 Z-8
Z5
G0 X24.683
G1 Z-9.5 F300
Z-13.183
G2 Y822.026 Z-13.5 J-0.318 K0 F600
G1 Y821.709
G17 G3 X25 Y821.391 I0.317 J0
G1 X116.662 F1000
X117.412 Z-12
X120.588
X121.338 Z-13.5 F300
X304.663 F1000
X305.413 Z-12
X308.587
X309.337 Z-13.5 F300
X492.663 F1000
X493.413 Z-12
X496.587
X497.337 Z-13.5 F300
X589 F1000
G2 X590.588 Y819.804 I0 J-1.587
G1 Y747.141
Y746.391 Z-12
Y743.216
Y742.466 Z-13.5 F300
Y669.804 F1000
G2 X589 Y668.216 I-1.588 J0
G1 X497.337
X496.587 Z-12
X493.413
X492.663 Z-13.5 F300
X309.337 F1000
X308.587 Z-12
X305.413
X304.663 Z-13.5 F300
X121.338 F1000
X120.588 Z-12
X117.412
X116.662 Z-13.5 F300
X25 F1000
G2 X23.413 Y669.804 I0 J1.588
G1 Y819.804
G2 X25 Y821.391 I1.587 J0
G3 X25.317 Y821.709 I0 J0.318 F600
G1 Y822.026
G19 G3 Y822.344 Z-13.183 J0 K0.318
G1 Z-9.5
Z5
G0 X24.683
G1 Z-11 F300
Z-14.683
G2 Y822.026 Z-15 J-0.318 K0 F600
G1 Y821.709
G17 G3 X25 Y821.391 I0.317 J0
G1 X115.912 F1000
X117.412 Z-12
X120.588
X122.088 Z-15 F300
X303.913 F1000
X305.413 Z-12
X308.587
X310.087 Z-15 F300
X491.913 F1000
X493.413 Z-12
X496.587
X498.087 Z-15 F300
X589 F1000
G2 X590.588 Y819.804 I0 J-1.587
G1 Y747.891
Y746.391 Z-12
Y743.216
Y741.716 Z-15 F300
Y669.804 F1000
G2 X589 Y668.216 I-1.588 J0
G1 X498.087
X496.587 Z-12
X493.413
X491.913 Z-15 F300
X310.087 F1000
X308.587 Z-12
X305.413
X303.913 Z-15 F300
X122.088 F1000
X120.588 Z-12
X117.412
X115.912 Z-15 F300
X25 F1000
G2 X23.413 Y669.804 I0 J1.588
G1 Y819.804
G2 X25 Y821.391 I1.587 J0
G3 X25.317 Y821.709 I0 J0.318 F600
G1 Y822.026
G19 G3 Y822.344 Z-14.683 J0 K0.318
G1 Z-11
Z5
G0 X24.683
G1 Z-12.5 F300
Z-16.183
G2 Y822.026 Z-16.5 J-0.318 K0 F600
G1 Y821.709
G17 G3 X25 Y821.391 I0.317 J0
G1 X115.162 F1000
X117.412 Z-12
X120.588
X122.838 Z-16.5 F300
X303.163 F1000
X305.413 Z-12
X308.587
X310.837 Z-16.5 F300
X491.163 F1000
X493.413 Z-12
X496.587
X498.837 Z-16.5 F300
X589 F1000
G2 X590.588 Y819.804 I0 J-1.587
G1 Y748.641
Y746.391 Z-12
Y743.216
Y740.966 Z-16.5 F300
Y669.804 F1000
G2 X589 Y668.216 I-1.588 J0
G1 X498.837
X496.587 Z-12
X493.413
X491.163 Z-16.5 F300
X310.837 F1000
X308.587 Z-12
X305.413
X303.163 Z-16.5 F300
X122.838 F1000
X120.588 Z-12
X117.412
X115.162 Z-16.5 F300
X25 F1000
G2 X23.413 Y669.804 I0 J1.588
G1 Y819.804
G2 X25 Y821.391 I1.587 J0
G3 X25.317 Y821.709 I0 J0.318 F600
G1 Y822.026
G19 G3 Y822.344 Z-16.183 J0 K0.317
G1 Z-12.5
Z5
G0 X24.683
G1 Z-14 F300
Z-17.683
G2 Y822.026 Z-18 J-0.318 K0 F600
G1 Y821.709
G17 G3 X25 Y821.391 I0.317 J0
G1 X114.412 F1000
X117.412 Z-12
X120.588
X123.588 Z-18 F300
X302.413 F1000
X305.413 Z-12
X308.587
X311.587 Z-18 F300
X490.413 F1000
X493.413 Z-12
X496.587
X499.587 Z-18 F300
X589 F1000
G2 X590.588 Y819.804 I0 J-1.587
G1 Y749.391
Y746.391 Z-12
Y743.216
Y740.216 Z-18 F300
Y669.804 F1000
G2 X589 Y668.216 I-1.588 J0
G1 X499.587
X496.587 Z-12
X493.413
X490.413 Z-18 F300
X311.587 F1000
X308.587 Z-12
X305.413
X302.413 Z-18 F300
X123.588 F1000
X120.588 Z-12
X117.412
X114.412 Z-18 F300
X25 F1000
G2 X23.413 Y669.804 I0 J1.588
G1 Y819.804
G2 X25 Y821.391 I1.587 J0
G3 X25.317 Y821.709 I0 J0.318 F600
G1 Y822.026
G19 G3 Y822.344 Z-17.683 J0 K0.317
G1 Z5
G0 Z15
G17
G0 X0 Y0
G90
M5
M30
