(Plaque2)
(T1  D=3.175 CR=0 - ZMIN=-18 - fraise deux tailles)
G90 G94
G17
G21

(Contour 2D2 3)
S99999 M3
G54
G0 Z15
G0 X538.756 Y237.297
Z15
Z5
G1 Z2.5 F300
Z-1.183
G19 G3 Y237.615 Z-1.5 J0.318 K0 F600
G1 Y237.932
G17 G3 X538.439 Y238.249 I-0.317 J0
G1 X48.439 F1000
G2 X46.851 Y239.837 I0 J1.588
G1 Y529.837
G2 X48.439 Y531.424 I1.587 J0
G1 X538.439
G2 X540.026 Y529.837 I0 J-1.588
G1 Y239.837
G2 X538.439 Y238.249 I-1.587 J0
G3 X538.122 Y237.932 I0 J-0.317 F600
G1 Y237.615
G19 G2 Y237.297 Z-1.183 J0 K0.317
G1 Z2.5
Z5
G0 X538.756
G1 Z1 F300
Z-2.683
G3 Y237.615 Z-3 J0.318 K0 F600
G1 Y237.932
G17 G3 X538.439 Y238.249 I-0.317 J0
G1 X48.439 F1000
G2 X46.851 Y239.837 I0 J1.588
G1 Y529.837
G2 X48.439 Y531.424 I1.587 J0
G1 X538.439
G2 X540.026 Y529.837 I0 J-1.588
G1 Y239.837
G2 X538.439 Y238.249 I-1.587 J0
G3 X538.122 Y237.932 I0 J-0.317 F600
G1 Y237.615
G19 G2 Y237.297 Z-2.683 J0 K0.318
G1 Z1
Z5
G0 X538.756
G1 Z-0.5 F300
Z-4.183
G3 Y237.615 Z-4.5 J0.318 K0 F600
G1 Y237.932
G17 G3 X538.439 Y238.249 I-0.317 J0
G1 X48.439 F1000
G2 X46.851 Y239.837 I0 J1.588
G1 Y529.837
G2 X48.439 Y531.424 I1.587 J0
G1 X538.439
G2 X540.026 Y529.837 I0 J-1.588
G1 Y239.837
G2 X538.439 Y238.249 I-1.587 J0
G3 X538.122 Y237.932 I0 J-0.317 F600
G1 Y237.615
G19 G2 Y237.297 Z-4.183 J0 K0.318
G1 Z-0.5
Z5
G0 X538.756
G1 Z-2 F300
Z-5.683
G3 Y237.615 Z-6 J0.318 K0 F600
G1 Y237.932
G17 G3 X538.439 Y238.249 I-0.317 J0
G1 X48.439 F1000
G2 X46.851 Y239.837 I0 J1.588
G1 Y529.837
G2 X48.439 Y531.424 I1.587 J0
G1 X538.439
G2 X540.026 Y529.837 I0 J-1.588
G1 Y239.837
G2 X538.439 Y238.249 I-1.587 J0
G3 X538.122 Y237.932 I0 J-0.317 F600
G1 Y237.615
G19 G2 Y237.297 Z-5.683 J0 K0.318
G1 Z-2
Z5
G0 X538.756
G1 Z-3.5 F300
Z-7.183
G3 Y237.615 Z-7.5 J0.318 K0 F600
G1 Y237.932
G17 G3 X538.439 Y238.249 I-0.317 J0
G1 X48.439 F1000
G2 X46.851 Y239.837 I0 J1.588
G1 Y529.837
G2 X48.439 Y531.424 I1.587 J0
G1 X538.439
G2 X540.026 Y529.837 I0 J-1.588
G1 Y239.837
G2 X538.439 Y238.249 I-1.587 J0
G3 X538.122 Y237.932 I0 J-0.317 F600
G1 Y237.615
G19 G2 Y237.297 Z-7.183 J0 K0.318
G1 Z-3.5
Z5
G0 X538.756
G1 Z-5 F300
Z-8.683
G3 Y237.615 Z-9 J0.318 K0 F600
G1 Y237.932
G17 G3 X538.439 Y238.249 I-0.317 J0
G1 X48.439 F1000
G2 X46.851 Y239.837 I0 J1.588
G1 Y529.837
G2 X48.439 Y531.424 I1.587 J0
G1 X538.439
G2 X540.026 Y529.837 I0 J-1.588
G1 Y239.837
G2 X538.439 Y238.249 I-1.587 J0
G3 X538.122 Y237.932 I0 J-0.317 F600
G1 Y237.615
G19 G2 Y237.297 Z-8.683 J0 K0.318
G1 Z-5
Z5
G0 X538.756
G1 Z-6.5 F300
Z-10.183
G3 Y237.615 Z-10.5 J0.318 K0 F600
G1 Y237.932
G17 G3 X538.439 Y238.249 I-0.317 J0
G1 X48.439 F1000
G2 X46.851 Y239.837 I0 J1.588
G1 Y529.837
G2 X48.439 Y531.424 I1.587 J0
G1 X538.439
G2 X540.026 Y529.837 I0 J-1.588
G1 Y239.837
G2 X538.439 Y238.249 I-1.587 J0
G3 X538.122 Y237.932 I0 J-0.317 F600
G1 Y237.615
G19 G2 Y237.297 Z-10.183 J0 K0.318
G1 Z-6.5
Z5
G0 X538.756
G1 Z-8 F300
Z-11.683
G3 Y237.615 Z-12 J0.318 K0 F600
G1 Y237.932
G17 G3 X538.439 Y238.249 I-0.317 J0
G1 X48.439 F1000
G2 X46.851 Y239.837 I0 J1.588
G1 Y529.837
G2 X48.439 Y531.424 I1.587 J0
G1 X538.439
G2 X540.026 Y529.837 I0 J-1.588
G1 Y239.837
G2 X538.439 Y238.249 I-1.587 J0
G3 X538.122 Y237.932 I0 J-0.317 F600
G1 Y237.615
G19 G2 Y237.297 Z-11.683 J0 K0.318
G1 Z-8
Z5
G0 X538.756
G1 Z-9.5 F300
Z-13.183
G3 Y237.615 Z-13.5 J0.318 K0 F600
G1 Y237.932
G17 G3 X538.439 Y238.249 I-0.317 J0
G1 X479.526 F1000
X478.776 Z-12
X475.602
X474.852 Z-13.5 F300
X357.026 F1000
X356.276 Z-12
X353.102
X352.352 Z-13.5 F300
X234.526 F1000
X233.777 Z-12
X230.602
X229.852 Z-13.5 F300
X112.026 F1000
X111.276 Z-12
X108.102
X107.352 Z-13.5 F300
X48.439 F1000
G2 X46.851 Y239.837 I0 J1.588
G1 Y310
Y310.75 Z-12
Y313.924
Y314.674 Z-13.5 F300
Y455 F1000
Y455.75 Z-12
Y458.924
Y459.674 Z-13.5 F300
Y529.837 F1000
G2 X48.439 Y531.424 I1.587 J0
G1 X107.352
X108.102 Z-12
X111.276
X112.026 Z-13.5 F300
X229.852 F1000
X230.602 Z-12
X233.777
X234.526 Z-13.5 F300
X352.352 F1000
X353.102 Z-12
X356.276
X357.026 Z-13.5 F300
X474.852 F1000
X475.602 Z-12
X478.776
X479.526 Z-13.5 F300
X538.439 F1000
G2 X540.026 Y529.837 I0 J-1.588
G1 Y459.674
Y458.924 Z-12
Y455.75
Y455 Z-13.5 F300
Y314.674 F1000
Y313.924 Z-12
Y310.75
Y310 Z-13.5 F300
Y239.837 F1000
G2 X538.439 Y238.249 I-1.587 J0
G3 X538.122 Y237.932 I0 J-0.317 F600
G1 Y237.615
G19 G2 Y237.297 Z-13.183 J0 K0.318
G1 Z-9.5
Z5
G0 X538.756
G1 Z-11 F300
Z-14.683
G3 Y237.615 Z-15 J0.318 K0 F600
G1 Y237.932
G17 G3 X538.439 Y238.249 I-0.317 J0
G1 X480.276 F1000
X478.776 Z-12
X475.602
X474.102 Z-15 F300
X357.776 F1000
X356.276 Z-12
X353.102
X351.602 Z-15 F300
X235.276 F1000
X233.777 Z-12
X230.602
X229.102 Z-15 F300
X112.776 F1000
X111.276 Z-12
X108.102
X106.602 Z-15 F300
X48.439 F1000
G2 X46.851 Y239.837 I0 J1.588
G1 Y309.25
Y310.75 Z-12
Y313.924
Y315.424 Z-15 F300
Y454.25 F1000
Y455.75 Z-12
Y458.924
Y460.424 Z-15 F300
Y529.837 F1000
G2 X48.439 Y531.424 I1.587 J0
G1 X106.602
X108.102 Z-12
X111.276
X112.776 Z-15 F300
X229.102 F1000
X230.602 Z-12
X233.777
X235.276 Z-15 F300
X351.602 F1000
X353.102 Z-12
X356.276
X357.776 Z-15 F300
X474.102 F1000
X475.602 Z-12
X478.776
X480.276 Z-15 F300
X538.439 F1000
G2 X540.026 Y529.837 I0 J-1.588
G1 Y460.424
Y458.924 Z-12
Y455.75
Y454.25 Z-15 F300
Y315.424 F1000
Y313.924 Z-12
Y310.75
Y309.25 Z-15 F300
Y239.837 F1000
G2 X538.439 Y238.249 I-1.587 J0
G3 X538.122 Y237.932 I0 J-0.317 F600
G1 Y237.615
G19 G2 Y237.297 Z-14.683 J0 K0.318
G1 Z-11
Z5
G0 X538.756
G1 Z-12.5 F300
Z-16.183
G3 Y237.615 Z-16.5 J0.318 K0 F600
G1 Y237.932
G17 G3 X538.439 Y238.249 I-0.317 J0
G1 X481.026 F1000
X478.776 Z-12
X475.602
X473.352 Z-16.5 F300
X358.526 F1000
X356.276 Z-12
X353.102
X350.852 Z-16.5 F300
X236.026 F1000
X233.777 Z-12
X230.602
X228.352 Z-16.5 F300
X113.526 F1000
X111.276 Z-12
X108.102
X105.852 Z-16.5 F300
X48.439 F1000
G2 X46.851 Y239.837 I0 J1.588
G1 Y308.5
Y310.75 Z-12
Y313.924
Y316.174 Z-16.5 F300
Y453.5 F1000
Y455.75 Z-12
Y458.924
Y461.174 Z-16.5 F300
Y529.837 F1000
G2 X48.439 Y531.424 I1.587 J0
G1 X105.852
X108.102 Z-12
X111.276
X113.526 Z-16.5 F300
X228.352 F1000
X230.602 Z-12
X233.777
X236.026 Z-16.5 F300
X350.852 F1000
X353.102 Z-12
X356.276
X358.526 Z-16.5 F300
X473.352 F1000
X475.602 Z-12
X478.776
X481.026 Z-16.5 F300
X538.439 F1000
G2 X540.026 Y529.837 I0 J-1.588
G1 Y461.174
Y458.924 Z-12
Y455.75
Y453.5 Z-16.5 F300
Y316.174 F1000
Y313.924 Z-12
Y310.75
Y308.5 Z-16.5 F300
Y239.837 F1000
G2 X538.439 Y238.249 I-1.587 J0
G3 X538.122 Y237.932 I0 J-0.317 F600
G1 Y237.615
G19 G2 Y237.297 Z-16.183 J0 K0.317
G1 Z-12.5
Z5
G0 X538.756
G1 Z-14 F300
Z-17.683
G3 Y237.615 Z-18 J0.318 K0 F600
G1 Y237.932
G17 G3 X538.439 Y238.249 I-0.317 J0
G1 X481.776 F1000
X478.776 Z-12
X475.602
X472.602 Z-18 F300
X359.276 F1000
X356.276 Z-12
X353.102
X350.102 Z-18 F300
X236.777 F1000
X233.777 Z-12
X230.602
X227.602 Z-18 F300
X114.276 F1000
X111.276 Z-12
X108.102
X105.102 Z-18 F300
X48.439 F1000
G2 X46.851 Y239.837 I0 J1.588
G1 Y307.75
Y310.75 Z-12
Y313.924
Y316.924 Z-18 F300
Y452.75 F1000
Y455.75 Z-12
Y458.924
Y461.924 Z-18 F300
Y529.837 F1000
G2 X48.439 Y531.424 I1.587 J0
G1 X105.102
X108.102 Z-12
X111.276
X114.276 Z-18 F300
X227.602 F1000
X230.602 Z-12
X233.777
X236.777 Z-18 F300
X350.102 F1000
X353.102 Z-12
X356.276
X359.276 Z-18 F300
X472.602 F1000
X475.602 Z-12
X478.776
X481.776 Z-18 F300
X538.439 F1000
G2 X540.026 Y529.837 I0 J-1.588
G1 Y461.924
Y458.924 Z-12
Y455.75
Y452.75 Z-18 F300
Y316.924 F1000
Y313.924 Z-12
Y310.75
Y307.75 Z-18 F300
Y239.837 F1000
G2 X538.439 Y238.249 I-1.587 J0
G3 X538.122 Y237.932 I0 J-0.317 F600
G1 Y237.615
G19 G2 Y237.297 Z-17.683 J0 K0.317
G1 Z5
G0 Z15
G17
G0 X0 Y0
G90
M5
M30
