(1001)
(T1  D=3.175 CR=0 - ZMIN=-18 - fraise deux tailles)
G90 G94
G17
G21

(Contour 2D2)
S99999 M3
G54
G0 Z15
G0 X16.334 Y190.025
Z15
Z5
G1 Z2.5 F300
Z-1.183
G19 G2 Y189.708 Z-1.5 J-0.317 K0 F600
G1 Y189.39
G17 G3 X16.652 Y189.072 I0.317 J0
G1 X580.652 F1000
G2 X582.24 Y187.485 I0 J-1.587
G1 Y17.485
G2 X580.652 Y15.898 I-1.588 J0
G1 X16.652
G2 X15.064 Y17.485 I0 J1.588
G1 Y187.485
G2 X16.652 Y189.072 I1.587 J0
G3 X16.969 Y189.39 I0 J0.318 F600
G1 Y189.708
G19 G3 Y190.025 Z-1.183 J0 K0.317
G1 Z2.5
Z5
G0 X16.334
G1 Z1 F300
Z-2.683
G2 Y189.708 Z-3 J-0.317 K0 F600
G1 Y189.39
G17 G3 X16.652 Y189.072 I0.317 J0
G1 X580.652 F1000
G2 X582.24 Y187.485 I0 J-1.587
G1 Y17.485
G2 X580.652 Y15.898 I-1.588 J0
G1 X16.652
G2 X15.064 Y17.485 I0 J1.588
G1 Y187.485
G2 X16.652 Y189.072 I1.587 J0
G3 X16.969 Y189.39 I0 J0.318 F600
G1 Y189.708
G19 G3 Y190.025 Z-2.683 J0 K0.318
G1 Z1
Z5
G0 X16.334
G1 Z-0.5 F300
Z-4.183
G2 Y189.708 Z-4.5 J-0.317 K0 F600
G1 Y189.39
G17 G3 X16.652 Y189.072 I0.317 J0
G1 X580.652 F1000
G2 X582.24 Y187.485 I0 J-1.587
G1 Y17.485
G2 X580.652 Y15.898 I-1.588 J0
G1 X16.652
G2 X15.064 Y17.485 I0 J1.588
G1 Y187.485
G2 X16.652 Y189.072 I1.587 J0
G3 X16.969 Y189.39 I0 J0.318 F600
G1 Y189.708
G19 G3 Y190.025 Z-4.183 J0 K0.318
G1 Z-0.5
Z5
G0 X16.334
G1 Z-2 F300
Z-5.683
G2 Y189.708 Z-6 J-0.317 K0 F600
G1 Y189.39
G17 G3 X16.652 Y189.072 I0.317 J0
G1 X580.652 F1000
G2 X582.24 Y187.485 I0 J-1.587
G1 Y17.485
G2 X580.652 Y15.898 I-1.588 J0
G1 X16.652
G2 X15.064 Y17.485 I0 J1.588
G1 Y187.485
G2 X16.652 Y189.072 I1.587 J0
G3 X16.969 Y189.39 I0 J0.318 F600
G1 Y189.708
G19 G3 Y190.025 Z-5.683 J0 K0.318
G1 Z-2
Z5
G0 X16.334
G1 Z-3.5 F300
Z-7.183
G2 Y189.708 Z-7.5 J-0.317 K0 F600
G1 Y189.39
G17 G3 X16.652 Y189.072 I0.317 J0
G1 X580.652 F1000
G2 X582.24 Y187.485 I0 J-1.587
G1 Y17.485
G2 X580.652 Y15.898 I-1.588 J0
G1 X16.652
G2 X15.064 Y17.485 I0 J1.588
G1 Y187.485
G2 X16.652 Y189.072 I1.587 J0
G3 X16.969 Y189.39 I0 J0.318 F600
G1 Y189.708
G19 G3 Y190.025 Z-7.183 J0 K0.318
G1 Z-3.5
Z5
G0 X16.334
G1 Z-5 F300
Z-8.683
G2 Y189.708 Z-9 J-0.317 K0 F600
G1 Y189.39
G17 G3 X16.652 Y189.072 I0.317 J0
G1 X580.652 F1000
G2 X582.24 Y187.485 I0 J-1.587
G1 Y17.485
G2 X580.652 Y15.898 I-1.588 J0
G1 X16.652
G2 X15.064 Y17.485 I0 J1.588
G1 Y187.485
G2 X16.652 Y189.072 I1.587 J0
G3 X16.969 Y189.39 I0 J0.318 F600
G1 Y189.708
G19 G3 Y190.025 Z-8.683 J0 K0.318
G1 Z-5
Z5
G0 X16.334
G1 Z-6.5 F300
Z-10.183
G2 Y189.708 Z-10.5 J-0.317 K0 F600
G1 Y189.39
G17 G3 X16.652 Y189.072 I0.317 J0
G1 X580.652 F1000
G2 X582.24 Y187.485 I0 J-1.587
G1 Y17.485
G2 X580.652 Y15.898 I-1.588 J0
G1 X16.652
G2 X15.064 Y17.485 I0 J1.588
G1 Y187.485
G2 X16.652 Y189.072 I1.587 J0
G3 X16.969 Y189.39 I0 J0.318 F600
G1 Y189.708
G19 G3 Y190.025 Z-10.183 J0 K0.318
G1 Z-6.5
Z5
G0 X16.334
G1 Z-8 F300
Z-11.683
G2 Y189.708 Z-12 J-0.317 K0 F600
G1 Y189.39
G17 G3 X16.652 Y189.072 I0.317 J0
G1 X580.652 F1000
G2 X582.24 Y187.485 I0 J-1.587
G1 Y17.485
G2 X580.652 Y15.898 I-1.588 J0
G1 X16.652
G2 X15.064 Y17.485 I0 J1.588
G1 Y187.485
G2 X16.652 Y189.072 I1.587 J0
G3 X16.969 Y189.39 I0 J0.318 F600
G1 Y189.708
G19 G3 Y190.025 Z-11.683 J0 K0.318
G1 Z-8
Z5
G0 X16.334
G1 Z-9.5 F300
Z-13.183
G2 Y189.708 Z-13.5 J-0.317 K0 F600
G1 Y189.39
G17 G3 X16.652 Y189.072 I0.317 J0
G1 X84.814 F1000
X85.564 Z-12
X88.739
X89.489 Z-13.5 F300
X225.814 F1000
X226.564 Z-12
X229.74
X230.49 Z-13.5 F300
X366.815 F1000
X367.565 Z-12
X370.74
X371.49 Z-13.5 F300
X507.815 F1000
X508.565 Z-12
X511.74
X512.49 Z-13.5 F300
X580.652 F1000
G2 X582.24 Y187.485 I0 J-1.587
G1 Y104.823
Y104.073 Z-12
Y100.897
Y100.147 Z-13.5 F300
Y17.485 F1000
G2 X580.652 Y15.898 I-1.588 J0
G1 X512.49
X511.74 Z-12
X508.565
X507.815 Z-13.5 F300
X371.49 F1000
X370.74 Z-12
X367.565
X366.815 Z-13.5 F300
X230.49 F1000
X229.74 Z-12
X226.564
X225.814 Z-13.5 F300
X89.489 F1000
X88.739 Z-12
X85.564
X84.814 Z-13.5 F300
X16.652 F1000
G2 X15.064 Y17.485 I0 J1.588
G1 Y100.147
Y100.897 Z-12
Y104.073
Y104.823 Z-13.5 F300
Y187.485 F1000
G2 X16.652 Y189.072 I1.587 J0
G3 X16.969 Y189.39 I0 J0.318 F600
G1 Y189.708
G19 G3 Y190.025 Z-13.183 J0 K0.318
G1 Z-9.5
Z5
G0 X16.334
G1 Z-11 F300
Z-14.683
G2 Y189.708 Z-15 J-0.317 K0 F600
G1 Y189.39
G17 G3 X16.652 Y189.072 I0.317 J0
G1 X84.064 F1000
X85.564 Z-12
X88.739
X90.239 Z-15 F300
X225.064 F1000
X226.564 Z-12
X229.74
X231.24 Z-15 F300
X366.065 F1000
X367.565 Z-12
X370.74
X372.24 Z-15 F300
X507.065 F1000
X508.565 Z-12
X511.74
X513.24 Z-15 F300
X580.652 F1000
G2 X582.24 Y187.485 I0 J-1.587
G1 Y105.573
Y104.073 Z-12
Y100.897
Y99.397 Z-15 F300
Y17.485 F1000
G2 X580.652 Y15.898 I-1.588 J0
G1 X513.24
X511.74 Z-12
X508.565
X507.065 Z-15 F300
X372.24 F1000
X370.74 Z-12
X367.565
X366.065 Z-15 F300
X231.24 F1000
X229.74 Z-12
X226.564
X225.064 Z-15 F300
X90.239 F1000
X88.739 Z-12
X85.564
X84.064 Z-15 F300
X16.652 F1000
G2 X15.064 Y17.485 I0 J1.588
G1 Y99.397
Y100.897 Z-12
Y104.073
Y105.573 Z-15 F300
Y187.485 F1000
G2 X16.652 Y189.072 I1.587 J0
G3 X16.969 Y189.39 I0 J0.318 F600
G1 Y189.708
G19 G3 Y190.025 Z-14.683 J0 K0.318
G1 Z-11
Z5
G0 X16.334
G1 Z-12.5 F300
Z-16.183
G2 Y189.708 Z-16.5 J-0.317 K0 F600
G1 Y189.39
G17 G3 X16.652 Y189.072 I0.317 J0
G1 X83.314 F1000
X85.564 Z-12
X88.739
X90.989 Z-16.5 F300
X224.314 F1000
X226.564 Z-12
X229.74
X231.99 Z-16.5 F300
X365.315 F1000
X367.565 Z-12
X370.74
X372.99 Z-16.5 F300
X506.315 F1000
X508.565 Z-12
X511.74
X513.99 Z-16.5 F300
X580.652 F1000
G2 X582.24 Y187.485 I0 J-1.587
G1 Y106.323
Y104.073 Z-12
Y100.897
Y98.647 Z-16.5 F300
Y17.485 F1000
G2 X580.652 Y15.898 I-1.588 J0
G1 X513.99
X511.74 Z-12
X508.565
X506.315 Z-16.5 F300
X372.99 F1000
X370.74 Z-12
X367.565
X365.315 Z-16.5 F300
X231.99 F1000
X229.74 Z-12
X226.564
X224.314 Z-16.5 F300
X90.989 F1000
X88.739 Z-12
X85.564
X83.314 Z-16.5 F300
X16.652 F1000
G2 X15.064 Y17.485 I0 J1.588
G1 Y98.647
Y100.897 Z-12
Y104.073
Y106.323 Z-16.5 F300
Y187.485 F1000
G2 X16.652 Y189.072 I1.587 J0
G3 X16.969 Y189.39 I0 J0.318 F600
G1 Y189.708
G19 G3 Y190.025 Z-16.183 J0 K0.317
G1 Z-12.5
Z5
G0 X16.334
G1 Z-14 F300
Z-17.683
G2 Y189.708 Z-18 J-0.317 K0 F600
G1 Y189.39
G17 G3 X16.652 Y189.072 I0.317 J0
G1 X82.564 F1000
X85.564 Z-12
X88.739
X91.739 Z-18 F300
X223.564 F1000
X226.564 Z-12
X229.74
X232.74 Z-18 F300
X364.565 F1000
X367.565 Z-12
X370.74
X373.74 Z-18 F300
X505.565 F1000
X508.565 Z-12
X511.74
X514.74 Z-18 F300
X580.652 F1000
G2 X582.24 Y187.485 I0 J-1.587
G1 Y107.073
Y104.073 Z-12
Y100.897
Y97.897 Z-18 F300
Y17.485 F1000
G2 X580.652 Y15.898 I-1.588 J0
G1 X514.74
X511.74 Z-12
X508.565
X505.565 Z-18 F300
X373.74 F1000
X370.74 Z-12
X367.565
X364.565 Z-18 F300
X232.74 F1000
X229.74 Z-12
X226.564
X223.564 Z-18 F300
X91.739 F1000
X88.739 Z-12
X85.564
X82.564 Z-18 F300
X16.652 F1000
G2 X15.064 Y17.485 I0 J1.588
G1 Y97.897
Y100.897 Z-12
Y104.073
Y107.073 Z-18 F300
Y187.485 F1000
G2 X16.652 Y189.072 I1.587 J0
G3 X16.969 Y189.39 I0 J0.318 F600
G1 Y189.708
G19 G3 Y190.025 Z-17.683 J0 K0.317
G1 Z5
G0 Z15
G17
G0 X0 Y0
G90
M5
M30
