(Plaque2)
(T1  D=3.175 CR=0 - ZMIN=-18.052 - fraise deux tailles)
G90 G94
G17
G21

(Contour 2D2 4)
S99999 M3
G54
G0 Z15
G0 X302.765 Y572.46
Z15
Z5
G1 Z2.5 F300
Z-1.183
G19 G3 Y572.778 Z-1.5 J0.318 K0 F600
G1 Y573.095
G17 G3 X302.447 Y573.412 I-0.317 J0
G1 X18.448 F1000
G2 X16.86 Y575 I0 J1.588
G1 Y1175
G2 X18.448 Y1176.588 I1.587 J0
G1 X586.447
G2 X588.034 Y1175 I0 J-1.588
G1 Y575
G2 X586.447 Y573.412 I-1.587 J0
G1 X302.447
G3 X302.13 Y573.095 I0 J-0.318 F600
G1 Y572.778
G19 G2 Y572.46 Z-1.183 J0 K0.317
G1 Z2.5
Z5
G0 X302.765
G1 Z1 F300
Z-2.683
G3 Y572.778 Z-3 J0.318 K0 F600
G1 Y573.095
G17 G3 X302.447 Y573.412 I-0.317 J0
G1 X18.448 F1000
G2 X16.86 Y575 I0 J1.588
G1 Y1175
G2 X18.448 Y1176.588 I1.587 J0
G1 X586.447
G2 X588.034 Y1175 I0 J-1.588
G1 Y575
G2 X586.447 Y573.412 I-1.587 J0
G1 X302.447
G3 X302.13 Y573.095 I0 J-0.318 F600
G1 Y572.778
G19 G2 Y572.46 Z-2.683 J0 K0.318
G1 Z1
Z5
G0 X302.765
G1 Z-0.5 F300
Z-4.183
G3 Y572.778 Z-4.5 J0.318 K0 F600
G1 Y573.095
G17 G3 X302.447 Y573.412 I-0.317 J0
G1 X18.448 F1000
G2 X16.86 Y575 I0 J1.588
G1 Y1175
G2 X18.448 Y1176.588 I1.587 J0
G1 X586.447
G2 X588.034 Y1175 I0 J-1.588
G1 Y575
G2 X586.447 Y573.412 I-1.587 J0
G1 X302.447
G3 X302.13 Y573.095 I0 J-0.318 F600
G1 Y572.778
G19 G2 Y572.46 Z-4.183 J0 K0.318
G1 Z-0.5
Z5
G0 X302.765
G1 Z-2 F300
Z-5.683
G3 Y572.778 Z-6 J0.318 K0 F600
G1 Y573.095
G17 G3 X302.447 Y573.412 I-0.317 J0
G1 X18.448 F1000
G2 X16.86 Y575 I0 J1.588
G1 Y1175
G2 X18.448 Y1176.588 I1.587 J0
G1 X586.447
G2 X588.034 Y1175 I0 J-1.588
G1 Y575
G2 X586.447 Y573.412 I-1.587 J0
G1 X302.447
G3 X302.13 Y573.095 I0 J-0.318 F600
G1 Y572.778
G19 G2 Y572.46 Z-5.683 J0 K0.318
G1 Z-2
Z5
G0 X302.765
G1 Z-3.5 F300
Z-7.183
G3 Y572.778 Z-7.5 J0.318 K0 F600
G1 Y573.095
G17 G3 X302.447 Y573.412 I-0.317 J0
G1 X18.448 F1000
G2 X16.86 Y575 I0 J1.588
G1 Y1175
G2 X18.448 Y1176.588 I1.587 J0
G1 X586.447
G2 X588.034 Y1175 I0 J-1.588
G1 Y575
G2 X586.447 Y573.412 I-1.587 J0
G1 X302.447
G3 X302.13 Y573.095 I0 J-0.318 F600
G1 Y572.778
G19 G2 Y572.46 Z-7.183 J0 K0.318
G1 Z-3.5
Z5
G0 X302.765
G1 Z-5 F300
Z-8.683
G3 Y572.778 Z-9 J0.318 K0 F600
G1 Y573.095
G17 G3 X302.447 Y573.412 I-0.317 J0
G1 X18.448 F1000
G2 X16.86 Y575 I0 J1.588
G1 Y1175
G2 X18.448 Y1176.588 I1.587 J0
G1 X586.447
G2 X588.034 Y1175 I0 J-1.588
G1 Y575
G2 X586.447 Y573.412 I-1.587 J0
G1 X302.447
G3 X302.13 Y573.095 I0 J-0.318 F600
G1 Y572.778
G19 G2 Y572.46 Z-8.683 J0 K0.318
G1 Z-5
Z5
G0 X302.765
G1 Z-6.5 F300
Z-10.183
G3 Y572.778 Z-10.5 J0.318 K0 F600
G1 Y573.095
G17 G3 X302.447 Y573.412 I-0.317 J0
G1 X18.448 F1000
G2 X16.86 Y575 I0 J1.588
G1 Y1175
G2 X18.448 Y1176.588 I1.587 J0
G1 X586.447
G2 X588.034 Y1175 I0 J-1.588
G1 Y575
G2 X586.447 Y573.412 I-1.587 J0
G1 X302.447
G3 X302.13 Y573.095 I0 J-0.318 F600
G1 Y572.778
G19 G2 Y572.46 Z-10.183 J0 K0.318
G1 Z-6.5
Z5
G0 X302.765
G1 Z-8 F300
Z-11.683
G3 Y572.778 Z-12 J0.318 K0 F600
G1 Y573.095
G17 G3 X302.447 Y573.412 I-0.317 J0
G1 X18.448 F1000
G2 X16.86 Y575 I0 J1.588
G1 Y1175
G2 X18.448 Y1176.588 I1.587 J0
G1 X586.447
G2 X588.034 Y1175 I0 J-1.588
G1 Y575
G2 X586.447 Y573.412 I-1.587 J0
G1 X302.447
G3 X302.13 Y573.095 I0 J-0.318 F600
G1 Y572.778
G19 G2 Y572.46 Z-11.683 J0 K0.318
G1 Z-8
Z5
G0 X302.765
G1 Z-9.5 F300
Z-13.183
G3 Y572.778 Z-13.5 J0.318 K0 F600
G1 Y573.095
G17 G3 X302.447 Y573.412 I-0.317 J0
G1 X233.758 F1000
X233.035 Z-12.052
X229.859
X229.136 Z-13.5 F300
X91.759 F1000
X91.035 Z-12.052
X87.86
X87.136 Z-13.5 F300
X18.448 F1000
G2 X16.86 Y575 I0 J1.588
G1 Y632.689
Y633.412 Z-12.052
Y636.588
Y637.311 Z-13.5 F300
Y752.689 F1000
Y753.412 Z-12.052
Y756.588
Y757.311 Z-13.5 F300
Y872.689 F1000
Y873.412 Z-12.052
Y876.588
Y877.311 Z-13.5 F300
Y992.689 F1000
Y993.412 Z-12.052
Y996.588
Y997.311 Z-13.5 F300
Y1112.689 F1000
Y1113.412 Z-12.052
Y1116.588
Y1117.311 Z-13.5 F300
Y1175 F1000
G2 X18.448 Y1176.588 I1.587 J0
G1 X87.136
X87.86 Z-12.052
X91.035
X91.759 Z-13.5 F300
X229.136 F1000
X229.859 Z-12.052
X233.035
X233.758 Z-13.5 F300
X371.136 F1000
X371.859 Z-12.052
X375.034
X375.758 Z-13.5 F300
X513.136 F1000
X513.859 Z-12.052
X517.034
X517.758 Z-13.5 F300
X586.447 F1000
G2 X588.034 Y1175 I0 J-1.588
G1 Y1117.311
Y1116.588 Z-12.052
Y1113.412
Y1112.689 Z-13.5 F300
Y997.311 F1000
Y996.588 Z-12.052
Y993.412
Y992.689 Z-13.5 F300
Y877.311 F1000
Y876.588 Z-12.052
Y873.412
Y872.689 Z-13.5 F300
Y757.311 F1000
Y756.588 Z-12.052
Y753.412
Y752.689 Z-13.5 F300
Y637.311 F1000
Y636.588 Z-12.052
Y633.412
Y632.689 Z-13.5 F300
Y575 F1000
G2 X586.447 Y573.412 I-1.587 J0
G1 X517.758
X517.034 Z-12.052
X513.859
X513.136 Z-13.5 F300
X375.758 F1000
X375.034 Z-12.052
X371.859
X371.136 Z-13.5 F300
X302.447 F1000
G3 X302.13 Y573.095 I0 J-0.318 F600
G1 Y572.778
G19 G2 Y572.46 Z-13.183 J0 K0.318
G1 Z-9.5
Z5
G0 X302.765
G1 Z-11 F300
Z-14.683
G3 Y572.778 Z-15 J0.318 K0 F600
G1 Y573.095
G17 G3 X302.447 Y573.412 I-0.317 J0
G1 X234.508 F1000
X233.035 Z-12.052
X229.859
X228.386 Z-15 F300
X92.509 F1000
X91.035 Z-12.052
X87.86
X86.386 Z-15 F300
X18.448 F1000
G2 X16.86 Y575 I0 J1.588
G1 Y631.939
Y633.412 Z-12.052
Y636.588
Y638.061 Z-15 F300
Y751.939 F1000
Y753.412 Z-12.052
Y756.588
Y758.061 Z-15 F300
Y871.939 F1000
Y873.412 Z-12.052
Y876.588
Y878.061 Z-15 F300
Y991.939 F1000
Y993.412 Z-12.052
Y996.588
Y998.061 Z-15 F300
Y1111.939 F1000
Y1113.412 Z-12.052
Y1116.588
Y1118.061 Z-15 F300
Y1175 F1000
G2 X18.448 Y1176.588 I1.587 J0
G1 X86.386
X87.86 Z-12.052
X91.035
X92.509 Z-15 F300
X228.386 F1000
X229.859 Z-12.052
X233.035
X234.508 Z-15 F300
X370.386 F1000
X371.859 Z-12.052
X375.034
X376.508 Z-15 F300
X512.386 F1000
X513.859 Z-12.052
X517.034
X518.508 Z-15 F300
X586.447 F1000
G2 X588.034 Y1175 I0 J-1.588
G1 Y1118.061
Y1116.588 Z-12.052
Y1113.412
Y1111.939 Z-15 F300
Y998.061 F1000
Y996.588 Z-12.052
Y993.412
Y991.939 Z-15 F300
Y878.061 F1000
Y876.588 Z-12.052
Y873.412
Y871.939 Z-15 F300
Y758.061 F1000
Y756.588 Z-12.052
Y753.412
Y751.939 Z-15 F300
Y638.061 F1000
Y636.588 Z-12.052
Y633.412
Y631.939 Z-15 F300
Y575 F1000
G2 X586.447 Y573.412 I-1.587 J0
G1 X518.508
X517.034 Z-12.052
X513.859
X512.386 Z-15 F300
X376.508 F1000
X375.034 Z-12.052
X371.859
X370.386 Z-15 F300
X302.447 F1000
G3 X302.13 Y573.095 I0 J-0.318 F600
G1 Y572.778
G19 G2 Y572.46 Z-14.683 J0 K0.318
G1 Z-11
Z5
G0 X302.765
G1 Z-12.5 F300
Z-16.183
G3 Y572.778 Z-16.5 J0.318 K0 F600
G1 Y573.095
G17 G3 X302.447 Y573.412 I-0.317 J0
G1 X235.258 F1000
X233.035 Z-12.052
X229.859
X227.636 Z-16.5 F300
X93.259 F1000
X91.035 Z-12.052
X87.86
X85.636 Z-16.5 F300
X18.448 F1000
G2 X16.86 Y575 I0 J1.588
G1 Y631.189
Y633.412 Z-12.052
Y636.588
Y638.811 Z-16.5 F300
Y751.189 F1000
Y753.412 Z-12.052
Y756.588
Y758.811 Z-16.5 F300
Y871.189 F1000
Y873.412 Z-12.052
Y876.588
Y878.811 Z-16.5 F300
Y991.189 F1000
Y993.412 Z-12.052
Y996.588
Y998.811 Z-16.5 F300
Y1111.189 F1000
Y1113.412 Z-12.052
Y1116.588
Y1118.811 Z-16.5 F300
Y1175 F1000
G2 X18.448 Y1176.588 I1.587 J0
G1 X85.636
X87.86 Z-12.052
X91.035
X93.259 Z-16.5 F300
X227.636 F1000
X229.859 Z-12.052
X233.035
X235.258 Z-16.5 F300
X369.636 F1000
X371.859 Z-12.052
X375.034
X377.258 Z-16.5 F300
X511.636 F1000
X513.859 Z-12.052
X517.034
X519.258 Z-16.5 F300
X586.447 F1000
G2 X588.034 Y1175 I0 J-1.588
G1 Y1118.811
Y1116.588 Z-12.052
Y1113.412
Y1111.189 Z-16.5 F300
Y998.811 F1000
Y996.588 Z-12.052
Y993.412
Y991.189 Z-16.5 F300
Y878.811 F1000
Y876.588 Z-12.052
Y873.412
Y871.189 Z-16.5 F300
Y758.811 F1000
Y756.588 Z-12.052
Y753.412
Y751.189 Z-16.5 F300
Y638.811 F1000
Y636.588 Z-12.052
Y633.412
Y631.189 Z-16.5 F300
Y575 F1000
G2 X586.447 Y573.412 I-1.587 J0
G1 X519.258
X517.034 Z-12.052
X513.859
X511.636 Z-16.5 F300
X377.258 F1000
X375.034 Z-12.052
X371.859
X369.636 Z-16.5 F300
X302.447 F1000
G3 X302.13 Y573.095 I0 J-0.318 F600
G1 Y572.778
G19 G2 Y572.46 Z-16.183 J0 K0.317
G1 Z-12.5
Z5
G0 X302.765
G1 Z-14 F300
Z-16.959
G3 Y572.778 Z-17.276 J0.318 K0 F600
G1 Y573.095
G17 G3 X302.447 Y573.412 I-0.317 J0
G1 X235.646 F1000
X233.035 Z-12.052
X229.859
X227.248 Z-17.276 F300
X93.647 F1000
X91.035 Z-12.052
X87.86
X85.248 Z-17.276 F300
X18.448 F1000
G2 X16.86 Y575 I0 J1.588
G1 Y630.801
Y633.412 Z-12.052
Y636.588
Y639.199 Z-17.276 F300
Y750.801 F1000
Y753.412 Z-12.052
Y756.588
Y759.199 Z-17.276 F300
Y870.801 F1000
Y873.412 Z-12.052
Y876.588
Y879.199 Z-17.276 F300
Y990.801 F1000
Y993.412 Z-12.052
Y996.588
Y999.199 Z-17.276 F300
Y1110.801 F1000
Y1113.412 Z-12.052
Y1116.588
Y1119.199 Z-17.276 F300
Y1175 F1000
G2 X18.448 Y1176.588 I1.587 J0
G1 X85.248
X87.86 Z-12.052
X91.035
X93.647 Z-17.276 F300
X227.248 F1000
X229.859 Z-12.052
X233.035
X235.646 Z-17.276 F300
X369.248 F1000
X371.859 Z-12.052
X375.034
X377.646 Z-17.276 F300
X511.248 F1000
X513.859 Z-12.052
X517.034
X519.646 Z-17.276 F300
X586.447 F1000
G2 X588.034 Y1175 I0 J-1.588
G1 Y1119.199
Y1116.588 Z-12.052
Y1113.412
Y1110.801 Z-17.276 F300
Y999.199 F1000
Y996.588 Z-12.052
Y993.412
Y990.801 Z-17.276 F300
Y879.199 F1000
Y876.588 Z-12.052
Y873.412
Y870.801 Z-17.276 F300
Y759.199 F1000
Y756.588 Z-12.052
Y753.412
Y750.801 Z-17.276 F300
Y639.199 F1000
Y636.588 Z-12.052
Y633.412
Y630.801 Z-17.276 F300
Y575 F1000
G2 X586.447 Y573.412 I-1.587 J0
G1 X519.646
X517.034 Z-12.052
X513.859
X511.248 Z-17.276 F300
X377.646 F1000
X375.034 Z-12.052
X371.859
X369.248 Z-17.276 F300
X302.447 F1000
G3 X302.13 Y573.095 I0 J-0.318 F600
G1 Y572.778
G19 G2 Y572.46 Z-16.959 J0 K0.318
G1 Z-14
Z5
G0 X302.765
G1 Z-14.776 F300
Z-17.735
G3 Y572.778 Z-18.052 J0.318 K0 F600
G1 Y573.095
G17 G3 X302.447 Y573.412 I-0.317 J0
G1 X236.035 F1000
X233.035 Z-12.052
X229.859
X226.859 Z-18.052 F300
X94.035 F1000
X91.035 Z-12.052
X87.86
X84.86 Z-18.052 F300
X18.448 F1000
G2 X16.86 Y575 I0 J1.588
G1 Y630.412
Y633.412 Z-12.052
Y636.588
Y639.588 Z-18.052 F300
Y750.412 F1000
Y753.412 Z-12.052
Y756.588
Y759.588 Z-18.052 F300
Y870.412 F1000
Y873.412 Z-12.052
Y876.588
Y879.588 Z-18.052 F300
Y990.412 F1000
Y993.412 Z-12.052
Y996.588
Y999.588 Z-18.052 F300
Y1110.412 F1000
Y1113.412 Z-12.052
Y1116.588
Y1119.588 Z-18.052 F300
Y1175 F1000
G2 X18.448 Y1176.588 I1.587 J0
G1 X84.86
X87.86 Z-12.052
X91.035
X94.035 Z-18.052 F300
X226.859 F1000
X229.859 Z-12.052
X233.035
X236.035 Z-18.052 F300
X368.859 F1000
X371.859 Z-12.052
X375.034
X378.034 Z-18.052 F300
X510.859 F1000
X513.859 Z-12.052
X517.034
X520.034 Z-18.052 F300
X586.447 F1000
G2 X588.034 Y1175 I0 J-1.588
G1 Y1119.588
Y1116.588 Z-12.052
Y1113.412
Y1110.412 Z-18.052 F300
Y999.588 F1000
Y996.588 Z-12.052
Y993.412
Y990.412 Z-18.052 F300
Y879.588 F1000
Y876.588 Z-12.052
Y873.412
Y870.412 Z-18.052 F300
Y759.588 F1000
Y756.588 Z-12.052
Y753.412
Y750.412 Z-18.052 F300
Y639.588 F1000
Y636.588 Z-12.052
Y633.412
Y630.412 Z-18.052 F300
Y575 F1000
G2 X586.447 Y573.412 I-1.587 J0
G1 X520.034
X517.034 Z-12.052
X513.859
X510.859 Z-18.052 F300
X378.034 F1000
X375.034 Z-12.052
X371.859
X368.859 Z-18.052 F300
X302.447 F1000
G3 X302.13 Y573.095 I0 J-0.318 F600
G1 Y572.778
G19 G2 Y572.46 Z-17.735 J0 K0.317
G1 Z5
G0 Z15
G17
G0 X0 Y0
G90
M5
M30
