(Plaque2)
(T1  D=3.175 CR=0 - ZMIN=-18 - fraise deux tailles)
G90 G94
G17
G21

(Contour 2D2)
S99999 M3
G54
G0 Z15
G0 X101.969 Y184.945
Z15
Z5
G1 Z2.5 F300
Z-1.183
G19 G3 Y185.262 Z-1.5 J0.317 K0 F600
G1 Y185.58
G17 G3 X101.652 Y185.898 I-0.317 J0
G1 X18.239 F1000
Y19.073
X579.065
Y185.898
X101.652
G3 X101.334 Y185.58 I0 J-0.318 F600
G1 Y185.262
G19 G2 Y184.945 Z-1.183 J0 K0.317
G1 Z2.5
Z5
G0 X101.969
G1 Z1 F300
Z-2.683
G3 Y185.262 Z-3 J0.317 K0 F600
G1 Y185.58
G17 G3 X101.652 Y185.898 I-0.317 J0
G1 X18.239 F1000
Y19.073
X579.065
Y185.898
X101.652
G3 X101.334 Y185.58 I0 J-0.318 F600
G1 Y185.262
G19 G2 Y184.945 Z-2.683 J0 K0.318
G1 Z1
Z5
G0 X101.969
G1 Z-0.5 F300
Z-4.183
G3 Y185.262 Z-4.5 J0.317 K0 F600
G1 Y185.58
G17 G3 X101.652 Y185.898 I-0.317 J0
G1 X18.239 F1000
Y19.073
X579.065
Y185.898
X101.652
G3 X101.334 Y185.58 I0 J-0.318 F600
G1 Y185.262
G19 G2 Y184.945 Z-4.183 J0 K0.318
G1 Z-0.5
Z5
G0 X101.969
G1 Z-2 F300
Z-5.683
G3 Y185.262 Z-6 J0.317 K0 F600
G1 Y185.58
G17 G3 X101.652 Y185.898 I-0.317 J0
G1 X18.239 F1000
Y19.073
X579.065
Y185.898
X101.652
G3 X101.334 Y185.58 I0 J-0.318 F600
G1 Y185.262
G19 G2 Y184.945 Z-5.683 J0 K0.318
G1 Z-2
Z5
G0 X101.969
G1 Z-3.5 F300
Z-7.183
G3 Y185.262 Z-7.5 J0.317 K0 F600
G1 Y185.58
G17 G3 X101.652 Y185.898 I-0.317 J0
G1 X18.239 F1000
Y19.073
X579.065
Y185.898
X101.652
G3 X101.334 Y185.58 I0 J-0.318 F600
G1 Y185.262
G19 G2 Y184.945 Z-7.183 J0 K0.318
G1 Z-3.5
Z5
G0 X101.969
G1 Z-5 F300
Z-8.683
G3 Y185.262 Z-9 J0.317 K0 F600
G1 Y185.58
G17 G3 X101.652 Y185.898 I-0.317 J0
G1 X18.239 F1000
Y19.073
X579.065
Y185.898
X101.652
G3 X101.334 Y185.58 I0 J-0.318 F600
G1 Y185.262
G19 G2 Y184.945 Z-8.683 J0 K0.318
G1 Z-5
Z5
G0 X101.969
G1 Z-6.5 F300
Z-10.183
G3 Y185.262 Z-10.5 J0.317 K0 F600
G1 Y185.58
G17 G3 X101.652 Y185.898 I-0.317 J0
G1 X18.239 F1000
Y19.073
X579.065
Y185.898
X101.652
G3 X101.334 Y185.58 I0 J-0.318 F600
G1 Y185.262
G19 G2 Y184.945 Z-10.183 J0 K0.318
G1 Z-6.5
Z5
G0 X101.969
G1 Z-8 F300
Z-11.683
G3 Y185.262 Z-12 J0.317 K0 F600
G1 Y185.58
G17 G3 X101.652 Y185.898 I-0.317 J0
G1 X18.239 F1000
Y19.073
X579.065
Y185.898
X101.652
G3 X101.334 Y185.58 I0 J-0.318 F600
G1 Y185.262
G19 G2 Y184.945 Z-11.683 J0 K0.318
G1 Z-8
Z5
G0 X101.969
G1 Z-9.5 F300
Z-13.183
G3 Y185.262 Z-13.5 J0.317 K0 F600
G1 Y185.58
G17 G3 X101.652 Y185.898 I-0.317 J0
G1 X89.489 F1000
X88.739 Z-12
X85.564
X84.814 Z-13.5 F300
X18.239 F1000
Y104.823
Y104.073 Z-12
Y100.897
Y100.147 Z-13.5 F300
Y19.073 F1000
X84.814
X85.564 Z-12
X88.739
X89.489 Z-13.5 F300
X225.814 F1000
X226.564 Z-12
X229.74
X230.49 Z-13.5 F300
X366.815 F1000
X367.565 Z-12
X370.74
X371.49 Z-13.5 F300
X507.815 F1000
X508.565 Z-12
X511.74
X512.49 Z-13.5 F300
X579.065 F1000
Y100.147
Y100.897 Z-12
Y104.073
Y104.823 Z-13.5 F300
Y185.898 F1000
X512.49
X511.74 Z-12
X508.565
X507.815 Z-13.5 F300
X371.49 F1000
X370.74 Z-12
X367.565
X366.815 Z-13.5 F300
X230.49 F1000
X229.74 Z-12
X226.564
X225.814 Z-13.5 F300
X101.652 F1000
G3 X101.334 Y185.58 I0 J-0.318 F600
G1 Y185.262
G19 G2 Y184.945 Z-13.183 J0 K0.318
G1 Z-9.5
Z5
G0 X101.969
G1 Z-11 F300
Z-14.683
G3 Y185.262 Z-15 J0.317 K0 F600
G1 Y185.58
G17 G3 X101.652 Y185.898 I-0.317 J0
G1 X90.239 F1000
X88.739 Z-12
X85.564
X84.064 Z-15 F300
X18.239 F1000
Y105.573
Y104.073 Z-12
Y100.897
Y99.397 Z-15 F300
Y19.073 F1000
X84.064
X85.564 Z-12
X88.739
X90.239 Z-15 F300
X225.064 F1000
X226.564 Z-12
X229.74
X231.24 Z-15 F300
X366.065 F1000
X367.565 Z-12
X370.74
X372.24 Z-15 F300
X507.065 F1000
X508.565 Z-12
X511.74
X513.24 Z-15 F300
X579.065 F1000
Y99.397
Y100.897 Z-12
Y104.073
Y105.573 Z-15 F300
Y185.898 F1000
X513.24
X511.74 Z-12
X508.565
X507.065 Z-15 F300
X372.24 F1000
X370.74 Z-12
X367.565
X366.065 Z-15 F300
X231.24 F1000
X229.74 Z-12
X226.564
X225.064 Z-15 F300
X101.652 F1000
G3 X101.334 Y185.58 I0 J-0.318 F600
G1 Y185.262
G19 G2 Y184.945 Z-14.683 J0 K0.318
G1 Z-11
Z5
G0 X101.969
G1 Z-12.5 F300
Z-16.183
G3 Y185.262 Z-16.5 J0.317 K0 F600
G1 Y185.58
G17 G3 X101.652 Y185.898 I-0.317 J0
G1 X90.989 F1000
X88.739 Z-12
X85.564
X83.314 Z-16.5 F300
X18.239 F1000
Y106.323
Y104.073 Z-12
Y100.897
Y98.647 Z-16.5 F300
Y19.073 F1000
X83.314
X85.564 Z-12
X88.739
X90.989 Z-16.5 F300
X224.314 F1000
X226.564 Z-12
X229.74
X231.99 Z-16.5 F300
X365.315 F1000
X367.565 Z-12
X370.74
X372.99 Z-16.5 F300
X506.315 F1000
X508.565 Z-12
X511.74
X513.99 Z-16.5 F300
X579.065 F1000
Y98.647
Y100.897 Z-12
Y104.073
Y106.323 Z-16.5 F300
Y185.898 F1000
X513.99
X511.74 Z-12
X508.565
X506.315 Z-16.5 F300
X372.99 F1000
X370.74 Z-12
X367.565
X365.315 Z-16.5 F300
X231.99 F1000
X229.74 Z-12
X226.564
X224.314 Z-16.5 F300
X101.652 F1000
G3 X101.334 Y185.58 I0 J-0.318 F600
G1 Y185.262
G19 G2 Y184.945 Z-16.183 J0 K0.317
G1 Z-12.5
Z5
G0 X101.969
G1 Z-14 F300
Z-17.683
G3 Y185.262 Z-18 J0.317 K0 F600
G1 Y185.58
G17 G3 X101.652 Y185.898 I-0.317 J0
G1 X91.739 F1000
X88.739 Z-12
X85.564
X82.564 Z-18 F300
X18.239 F1000
Y107.073
Y104.073 Z-12
Y100.897
Y97.897 Z-18 F300
Y19.073 F1000
X82.564
X85.564 Z-12
X88.739
X91.739 Z-18 F300
X223.564 F1000
X226.564 Z-12
X229.74
X232.74 Z-18 F300
X364.565 F1000
X367.565 Z-12
X370.74
X373.74 Z-18 F300
X505.565 F1000
X508.565 Z-12
X511.74
X514.74 Z-18 F300
X579.065 F1000
Y97.897
Y100.897 Z-12
Y104.073
Y107.073 Z-18 F300
Y185.898 F1000
X514.74
X511.74 Z-12
X508.565
X505.565 Z-18 F300
X373.74 F1000
X370.74 Z-12
X367.565
X364.565 Z-18 F300
X232.74 F1000
X229.74 Z-12
X226.564
X223.564 Z-18 F300
X101.652 F1000
G3 X101.334 Y185.58 I0 J-0.318 F600
G1 Y185.262
G19 G2 Y184.945 Z-17.683 J0 K0.317
G1 Z5
G0 Z15
G17
G0 X0 Y0
G90
M5
M30
