(Plaque2)
(T1  D=3.175 CR=0 - ZMIN=-18 - fraise deux tailles)
G90 G94
G17
G21

(Contour 2D2 2)
S99999 M3
G54
G0 Z15
G0 X14.121 Y571.377
Z15
Z5
G1 Z2.5 F300
Z-1.183
G19 G2 Y571.06 Z-1.5 J-0.318 K0 F600
G1 Y570.742
G17 G3 X14.439 Y570.424 I0.317 J0
G1 X578.439 F1000
G2 X580.026 Y568.837 I0 J-1.588
G1 Y199.837
G2 X578.439 Y198.249 I-1.587 J0
G1 X14.439
G2 X12.851 Y199.837 I0 J1.588
G1 Y568.837
G2 X14.439 Y570.424 I1.587 J0
G3 X14.756 Y570.742 I0 J0.318 F600
G1 Y571.06
G19 G3 Y571.377 Z-1.183 J0 K0.317
G1 Z2.5
Z5
G0 X14.121
G1 Z1 F300
Z-2.683
G2 Y571.06 Z-3 J-0.318 K0 F600
G1 Y570.742
G17 G3 X14.439 Y570.424 I0.317 J0
G1 X578.439 F1000
G2 X580.026 Y568.837 I0 J-1.588
G1 Y199.837
G2 X578.439 Y198.249 I-1.587 J0
G1 X14.439
G2 X12.851 Y199.837 I0 J1.588
G1 Y568.837
G2 X14.439 Y570.424 I1.587 J0
G3 X14.756 Y570.742 I0 J0.318 F600
G1 Y571.06
G19 G3 Y571.377 Z-2.683 J0 K0.318
G1 Z1
Z5
G0 X14.121
G1 Z-0.5 F300
Z-4.183
G2 Y571.06 Z-4.5 J-0.318 K0 F600
G1 Y570.742
G17 G3 X14.439 Y570.424 I0.317 J0
G1 X578.439 F1000
G2 X580.026 Y568.837 I0 J-1.588
G1 Y199.837
G2 X578.439 Y198.249 I-1.587 J0
G1 X14.439
G2 X12.851 Y199.837 I0 J1.588
G1 Y568.837
G2 X14.439 Y570.424 I1.587 J0
G3 X14.756 Y570.742 I0 J0.318 F600
G1 Y571.06
G19 G3 Y571.377 Z-4.183 J0 K0.318
G1 Z-0.5
Z5
G0 X14.121
G1 Z-2 F300
Z-5.683
G2 Y571.06 Z-6 J-0.318 K0 F600
G1 Y570.742
G17 G3 X14.439 Y570.424 I0.317 J0
G1 X578.439 F1000
G2 X580.026 Y568.837 I0 J-1.588
G1 Y199.837
G2 X578.439 Y198.249 I-1.587 J0
G1 X14.439
G2 X12.851 Y199.837 I0 J1.588
G1 Y568.837
G2 X14.439 Y570.424 I1.587 J0
G3 X14.756 Y570.742 I0 J0.318 F600
G1 Y571.06
G19 G3 Y571.377 Z-5.683 J0 K0.318
G1 Z-2
Z5
G0 X14.121
G1 Z-3.5 F300
Z-7.183
G2 Y571.06 Z-7.5 J-0.318 K0 F600
G1 Y570.742
G17 G3 X14.439 Y570.424 I0.317 J0
G1 X578.439 F1000
G2 X580.026 Y568.837 I0 J-1.588
G1 Y199.837
G2 X578.439 Y198.249 I-1.587 J0
G1 X14.439
G2 X12.851 Y199.837 I0 J1.588
G1 Y568.837
G2 X14.439 Y570.424 I1.587 J0
G3 X14.756 Y570.742 I0 J0.318 F600
G1 Y571.06
G19 G3 Y571.377 Z-7.183 J0 K0.318
G1 Z-3.5
Z5
G0 X14.121
G1 Z-5 F300
Z-8.683
G2 Y571.06 Z-9 J-0.318 K0 F600
G1 Y570.742
G17 G3 X14.439 Y570.424 I0.317 J0
G1 X578.439 F1000
G2 X580.026 Y568.837 I0 J-1.588
G1 Y199.837
G2 X578.439 Y198.249 I-1.587 J0
G1 X14.439
G2 X12.851 Y199.837 I0 J1.588
G1 Y568.837
G2 X14.439 Y570.424 I1.587 J0
G3 X14.756 Y570.742 I0 J0.318 F600
G1 Y571.06
G19 G3 Y571.377 Z-8.683 J0 K0.318
G1 Z-5
Z5
G0 X14.121
G1 Z-6.5 F300
Z-10.183
G2 Y571.06 Z-10.5 J-0.318 K0 F600
G1 Y570.742
G17 G3 X14.439 Y570.424 I0.317 J0
G1 X578.439 F1000
G2 X580.026 Y568.837 I0 J-1.588
G1 Y199.837
G2 X578.439 Y198.249 I-1.587 J0
G1 X14.439
G2 X12.851 Y199.837 I0 J1.588
G1 Y568.837
G2 X14.439 Y570.424 I1.587 J0
G3 X14.756 Y570.742 I0 J0.318 F600
G1 Y571.06
G19 G3 Y571.377 Z-10.183 J0 K0.318
G1 Z-6.5
Z5
G0 X14.121
G1 Z-8 F300
Z-11.683
G2 Y571.06 Z-12 J-0.318 K0 F600
G1 Y570.742
G17 G3 X14.439 Y570.424 I0.317 J0
G1 X578.439 F1000
G2 X580.026 Y568.837 I0 J-1.588
G1 Y199.837
G2 X578.439 Y198.249 I-1.587 J0
G1 X14.439
G2 X12.851 Y199.837 I0 J1.588
G1 Y568.837
G2 X14.439 Y570.424 I1.587 J0
G3 X14.756 Y570.742 I0 J0.318 F600
G1 Y571.06
G19 G3 Y571.377 Z-11.683 J0 K0.318
G1 Z-8
Z5
G0 X14.121
G1 Z-9.5 F300
Z-13.183
G2 Y571.06 Z-13.5 J-0.318 K0 F600
G1 Y570.742
G17 G3 X14.439 Y570.424 I0.317 J0
G1 X82.601 F1000
X83.351 Z-12
X86.526
X87.276 Z-13.5 F300
X223.602 F1000
X224.352 Z-12
X227.527
X228.276 Z-13.5 F300
X364.602 F1000
X365.352 Z-12
X368.526
X369.276 Z-13.5 F300
X505.602 F1000
X506.352 Z-12
X509.526
X510.276 Z-13.5 F300
X578.439 F1000
G2 X580.026 Y568.837 I0 J-1.588
G1 Y509.674
Y508.924 Z-12
Y505.75
Y505 Z-13.5 F300
Y386.674 F1000
Y385.924 Z-12
Y382.75
Y382 Z-13.5 F300
Y263.674 F1000
Y262.924 Z-12
Y259.75
Y259 Z-13.5 F300
Y199.837 F1000
G2 X578.439 Y198.249 I-1.587 J0
G1 X510.276
X509.526 Z-12
X506.352
X505.602 Z-13.5 F300
X369.276 F1000
X368.526 Z-12
X365.352
X364.602 Z-13.5 F300
X228.276 F1000
X227.527 Z-12
X224.352
X223.602 Z-13.5 F300
X87.276 F1000
X86.526 Z-12
X83.351
X82.601 Z-13.5 F300
X14.439 F1000
G2 X12.851 Y199.837 I0 J1.588
G1 Y259
Y259.75 Z-12
Y262.924
Y263.674 Z-13.5 F300
Y382 F1000
Y382.75 Z-12
Y385.924
Y386.674 Z-13.5 F300
Y505 F1000
Y505.75 Z-12
Y508.924
Y509.674 Z-13.5 F300
Y568.837 F1000
G2 X14.439 Y570.424 I1.587 J0
G3 X14.756 Y570.742 I0 J0.318 F600
G1 Y571.06
G19 G3 Y571.377 Z-13.183 J0 K0.318
G1 Z-9.5
Z5
G0 X14.121
G1 Z-11 F300
Z-14.683
G2 Y571.06 Z-15 J-0.318 K0 F600
G1 Y570.742
G17 G3 X14.439 Y570.424 I0.317 J0
G1 X81.851 F1000
X83.351 Z-12
X86.526
X88.026 Z-15 F300
X222.852 F1000
X224.352 Z-12
X227.527
X229.026 Z-15 F300
X363.852 F1000
X365.352 Z-12
X368.526
X370.026 Z-15 F300
X504.852 F1000
X506.352 Z-12
X509.526
X511.026 Z-15 F300
X578.439 F1000
G2 X580.026 Y568.837 I0 J-1.588
G1 Y510.424
Y508.924 Z-12
Y505.75
Y504.25 Z-15 F300
Y387.424 F1000
Y385.924 Z-12
Y382.75
Y381.25 Z-15 F300
Y264.424 F1000
Y262.924 Z-12
Y259.75
Y258.25 Z-15 F300
Y199.837 F1000
G2 X578.439 Y198.249 I-1.587 J0
G1 X511.026
X509.526 Z-12
X506.352
X504.852 Z-15 F300
X370.026 F1000
X368.526 Z-12
X365.352
X363.852 Z-15 F300
X229.026 F1000
X227.527 Z-12
X224.352
X222.852 Z-15 F300
X88.026 F1000
X86.526 Z-12
X83.351
X81.851 Z-15 F300
X14.439 F1000
G2 X12.851 Y199.837 I0 J1.588
G1 Y258.25
Y259.75 Z-12
Y262.924
Y264.424 Z-15 F300
Y381.25 F1000
Y382.75 Z-12
Y385.924
Y387.424 Z-15 F300
Y504.25 F1000
Y505.75 Z-12
Y508.924
Y510.424 Z-15 F300
Y568.837 F1000
G2 X14.439 Y570.424 I1.587 J0
G3 X14.756 Y570.742 I0 J0.318 F600
G1 Y571.06
G19 G3 Y571.377 Z-14.683 J0 K0.318
G1 Z-11
Z5
G0 X14.121
G1 Z-12.5 F300
Z-16.183
G2 Y571.06 Z-16.5 J-0.318 K0 F600
G1 Y570.742
G17 G3 X14.439 Y570.424 I0.317 J0
G1 X81.101 F1000
X83.351 Z-12
X86.526
X88.776 Z-16.5 F300
X222.102 F1000
X224.352 Z-12
X227.527
X229.776 Z-16.5 F300
X363.102 F1000
X365.352 Z-12
X368.526
X370.776 Z-16.5 F300
X504.102 F1000
X506.352 Z-12
X509.526
X511.776 Z-16.5 F300
X578.439 F1000
G2 X580.026 Y568.837 I0 J-1.588
G1 Y511.174
Y508.924 Z-12
Y505.75
Y503.5 Z-16.5 F300
Y388.174 F1000
Y385.924 Z-12
Y382.75
Y380.5 Z-16.5 F300
Y265.174 F1000
Y262.924 Z-12
Y259.75
Y257.5 Z-16.5 F300
Y199.837 F1000
G2 X578.439 Y198.249 I-1.587 J0
G1 X511.776
X509.526 Z-12
X506.352
X504.102 Z-16.5 F300
X370.776 F1000
X368.526 Z-12
X365.352
X363.102 Z-16.5 F300
X229.776 F1000
X227.527 Z-12
X224.352
X222.102 Z-16.5 F300
X88.776 F1000
X86.526 Z-12
X83.351
X81.101 Z-16.5 F300
X14.439 F1000
G2 X12.851 Y199.837 I0 J1.588
G1 Y257.5
Y259.75 Z-12
Y262.924
Y265.174 Z-16.5 F300
Y380.5 F1000
Y382.75 Z-12
Y385.924
Y388.174 Z-16.5 F300
Y503.5 F1000
Y505.75 Z-12
Y508.924
Y511.174 Z-16.5 F300
Y568.837 F1000
G2 X14.439 Y570.424 I1.587 J0
G3 X14.756 Y570.742 I0 J0.318 F600
G1 Y571.06
G19 G3 Y571.377 Z-16.183 J0 K0.317
G1 Z-12.5
Z5
G0 X14.121
G1 Z-14 F300
Z-17.683
G2 Y571.06 Z-18 J-0.318 K0 F600
G1 Y570.742
G17 G3 X14.439 Y570.424 I0.317 J0
G1 X80.351 F1000
X83.351 Z-12
X86.526
X89.526 Z-18 F300
X221.352 F1000
X224.352 Z-12
X227.527
X230.527 Z-18 F300
X362.352 F1000
X365.352 Z-12
X368.526
X371.526 Z-18 F300
X503.352 F1000
X506.352 Z-12
X509.526
X512.526 Z-18 F300
X578.439 F1000
G2 X580.026 Y568.837 I0 J-1.588
G1 Y511.924
Y508.924 Z-12
Y505.75
Y502.75 Z-18 F300
Y388.924 F1000
Y385.924 Z-12
Y382.75
Y379.75 Z-18 F300
Y265.924 F1000
Y262.924 Z-12
Y259.75
Y256.75 Z-18 F300
Y199.837 F1000
G2 X578.439 Y198.249 I-1.587 J0
G1 X512.526
X509.526 Z-12
X506.352
X503.352 Z-18 F300
X371.526 F1000
X368.526 Z-12
X365.352
X362.352 Z-18 F300
X230.527 F1000
X227.527 Z-12
X224.352
X221.352 Z-18 F300
X89.526 F1000
X86.526 Z-12
X83.351
X80.351 Z-18 F300
X14.439 F1000
G2 X12.851 Y199.837 I0 J1.588
G1 Y256.75
Y259.75 Z-12
Y262.924
Y265.924 Z-18 F300
Y379.75 F1000
Y382.75 Z-12
Y385.924
Y388.924 Z-18 F300
Y502.75 F1000
Y505.75 Z-12
Y508.924
Y511.924 Z-18 F300
Y568.837 F1000
G2 X14.439 Y570.424 I1.587 J0
G3 X14.756 Y570.742 I0 J0.318 F600
G1 Y571.06
G19 G3 Y571.377 Z-17.683 J0 K0.317
G1 Z5
G0 Z15
G17
G0 X0 Y0
G90
M5
M30
