(Plaque2)
(T1  D=3.175 CR=0 - ZMIN=-3.053 - fraise deux tailles)
G90 G94
G17
G21

(Poche 2D1)
S99999 M3
G54
G0 Z15
G0 X549.052 Y685.838
Z15
Z5
G1 Z2.817 F300
X549.076 Y685.866 Z2.668
X549.138 Y685.949 Z2.554
X549.181 Y686.015 Z2.515
X549.225 Y686.09 Z2.5
G3 X546.578 Y687.536 Z2.335 I-1.323 J0.723
X549.225 Y686.09 Z2.169 I1.323 J-0.723
X546.578 Y687.536 Z2.004 I-1.323 J0.723
X549.225 Y686.09 Z1.838 I1.323 J-0.723
X546.578 Y687.536 Z1.673 I-1.323 J0.723
X549.225 Y686.09 Z1.507 I1.323 J-0.723
X546.578 Y687.536 Z1.342 I-1.323 J0.723
X549.225 Y686.09 Z1.176 I1.323 J-0.723
X546.578 Y687.536 Z1.011 I-1.323 J0.723
X549.225 Y686.09 Z0.845 I1.323 J-0.723
X546.578 Y687.536 Z0.68 I-1.323 J0.723
X549.225 Y686.09 Z0.515 I1.323 J-0.723
X546.578 Y687.536 Z0.349 I-1.323 J0.723
X549.225 Y686.09 Z0.184 I1.323 J-0.723
X546.578 Y687.536 Z0.018 I-1.323 J0.723
X549.225 Y686.09 Z-0.147 I1.323 J-0.723
X546.578 Y687.536 Z-0.313 I-1.323 J0.723
X549.225 Y686.09 Z-0.478 I1.323 J-0.723
X546.578 Y687.536 Z-0.644 I-1.323 J0.723
X549.225 Y686.09 Z-0.809 I1.323 J-0.723
X546.579 Y687.536 Z-0.974 I-1.323 J0.723
X546.469 Y686.343 Z-1.018 I1.323 J-0.723
G1 X546.821 Y685.27 F1000
G3 X547.073 Y685.27 I0.126 J0.041
G1 X547.433 Y686.368
G3 X547.433 Y686.632 I-0.401 J0.132
G1 X547.073 Y687.73
G3 X546.821 Y687.73 I-0.126 J-0.041
G1 X546.461 Y686.632
G3 X546.461 Y686.368 I0.401 J-0.132
G1 X546.469 Y686.343
G2 X546.033 Y684.776 I-1.394 J-0.457
G3 X545.597 Y683.208 I0.958 J-1.111
G1 X546.821 Y679.477
G3 X547.073 Y679.477 I0.126 J0.041
G1 X549.182 Y685.907
G3 X549.182 Y687.093 I-1.809 J0.593
G1 X547.073 Y693.523
G3 X546.821 Y693.523 I-0.126 J-0.041
G1 X544.712 Y687.093
G3 X544.712 Y685.907 I1.809 J-0.593
G1 X545.597 Y683.208
G2 X545.161 Y681.641 I-1.394 J-0.457
G3 X544.726 Y680.073 I0.958 J-1.111
G1 X546.067 Y675.983
G3 X546.536 Y675.643 I0.47 J0.154
G1 X547.358
G3 X547.827 Y675.983 I0 J0.494
G1 X551.081 Y685.907
G3 X551.081 Y687.093 I-1.809 J0.593
G1 X547.827 Y697.017
G3 X547.358 Y697.357 I-0.47 J-0.154
G1 X546.536
G3 X546.067 Y697.017 I0 J-0.494
G1 X542.813 Y687.093
G3 X542.813 Y685.907 I1.809 J-0.593
G1 X544.726 Y680.073
G2 X544.29 Y678.505 I-1.394 J-0.457
G3 X543.854 Y676.938 I0.958 J-1.111
G1 X544.759 Y674.178
G3 X545.229 Y673.838 I0.47 J0.154
G1 X548.665
G3 X549.135 Y674.178 I0 J0.494
G1 X552.981 Y685.907
G3 X552.981 Y687.093 I-1.809 J0.593
G1 X549.135 Y698.822
G3 X548.665 Y699.162 I-0.47 J-0.154
G1 X545.229
G3 X544.759 Y698.822 I0 J-0.494
G1 X540.913 Y687.093
G3 X540.913 Y685.907 I1.809 J-0.593
G1 X543.854 Y676.938
G2 X543.418 Y675.37 I-1.394 J-0.457
G3 X542.982 Y673.803 I0.958 J-1.111
G1 X543.451 Y672.373
G3 X543.921 Y672.032 I0.47 J0.154
G1 X549.973
G3 X550.443 Y672.373 I0 J0.495
G1 X554.88 Y685.907
G3 X554.88 Y687.093 I-1.809 J0.593
G1 X550.443 Y700.627
G3 X549.973 Y700.968 I-0.47 J-0.154
G1 X543.921
G3 X543.451 Y700.627 I0 J-0.495
G1 X539.014 Y687.093
G3 X539.014 Y685.907 I1.809 J-0.593
G1 X542.982 Y673.803
G2 X542.546 Y672.235 I-1.394 J-0.457
G3 X542.111 Y670.668 I0.958 J-1.111
G1 X542.143 Y670.568
G3 X542.613 Y670.227 I0.47 J0.154
G1 X551.281
G3 X551.751 Y670.568 I0 J0.495
G1 X556.78 Y685.907
G3 X556.78 Y687.093 I-1.809 J0.593
G1 X551.751 Y702.432
G3 X551.281 Y702.773 I-0.47 J-0.154
G1 X542.613
G3 X542.143 Y702.432 I0 J-0.495
G1 X537.114 Y687.093
G3 X537.114 Y685.907 I1.809 J-0.593
G1 X542.111 Y670.668
G2 X541.681 Y669.566 I-0.884 J-0.29
G3 X541.98 Y668.422 I0.299 J-0.533
G1 X552.589
G3 X553.058 Y668.763 I0 J0.495
G1 X558.679 Y685.907
G3 X558.679 Y687.093 I-1.809 J0.593
G1 X553.058 Y704.237
G3 X552.589 Y704.578 I-0.47 J-0.154
G1 X541.305
G3 X540.836 Y704.237 I0 J-0.495
G1 X535.215 Y687.093
G3 X535.215 Y685.907 I1.809 J-0.593
G1 X540.836 Y668.763
G3 X541.305 Y668.422 I0.47 J0.154
G1 X541.98
G2 X543.334 Y667.52 I0 J-1.467
G3 X544.688 Y666.617 I1.354 J0.564
G1 X553.896
G3 X554.366 Y666.958 I0 J0.495
G1 X560.579 Y685.907
G3 X560.579 Y687.093 I-1.809 J0.593
G1 X554.366 Y706.042
G3 X553.896 Y706.383 I-0.47 J-0.154
G1 X539.998
G3 X539.528 Y706.042 I0 J-0.495
G1 X533.315 Y687.093
G3 X533.315 Y685.907 I1.809 J-0.593
G1 X539.528 Y666.958
G3 X539.998 Y666.617 I0.47 J0.154
G1 X544.688
G2 X546.041 Y665.715 I0 J-1.467
G3 X547.395 Y664.813 I1.354 J0.564
G1 X555.204
G3 X555.674 Y665.153 I0 J0.494
G1 X562.478 Y685.907
G3 X562.478 Y687.093 I-1.809 J0.593
G1 X555.674 Y707.847
G3 X555.204 Y708.188 I-0.47 J-0.154
G1 X538.69
G3 X538.22 Y707.847 I0 J-0.494
G1 X531.416 Y687.093
G3 X531.416 Y685.907 I1.809 J-0.593
G1 X538.22 Y665.153
G3 X538.69 Y664.813 I0.47 J0.154
G1 X547.395
G2 X548.749 Y663.91 I0 J-1.467
G3 X550.103 Y663.008 I1.354 J0.564
G1 X556.512
G3 X556.982 Y663.348 I0 J0.494
G1 X564.378 Y685.907
G3 X564.378 Y687.093 I-1.809 J0.593
G1 X556.982 Y709.652
G3 X556.512 Y709.992 I-0.47 J-0.154
G1 X537.382
G3 X536.912 Y709.652 I0 J-0.494
G1 X529.516 Y687.093
G3 X529.516 Y685.907 I1.809 J-0.593
G1 X536.912 Y663.348
G3 X537.382 Y663.008 I0.47 J0.154
G1 X550.103
G2 X551.456 Y662.105 I0 J-1.467
G3 X552.81 Y661.203 I1.354 J0.564
G1 X557.82
G3 X558.289 Y661.543 I0 J0.494
G1 X566.278 Y685.907
G3 X566.278 Y687.093 I-1.809 J0.593
G1 X558.289 Y711.457
G3 X557.82 Y711.797 I-0.47 J-0.154
G1 X536.075
G3 X535.605 Y711.457 I0 J-0.494
G1 X527.616 Y687.093
G3 X527.616 Y685.907 I1.809 J-0.593
G1 X535.605 Y661.543
G3 X536.075 Y661.203 I0.47 J0.154
G1 X552.81
G2 X554.164 Y660.3 I0 J-1.467
G3 X555.518 Y659.398 I1.354 J0.564
G1 X559.127
G3 X559.597 Y659.738 I0 J0.494
G1 X568.177 Y685.907
G3 X568.177 Y687.093 I-1.809 J0.593
G1 X559.597 Y713.262
G3 X559.127 Y713.602 I-0.47 J-0.154
G1 X534.767
G3 X534.297 Y713.262 I0 J-0.494
G1 X525.717 Y687.093
G3 X525.717 Y685.907 I1.809 J-0.593
G1 X534.297 Y659.738
G3 X534.767 Y659.398 I0.47 J0.154
G1 X555.518
G2 X556.875 Y658.492 I0 J-1.471
G3 X558.233 Y657.588 I1.357 J0.566
G1 X560.797
X570.276 Y686.5
X560.797 Y715.412
X533.097
X523.618 Y686.5
X533.097 Y657.588
X558.233
X558.293 Y657.593 Z-1.005 F600
X558.351 Y657.61 Z-0.993
X558.397 Y657.633 Z-0.959
X558.439 Y657.664 Z-0.925
X558.486 Y657.714 Z-0.822
X558.5 Y657.733 Z-0.7
Z5
G0 X549.052 Y685.838
G1 Z1.8 F300
X549.076 Y685.866 Z1.651
X549.138 Y685.949 Z1.536
X549.181 Y686.015 Z1.498
X549.225 Y686.09 Z1.482
G3 X546.578 Y687.536 Z1.317 I-1.323 J0.723
X549.225 Y686.09 Z1.152 I1.323 J-0.723
X546.578 Y687.536 Z0.986 I-1.323 J0.723
X549.225 Y686.09 Z0.821 I1.323 J-0.723
X546.578 Y687.536 Z0.655 I-1.323 J0.723
X549.225 Y686.09 Z0.49 I1.323 J-0.723
X546.578 Y687.536 Z0.324 I-1.323 J0.723
X549.225 Y686.09 Z0.159 I1.323 J-0.723
X546.578 Y687.536 Z-0.007 I-1.323 J0.723
X549.225 Y686.09 Z-0.172 I1.323 J-0.723
X546.578 Y687.536 Z-0.337 I-1.323 J0.723
X549.225 Y686.09 Z-0.503 I1.323 J-0.723
X546.578 Y687.536 Z-0.668 I-1.323 J0.723
X549.225 Y686.09 Z-0.834 I1.323 J-0.723
X546.578 Y687.536 Z-0.999 I-1.323 J0.723
X549.225 Y686.09 Z-1.165 I1.323 J-0.723
X546.578 Y687.536 Z-1.33 I-1.323 J0.723
X549.225 Y686.09 Z-1.496 I1.323 J-0.723
X546.578 Y687.536 Z-1.661 I-1.323 J0.723
X549.225 Y686.09 Z-1.827 I1.323 J-0.723
X546.579 Y687.536 Z-1.992 I-1.323 J0.723
X546.469 Y686.343 Z-2.035 I1.323 J-0.723
G1 X546.821 Y685.27 F1000
G3 X547.073 Y685.27 I0.126 J0.041
G1 X547.433 Y686.368
G3 X547.433 Y686.632 I-0.401 J0.132
G1 X547.073 Y687.73
G3 X546.821 Y687.73 I-0.126 J-0.041
G1 X546.461 Y686.632
G3 X546.461 Y686.368 I0.401 J-0.132
G1 X546.469 Y686.343
G2 X546.033 Y684.776 I-1.394 J-0.457
G3 X545.597 Y683.208 I0.958 J-1.111
G1 X546.821 Y679.477
G3 X547.073 Y679.477 I0.126 J0.041
G1 X549.182 Y685.907
G3 X549.182 Y687.093 I-1.809 J0.593
G1 X547.073 Y693.523
G3 X546.821 Y693.523 I-0.126 J-0.041
G1 X544.712 Y687.093
G3 X544.712 Y685.907 I1.809 J-0.593
G1 X545.597 Y683.208
G2 X545.161 Y681.641 I-1.394 J-0.457
G3 X544.726 Y680.073 I0.958 J-1.111
G1 X546.067 Y675.983
G3 X546.536 Y675.643 I0.47 J0.154
G1 X547.358
G3 X547.827 Y675.983 I0 J0.494
G1 X551.081 Y685.907
G3 X551.081 Y687.093 I-1.809 J0.593
G1 X547.827 Y697.017
G3 X547.358 Y697.357 I-0.47 J-0.154
G1 X546.536
G3 X546.067 Y697.017 I0 J-0.494
G1 X542.813 Y687.093
G3 X542.813 Y685.907 I1.809 J-0.593
G1 X544.726 Y680.073
G2 X544.29 Y678.505 I-1.394 J-0.457
G3 X543.854 Y676.938 I0.958 J-1.111
G1 X544.759 Y674.178
G3 X545.229 Y673.838 I0.47 J0.154
G1 X548.665
G3 X549.135 Y674.178 I0 J0.494
G1 X552.981 Y685.907
G3 X552.981 Y687.093 I-1.809 J0.593
G1 X549.135 Y698.822
G3 X548.665 Y699.162 I-0.47 J-0.154
G1 X545.229
G3 X544.759 Y698.822 I0 J-0.494
G1 X540.913 Y687.093
G3 X540.913 Y685.907 I1.809 J-0.593
G1 X543.854 Y676.938
G2 X543.418 Y675.37 I-1.394 J-0.457
G3 X542.982 Y673.803 I0.958 J-1.111
G1 X543.451 Y672.373
G3 X543.921 Y672.032 I0.47 J0.154
G1 X549.973
G3 X550.443 Y672.373 I0 J0.495
G1 X554.88 Y685.907
G3 X554.88 Y687.093 I-1.809 J0.593
G1 X550.443 Y700.627
G3 X549.973 Y700.968 I-0.47 J-0.154
G1 X543.921
G3 X543.451 Y700.627 I0 J-0.495
G1 X539.014 Y687.093
G3 X539.014 Y685.907 I1.809 J-0.593
G1 X542.982 Y673.803
G2 X542.546 Y672.235 I-1.394 J-0.457
G3 X542.111 Y670.668 I0.958 J-1.111
G1 X542.143 Y670.568
G3 X542.613 Y670.227 I0.47 J0.154
G1 X551.281
G3 X551.751 Y670.568 I0 J0.495
G1 X556.78 Y685.907
G3 X556.78 Y687.093 I-1.809 J0.593
G1 X551.751 Y702.432
G3 X551.281 Y702.773 I-0.47 J-0.154
G1 X542.613
G3 X542.143 Y702.432 I0 J-0.495
G1 X537.114 Y687.093
G3 X537.114 Y685.907 I1.809 J-0.593
G1 X542.111 Y670.668
G2 X541.681 Y669.566 I-0.884 J-0.29
G3 X541.98 Y668.422 I0.299 J-0.533
G1 X552.589
G3 X553.058 Y668.763 I0 J0.495
G1 X558.679 Y685.907
G3 X558.679 Y687.093 I-1.809 J0.593
G1 X553.058 Y704.237
G3 X552.589 Y704.578 I-0.47 J-0.154
G1 X541.305
G3 X540.836 Y704.237 I0 J-0.495
G1 X535.215 Y687.093
G3 X535.215 Y685.907 I1.809 J-0.593
G1 X540.836 Y668.763
G3 X541.305 Y668.422 I0.47 J0.154
G1 X541.98
G2 X543.334 Y667.52 I0 J-1.467
G3 X544.688 Y666.617 I1.354 J0.564
G1 X553.896
G3 X554.366 Y666.958 I0 J0.495
G1 X560.579 Y685.907
G3 X560.579 Y687.093 I-1.809 J0.593
G1 X554.366 Y706.042
G3 X553.896 Y706.383 I-0.47 J-0.154
G1 X539.998
G3 X539.528 Y706.042 I0 J-0.495
G1 X533.315 Y687.093
G3 X533.315 Y685.907 I1.809 J-0.593
G1 X539.528 Y666.958
G3 X539.998 Y666.617 I0.47 J0.154
G1 X544.688
G2 X546.041 Y665.715 I0 J-1.467
G3 X547.395 Y664.813 I1.354 J0.564
G1 X555.204
G3 X555.674 Y665.153 I0 J0.494
G1 X562.478 Y685.907
G3 X562.478 Y687.093 I-1.809 J0.593
G1 X555.674 Y707.847
G3 X555.204 Y708.188 I-0.47 J-0.154
G1 X538.69
G3 X538.22 Y707.847 I0 J-0.494
G1 X531.416 Y687.093
G3 X531.416 Y685.907 I1.809 J-0.593
G1 X538.22 Y665.153
G3 X538.69 Y664.813 I0.47 J0.154
G1 X547.395
G2 X548.749 Y663.91 I0 J-1.467
G3 X550.103 Y663.008 I1.354 J0.564
G1 X556.512
G3 X556.982 Y663.348 I0 J0.494
G1 X564.378 Y685.907
G3 X564.378 Y687.093 I-1.809 J0.593
G1 X556.982 Y709.652
G3 X556.512 Y709.992 I-0.47 J-0.154
G1 X537.382
G3 X536.912 Y709.652 I0 J-0.494
G1 X529.516 Y687.093
G3 X529.516 Y685.907 I1.809 J-0.593
G1 X536.912 Y663.348
G3 X537.382 Y663.008 I0.47 J0.154
G1 X550.103
G2 X551.456 Y662.105 I0 J-1.467
G3 X552.81 Y661.203 I1.354 J0.564
G1 X557.82
G3 X558.289 Y661.543 I0 J0.494
G1 X566.278 Y685.907
G3 X566.278 Y687.093 I-1.809 J0.593
G1 X558.289 Y711.457
G3 X557.82 Y711.797 I-0.47 J-0.154
G1 X536.075
G3 X535.605 Y711.457 I0 J-0.494
G1 X527.616 Y687.093
G3 X527.616 Y685.907 I1.809 J-0.593
G1 X535.605 Y661.543
G3 X536.075 Y661.203 I0.47 J0.154
G1 X552.81
G2 X554.164 Y660.3 I0 J-1.467
G3 X555.518 Y659.398 I1.354 J0.564
G1 X559.127
G3 X559.597 Y659.738 I0 J0.494
G1 X568.177 Y685.907
G3 X568.177 Y687.093 I-1.809 J0.593
G1 X559.597 Y713.262
G3 X559.127 Y713.602 I-0.47 J-0.154
G1 X534.767
G3 X534.297 Y713.262 I0 J-0.494
G1 X525.717 Y687.093
G3 X525.717 Y685.907 I1.809 J-0.593
G1 X534.297 Y659.738
G3 X534.767 Y659.398 I0.47 J0.154
G1 X555.518
G2 X556.875 Y658.492 I0 J-1.471
G3 X558.233 Y657.588 I1.357 J0.566
G1 X560.797
X570.276 Y686.5
X560.797 Y715.412
X533.097
X523.618 Y686.5
X533.097 Y657.588
X558.233
X558.293 Y657.593 Z-2.023 F600
X558.351 Y657.61 Z-2.011
X558.397 Y657.633 Z-1.976
X558.439 Y657.664 Z-1.942
X558.486 Y657.714 Z-1.839
X558.5 Y657.733 Z-1.718
Z5
G0 X549.052 Y685.838
G1 Z0.782 F300
X549.076 Y685.866 Z0.633
X549.138 Y685.949 Z0.519
X549.181 Y686.015 Z0.48
X549.225 Y686.09 Z0.465
G3 X546.578 Y687.536 Z0.3 I-1.323 J0.723
X549.225 Y686.09 Z0.134 I1.323 J-0.723
X546.578 Y687.536 Z-0.031 I-1.323 J0.723
X549.225 Y686.09 Z-0.197 I1.323 J-0.723
X546.578 Y687.536 Z-0.362 I-1.323 J0.723
X549.225 Y686.09 Z-0.528 I1.323 J-0.723
X546.578 Y687.536 Z-0.693 I-1.323 J0.723
X549.225 Y686.09 Z-0.859 I1.323 J-0.723
X546.578 Y687.536 Z-1.024 I-1.323 J0.723
X549.225 Y686.09 Z-1.19 I1.323 J-0.723
X546.578 Y687.536 Z-1.355 I-1.323 J0.723
X549.225 Y686.09 Z-1.52 I1.323 J-0.723
X546.578 Y687.536 Z-1.686 I-1.323 J0.723
X549.225 Y686.09 Z-1.851 I1.323 J-0.723
X546.578 Y687.536 Z-2.017 I-1.323 J0.723
X549.225 Y686.09 Z-2.182 I1.323 J-0.723
X546.578 Y687.536 Z-2.348 I-1.323 J0.723
X549.225 Y686.09 Z-2.513 I1.323 J-0.723
X546.578 Y687.536 Z-2.679 I-1.323 J0.723
X549.225 Y686.09 Z-2.844 I1.323 J-0.723
X546.579 Y687.536 Z-3.01 I-1.323 J0.723
X546.469 Y686.343 Z-3.053 I1.323 J-0.723
G1 X546.821 Y685.27 F1000
G3 X547.073 Y685.27 I0.126 J0.041
G1 X547.433 Y686.368
G3 X547.433 Y686.632 I-0.401 J0.132
G1 X547.073 Y687.73
G3 X546.821 Y687.73 I-0.126 J-0.041
G1 X546.461 Y686.632
G3 X546.461 Y686.368 I0.401 J-0.132
G1 X546.469 Y686.343
G2 X546.033 Y684.776 I-1.394 J-0.457
G3 X545.597 Y683.208 I0.958 J-1.111
G1 X546.821 Y679.477
G3 X547.073 Y679.477 I0.126 J0.041
G1 X549.182 Y685.907
G3 X549.182 Y687.093 I-1.809 J0.593
G1 X547.073 Y693.523
G3 X546.821 Y693.523 I-0.126 J-0.041
G1 X544.712 Y687.093
G3 X544.712 Y685.907 I1.809 J-0.593
G1 X545.597 Y683.208
G2 X545.161 Y681.641 I-1.394 J-0.457
G3 X544.726 Y680.073 I0.958 J-1.111
G1 X546.067 Y675.983
G3 X546.536 Y675.643 I0.47 J0.154
G1 X547.358
G3 X547.827 Y675.983 I0 J0.494
G1 X551.081 Y685.907
G3 X551.081 Y687.093 I-1.809 J0.593
G1 X547.827 Y697.017
G3 X547.358 Y697.357 I-0.47 J-0.154
G1 X546.536
G3 X546.067 Y697.017 I0 J-0.494
G1 X542.813 Y687.093
G3 X542.813 Y685.907 I1.809 J-0.593
G1 X544.726 Y680.073
G2 X544.29 Y678.505 I-1.394 J-0.457
G3 X543.854 Y676.938 I0.958 J-1.111
G1 X544.759 Y674.178
G3 X545.229 Y673.838 I0.47 J0.154
G1 X548.665
G3 X549.135 Y674.178 I0 J0.494
G1 X552.981 Y685.907
G3 X552.981 Y687.093 I-1.809 J0.593
G1 X549.135 Y698.822
G3 X548.665 Y699.162 I-0.47 J-0.154
G1 X545.229
G3 X544.759 Y698.822 I0 J-0.494
G1 X540.913 Y687.093
G3 X540.913 Y685.907 I1.809 J-0.593
G1 X543.854 Y676.938
G2 X543.418 Y675.37 I-1.394 J-0.457
G3 X542.982 Y673.803 I0.958 J-1.111
G1 X543.451 Y672.373
G3 X543.921 Y672.032 I0.47 J0.154
G1 X549.973
G3 X550.443 Y672.373 I0 J0.495
G1 X554.88 Y685.907
G3 X554.88 Y687.093 I-1.809 J0.593
G1 X550.443 Y700.627
G3 X549.973 Y700.968 I-0.47 J-0.154
G1 X543.921
G3 X543.451 Y700.627 I0 J-0.495
G1 X539.014 Y687.093
G3 X539.014 Y685.907 I1.809 J-0.593
G1 X542.982 Y673.803
G2 X542.546 Y672.235 I-1.394 J-0.457
G3 X542.111 Y670.668 I0.958 J-1.111
G1 X542.143 Y670.568
G3 X542.613 Y670.227 I0.47 J0.154
G1 X551.281
G3 X551.751 Y670.568 I0 J0.495
G1 X556.78 Y685.907
G3 X556.78 Y687.093 I-1.809 J0.593
G1 X551.751 Y702.432
G3 X551.281 Y702.773 I-0.47 J-0.154
G1 X542.613
G3 X542.143 Y702.432 I0 J-0.495
G1 X537.114 Y687.093
G3 X537.114 Y685.907 I1.809 J-0.593
G1 X542.111 Y670.668
G2 X541.681 Y669.566 I-0.884 J-0.29
G3 X541.98 Y668.422 I0.299 J-0.533
G1 X552.589
G3 X553.058 Y668.763 I0 J0.495
G1 X558.679 Y685.907
G3 X558.679 Y687.093 I-1.809 J0.593
G1 X553.058 Y704.237
G3 X552.589 Y704.578 I-0.47 J-0.154
G1 X541.305
G3 X540.836 Y704.237 I0 J-0.495
G1 X535.215 Y687.093
G3 X535.215 Y685.907 I1.809 J-0.593
G1 X540.836 Y668.763
G3 X541.305 Y668.422 I0.47 J0.154
G1 X541.98
G2 X543.334 Y667.52 I0 J-1.467
G3 X544.688 Y666.617 I1.354 J0.564
G1 X553.896
G3 X554.366 Y666.958 I0 J0.495
G1 X560.579 Y685.907
G3 X560.579 Y687.093 I-1.809 J0.593
G1 X554.366 Y706.042
G3 X553.896 Y706.383 I-0.47 J-0.154
G1 X539.998
G3 X539.528 Y706.042 I0 J-0.495
G1 X533.315 Y687.093
G3 X533.315 Y685.907 I1.809 J-0.593
G1 X539.528 Y666.958
G3 X539.998 Y666.617 I0.47 J0.154
G1 X544.688
G2 X546.041 Y665.715 I0 J-1.467
G3 X547.395 Y664.813 I1.354 J0.564
G1 X555.204
G3 X555.674 Y665.153 I0 J0.494
G1 X562.478 Y685.907
G3 X562.478 Y687.093 I-1.809 J0.593
G1 X555.674 Y707.847
G3 X555.204 Y708.188 I-0.47 J-0.154
G1 X538.69
G3 X538.22 Y707.847 I0 J-0.494
G1 X531.416 Y687.093
G3 X531.416 Y685.907 I1.809 J-0.593
G1 X538.22 Y665.153
G3 X538.69 Y664.813 I0.47 J0.154
G1 X547.395
G2 X548.749 Y663.91 I0 J-1.467
G3 X550.103 Y663.008 I1.354 J0.564
G1 X556.512
G3 X556.982 Y663.348 I0 J0.494
G1 X564.378 Y685.907
G3 X564.378 Y687.093 I-1.809 J0.593
G1 X556.982 Y709.652
G3 X556.512 Y709.992 I-0.47 J-0.154
G1 X537.382
G3 X536.912 Y709.652 I0 J-0.494
G1 X529.516 Y687.093
G3 X529.516 Y685.907 I1.809 J-0.593
G1 X536.912 Y663.348
G3 X537.382 Y663.008 I0.47 J0.154
G1 X550.103
G2 X551.456 Y662.105 I0 J-1.467
G3 X552.81 Y661.203 I1.354 J0.564
G1 X557.82
G3 X558.289 Y661.543 I0 J0.494
G1 X566.278 Y685.907
G3 X566.278 Y687.093 I-1.809 J0.593
G1 X558.289 Y711.457
G3 X557.82 Y711.797 I-0.47 J-0.154
G1 X536.075
G3 X535.605 Y711.457 I0 J-0.494
G1 X527.616 Y687.093
G3 X527.616 Y685.907 I1.809 J-0.593
G1 X535.605 Y661.543
G3 X536.075 Y661.203 I0.47 J0.154
G1 X552.81
G2 X554.164 Y660.3 I0 J-1.467
G3 X555.518 Y659.398 I1.354 J0.564
G1 X559.127
G3 X559.597 Y659.738 I0 J0.494
G1 X568.177 Y685.907
G3 X568.177 Y687.093 I-1.809 J0.593
G1 X559.597 Y713.262
G3 X559.127 Y713.602 I-0.47 J-0.154
G1 X534.767
G3 X534.297 Y713.262 I0 J-0.494
G1 X525.717 Y687.093
G3 X525.717 Y685.907 I1.809 J-0.593
G1 X534.297 Y659.738
G3 X534.767 Y659.398 I0.47 J0.154
G1 X555.518
G2 X556.875 Y658.492 I0 J-1.471
G3 X558.233 Y657.588 I1.357 J0.566
G1 X560.797
X570.276 Y686.5
X560.797 Y715.412
X533.097
X523.618 Y686.5
X533.097 Y657.588
X558.233
X558.293 Y657.593 Z-3.04 F600
X558.351 Y657.61 Z-3.028
X558.397 Y657.633 Z-2.994
X558.439 Y657.664 Z-2.96
X558.486 Y657.714 Z-2.857
X558.5 Y657.733 Z-2.735
Z5
G0 Z15
G0 X0 Y0
G90
M5
M30
