(Plaque2)
(T1  D=3.175 CR=0 - ZMIN=-18.052 - fraise deux tailles)
G90 G94
G17
G21

(Contour 2D2 5)
S99999 M3
G54
G0 Z15
G0 X290.765 Y652.46
Z15
Z5
G1 Z2.5 F300
Z-1.183
G19 G3 Y652.778 Z-1.5 J0.318 K0 F600
G1 Y653.095
G17 G3 X290.447 Y653.412 I-0.317 J0
G1 X65.448 F1000
G2 X63.86 Y655 I0 J1.588
G1 Y1105
G2 X65.448 Y1106.588 I1.588 J0
G1 X515.447
G2 X517.034 Y1105 I0 J-1.588
G1 Y655
G2 X515.447 Y653.412 I-1.587 J0
G1 X290.447
G3 X290.13 Y653.095 I0 J-0.318 F600
G1 Y652.778
G19 G2 Y652.46 Z-1.183 J0 K0.317
G1 Z2.5
Z5
G0 X290.765
G1 Z1 F300
Z-2.683
G3 Y652.778 Z-3 J0.318 K0 F600
G1 Y653.095
G17 G3 X290.447 Y653.412 I-0.317 J0
G1 X65.448 F1000
G2 X63.86 Y655 I0 J1.588
G1 Y1105
G2 X65.448 Y1106.588 I1.588 J0
G1 X515.447
G2 X517.034 Y1105 I0 J-1.588
G1 Y655
G2 X515.447 Y653.412 I-1.587 J0
G1 X290.447
G3 X290.13 Y653.095 I0 J-0.318 F600
G1 Y652.778
G19 G2 Y652.46 Z-2.683 J0 K0.318
G1 Z1
Z5
G0 X290.765
G1 Z-0.5 F300
Z-4.183
G3 Y652.778 Z-4.5 J0.318 K0 F600
G1 Y653.095
G17 G3 X290.447 Y653.412 I-0.317 J0
G1 X65.448 F1000
G2 X63.86 Y655 I0 J1.588
G1 Y1105
G2 X65.448 Y1106.588 I1.588 J0
G1 X515.447
G2 X517.034 Y1105 I0 J-1.588
G1 Y655
G2 X515.447 Y653.412 I-1.587 J0
G1 X290.447
G3 X290.13 Y653.095 I0 J-0.318 F600
G1 Y652.778
G19 G2 Y652.46 Z-4.183 J0 K0.318
G1 Z-0.5
Z5
G0 X290.765
G1 Z-2 F300
Z-5.683
G3 Y652.778 Z-6 J0.318 K0 F600
G1 Y653.095
G17 G3 X290.447 Y653.412 I-0.317 J0
G1 X65.448 F1000
G2 X63.86 Y655 I0 J1.588
G1 Y1105
G2 X65.448 Y1106.588 I1.588 J0
G1 X515.447
G2 X517.034 Y1105 I0 J-1.588
G1 Y655
G2 X515.447 Y653.412 I-1.587 J0
G1 X290.447
G3 X290.13 Y653.095 I0 J-0.318 F600
G1 Y652.778
G19 G2 Y652.46 Z-5.683 J0 K0.318
G1 Z-2
Z5
G0 X290.765
G1 Z-3.5 F300
Z-7.183
G3 Y652.778 Z-7.5 J0.318 K0 F600
G1 Y653.095
G17 G3 X290.447 Y653.412 I-0.317 J0
G1 X65.448 F1000
G2 X63.86 Y655 I0 J1.588
G1 Y1105
G2 X65.448 Y1106.588 I1.588 J0
G1 X515.447
G2 X517.034 Y1105 I0 J-1.588
G1 Y655
G2 X515.447 Y653.412 I-1.587 J0
G1 X290.447
G3 X290.13 Y653.095 I0 J-0.318 F600
G1 Y652.778
G19 G2 Y652.46 Z-7.183 J0 K0.318
G1 Z-3.5
Z5
G0 X290.765
G1 Z-5 F300
Z-8.683
G3 Y652.778 Z-9 J0.318 K0 F600
G1 Y653.095
G17 G3 X290.447 Y653.412 I-0.317 J0
G1 X65.448 F1000
G2 X63.86 Y655 I0 J1.588
G1 Y1105
G2 X65.448 Y1106.588 I1.588 J0
G1 X515.447
G2 X517.034 Y1105 I0 J-1.588
G1 Y655
G2 X515.447 Y653.412 I-1.587 J0
G1 X290.447
G3 X290.13 Y653.095 I0 J-0.318 F600
G1 Y652.778
G19 G2 Y652.46 Z-8.683 J0 K0.318
G1 Z-5
Z5
G0 X290.765
G1 Z-6.5 F300
Z-10.183
G3 Y652.778 Z-10.5 J0.318 K0 F600
G1 Y653.095
G17 G3 X290.447 Y653.412 I-0.317 J0
G1 X65.448 F1000
G2 X63.86 Y655 I0 J1.588
G1 Y1105
G2 X65.448 Y1106.588 I1.588 J0
G1 X515.447
G2 X517.034 Y1105 I0 J-1.588
G1 Y655
G2 X515.447 Y653.412 I-1.587 J0
G1 X290.447
G3 X290.13 Y653.095 I0 J-0.318 F600
G1 Y652.778
G19 G2 Y652.46 Z-10.183 J0 K0.318
G1 Z-6.5
Z5
G0 X290.765
G1 Z-8 F300
Z-11.683
G3 Y652.778 Z-12 J0.318 K0 F600
G1 Y653.095
G17 G3 X290.447 Y653.412 I-0.317 J0
G1 X65.448 F1000
G2 X63.86 Y655 I0 J1.588
G1 Y1105
G2 X65.448 Y1106.588 I1.588 J0
G1 X515.447
G2 X517.034 Y1105 I0 J-1.588
G1 Y655
G2 X515.447 Y653.412 I-1.587 J0
G1 X290.447
G3 X290.13 Y653.095 I0 J-0.318 F600
G1 Y652.778
G19 G2 Y652.46 Z-11.683 J0 K0.318
G1 Z-8
Z5
G0 X290.765
G1 Z-9.5 F300
Z-12.052
Y652.778 F600
Y653.095
G17 G3 X290.447 Y653.412 I-0.317 J0
G1 X288.859 F1000
X288.136 Z-13.5 F300
X142.758 F1000
X142.035 Z-12.052
X138.859
X138.136 Z-13.5 F300
X65.448 F1000
G2 X63.86 Y655 I0 J1.588
G1 Y727.689
Y728.412 Z-12.052
Y731.588
Y732.311 Z-13.5 F300
Y877.689 F1000
Y878.412 Z-12.052
Y881.588
Y882.311 Z-13.5 F300
Y1027.689 F1000
Y1028.412 Z-12.052
Y1031.588
Y1032.311 Z-13.5 F300
Y1105 F1000
G2 X65.448 Y1106.588 I1.588 J0
G1 X138.136
X138.859 Z-12.052
X142.035
X142.758 Z-13.5 F300
X288.136 F1000
X288.859 Z-12.052
X292.034
X292.758 Z-13.5 F300
X438.136 F1000
X438.859 Z-12.052
X442.034
X442.758 Z-13.5 F300
X515.447 F1000
G2 X517.034 Y1105 I0 J-1.588
G1 Y1032.311
Y1031.588 Z-12.052
Y1028.412
Y1027.689 Z-13.5 F300
Y882.311 F1000
Y881.588 Z-12.052
Y878.412
Y877.689 Z-13.5 F300
Y732.311 F1000
Y731.588 Z-12.052
Y728.412
Y727.689 Z-13.5 F300
Y655 F1000
G2 X515.447 Y653.412 I-1.587 J0
G1 X442.758
X442.034 Z-12.052
X438.859
X438.136 Z-13.5 F300
X292.758 F1000
X292.034 Z-12.052
X290.447
G3 X290.13 Y653.095 I0 J-0.318 F600
G1 Y652.46
Z-9.5
Z5
G0 X290.765
G1 Z-11 F300
Z-12.052
Y652.778 F600
Y653.095
G3 X290.447 Y653.412 I-0.317 J0
G1 X288.859 F1000
X287.386 Z-15 F300
X143.508 F1000
X142.035 Z-12.052
X138.859
X137.386 Z-15 F300
X65.448 F1000
G2 X63.86 Y655 I0 J1.588
G1 Y726.939
Y728.412 Z-12.052
Y731.588
Y733.061 Z-15 F300
Y876.939 F1000
Y878.412 Z-12.052
Y881.588
Y883.061 Z-15 F300
Y1026.939 F1000
Y1028.412 Z-12.052
Y1031.588
Y1033.061 Z-15 F300
Y1105 F1000
G2 X65.448 Y1106.588 I1.588 J0
G1 X137.386
X138.859 Z-12.052
X142.035
X143.508 Z-15 F300
X287.386 F1000
X288.859 Z-12.052
X292.034
X293.508 Z-15 F300
X437.386 F1000
X438.859 Z-12.052
X442.034
X443.508 Z-15 F300
X515.447 F1000
G2 X517.034 Y1105 I0 J-1.588
G1 Y1033.061
Y1031.588 Z-12.052
Y1028.412
Y1026.939 Z-15 F300
Y883.061 F1000
Y881.588 Z-12.052
Y878.412
Y876.939 Z-15 F300
Y733.061 F1000
Y731.588 Z-12.052
Y728.412
Y726.939 Z-15 F300
Y655 F1000
G2 X515.447 Y653.412 I-1.587 J0
G1 X443.508
X442.034 Z-12.052
X438.859
X437.386 Z-15 F300
X293.508 F1000
X292.034 Z-12.052
X290.447
G3 X290.13 Y653.095 I0 J-0.318 F600
G1 Y652.46
Z-11
Z5
G0 X290.765
G1 Z-12.052 F300
Y652.778 F600
Y653.095
G3 X290.447 Y653.412 I-0.317 J0
G1 X288.859 F1000
X286.636 Z-16.5 F300
X144.258 F1000
X142.035 Z-12.052
X138.859
X136.636 Z-16.5 F300
X65.448 F1000
G2 X63.86 Y655 I0 J1.588
G1 Y726.189
Y728.412 Z-12.052
Y731.588
Y733.811 Z-16.5 F300
Y876.189 F1000
Y878.412 Z-12.052
Y881.588
Y883.811 Z-16.5 F300
Y1026.189 F1000
Y1028.412 Z-12.052
Y1031.588
Y1033.811 Z-16.5 F300
Y1105 F1000
G2 X65.448 Y1106.588 I1.588 J0
G1 X136.636
X138.859 Z-12.052
X142.035
X144.258 Z-16.5 F300
X286.636 F1000
X288.859 Z-12.052
X292.034
X294.258 Z-16.5 F300
X436.636 F1000
X438.859 Z-12.052
X442.034
X444.258 Z-16.5 F300
X515.447 F1000
G2 X517.034 Y1105 I0 J-1.588
G1 Y1033.811
Y1031.588 Z-12.052
Y1028.412
Y1026.189 Z-16.5 F300
Y883.811 F1000
Y881.588 Z-12.052
Y878.412
Y876.189 Z-16.5 F300
Y733.811 F1000
Y731.588 Z-12.052
Y728.412
Y726.189 Z-16.5 F300
Y655 F1000
G2 X515.447 Y653.412 I-1.587 J0
G1 X444.258
X442.034 Z-12.052
X438.859
X436.636 Z-16.5 F300
X294.258 F1000
X292.034 Z-12.052
X290.447
G3 X290.13 Y653.095 I0 J-0.318 F600
G1 Y652.46
Z5
G0 X290.765
G1 Z-12.052 F300
Y652.778 F600
Y653.095
G3 X290.447 Y653.412 I-0.317 J0
G1 X288.859 F1000
X286.248 Z-17.276 F300
X144.646 F1000
X142.035 Z-12.052
X138.859
X136.248 Z-17.276 F300
X65.448 F1000
G2 X63.86 Y655 I0 J1.588
G1 Y725.801
Y728.412 Z-12.052
Y731.588
Y734.199 Z-17.276 F300
Y875.801 F1000
Y878.412 Z-12.052
Y881.588
Y884.199 Z-17.276 F300
Y1025.801 F1000
Y1028.412 Z-12.052
Y1031.588
Y1034.199 Z-17.276 F300
Y1105 F1000
G2 X65.448 Y1106.588 I1.588 J0
G1 X136.248
X138.859 Z-12.052
X142.035
X144.646 Z-17.276 F300
X286.248 F1000
X288.859 Z-12.052
X292.034
X294.646 Z-17.276 F300
X436.248 F1000
X438.859 Z-12.052
X442.034
X444.646 Z-17.276 F300
X515.447 F1000
G2 X517.034 Y1105 I0 J-1.588
G1 Y1034.199
Y1031.588 Z-12.052
Y1028.412
Y1025.801 Z-17.276 F300
Y884.199 F1000
Y881.588 Z-12.052
Y878.412
Y875.801 Z-17.276 F300
Y734.199 F1000
Y731.588 Z-12.052
Y728.412
Y725.801 Z-17.276 F300
Y655 F1000
G2 X515.447 Y653.412 I-1.587 J0
G1 X444.646
X442.034 Z-12.052
X438.859
X436.248 Z-17.276 F300
X294.646 F1000
X292.034 Z-12.052
X290.447
G3 X290.13 Y653.095 I0 J-0.318 F600
G1 Y652.46
Z5
G0 X290.765
G1 Z-12.052 F300
Y652.778 F600
Y653.095
G3 X290.447 Y653.412 I-0.317 J0
G1 X288.859 F1000
X285.859 Z-18.052 F300
X145.035 F1000
X142.035 Z-12.052
X138.859
X135.859 Z-18.052 F300
X65.448 F1000
G2 X63.86 Y655 I0 J1.588
G1 Y725.412
Y728.412 Z-12.052
Y731.588
Y734.588 Z-18.052 F300
Y875.412 F1000
Y878.412 Z-12.052
Y881.588
Y884.588 Z-18.052 F300
Y1025.412 F1000
Y1028.412 Z-12.052
Y1031.588
Y1034.588 Z-18.052 F300
Y1105 F1000
G2 X65.448 Y1106.588 I1.588 J0
G1 X135.859
X138.859 Z-12.052
X142.035
X145.035 Z-18.052 F300
X285.859 F1000
X288.859 Z-12.052
X292.034
X295.034 Z-18.052 F300
X435.859 F1000
X438.859 Z-12.052
X442.034
X445.034 Z-18.052 F300
X515.447 F1000
G2 X517.034 Y1105 I0 J-1.588
G1 Y1034.588
Y1031.588 Z-12.052
Y1028.412
Y1025.412 Z-18.052 F300
Y884.588 F1000
Y881.588 Z-12.052
Y878.412
Y875.412 Z-18.052 F300
Y734.588 F1000
Y731.588 Z-12.052
Y728.412
Y725.412 Z-18.052 F300
Y655 F1000
G2 X515.447 Y653.412 I-1.587 J0
G1 X445.034
X442.034 Z-12.052
X438.859
X435.859 Z-18.052 F300
X295.034 F1000
X292.034 Z-12.052
X290.447
G3 X290.13 Y653.095 I0 J-0.318 F600
G1 Y652.46
Z5
G0 Z15
G0 X0 Y0
G90
M5
M30
