(Plaque2)
(T1  D=3.175 CR=0 - ZMIN=-18.052 - fraise deux tailles)
G90 G94
G17
G21

(Contour 2D7)
S99999 M3
G54
G0 Z15
G0 X558.407 Y675.682
Z15
Z5
G1 Z2.5 F300
Z-1.183
G18 G2 X558.724 Z-1.5 I0.318 K0 F600
G1 X559.042
G17 G3 X559.359 Y676 I0 J0.318
G1 Y708.412 F1000
X534.534
Y668.114
X538.649 Y663.588
X555.245
X559.359 Y668.114
Y676
G3 X559.042 Y676.318 I-0.318 J0 F600
G1 X558.724
G18 G3 X558.407 Z-1.183 I0 K0.317
G1 Z2.5
Z5
G0 Y675.682
G1 Z1 F300
Z-2.683
G2 X558.724 Z-3 I0.318 K0 F600
G1 X559.042
G17 G3 X559.359 Y676 I0 J0.318
G1 Y708.412 F1000
X534.534
Y668.114
X538.649 Y663.588
X555.245
X559.359 Y668.114
Y676
G3 X559.042 Y676.318 I-0.318 J0 F600
G1 X558.724
G18 G3 X558.407 Z-2.683 I0 K0.318
G1 Z1
Z5
G0 Y675.682
G1 Z-0.5 F300
Z-4.183
G2 X558.724 Z-4.5 I0.318 K0 F600
G1 X559.042
G17 G3 X559.359 Y676 I0 J0.318
G1 Y708.412 F1000
X534.534
Y668.114
X538.649 Y663.588
X555.245
X559.359 Y668.114
Y676
G3 X559.042 Y676.318 I-0.318 J0 F600
G1 X558.724
G18 G3 X558.407 Z-4.183 I0 K0.318
G1 Z-0.5
Z5
G0 Y675.682
G1 Z-2 F300
Z-5.683
G2 X558.724 Z-6 I0.318 K0 F600
G1 X559.042
G17 G3 X559.359 Y676 I0 J0.318
G1 Y708.412 F1000
X534.534
Y668.114
X538.649 Y663.588
X555.245
X559.359 Y668.114
Y676
G3 X559.042 Y676.318 I-0.318 J0 F600
G1 X558.724
G18 G3 X558.407 Z-5.683 I0 K0.318
G1 Z-2
Z5
G0 Y675.682
G1 Z-3.5 F300
Z-7.183
G2 X558.724 Z-7.5 I0.318 K0 F600
G1 X559.042
G17 G3 X559.359 Y676 I0 J0.318
G1 Y708.412 F1000
X534.534
Y668.114
X538.649 Y663.588
X555.245
X559.359 Y668.114
Y676
G3 X559.042 Y676.318 I-0.318 J0 F600
G1 X558.724
G18 G3 X558.407 Z-7.183 I0 K0.318
G1 Z-3.5
Z5
G0 Y675.682
G1 Z-5 F300
Z-8.683
G2 X558.724 Z-9 I0.318 K0 F600
G1 X559.042
G17 G3 X559.359 Y676 I0 J0.318
G1 Y708.412 F1000
X534.534
Y668.114
X538.649 Y663.588
X555.245
X559.359 Y668.114
Y676
G3 X559.042 Y676.318 I-0.318 J0 F600
G1 X558.724
G18 G3 X558.407 Z-8.683 I0 K0.318
G1 Z-5
Z5
G0 Y675.682
G1 Z-6.5 F300
Z-10.183
G2 X558.724 Z-10.5 I0.318 K0 F600
G1 X559.042
G17 G3 X559.359 Y676 I0 J0.318
G1 Y708.412 F1000
X534.534
Y668.114
X538.649 Y663.588
X555.245
X559.359 Y668.114
Y676
G3 X559.042 Y676.318 I-0.318 J0 F600
G1 X558.724
G18 G3 X558.407 Z-10.183 I0 K0.318
G1 Z-6.5
Z5
G0 Y675.682
G1 Z-8 F300
Z-11.683
G2 X558.724 Z-12 I0.318 K0 F600
G1 X559.042
G17 G3 X559.359 Y676 I0 J0.318
G1 Y708.412 F1000
X534.534
Y668.114
X538.649 Y663.588
X555.245
X559.359 Y668.114
Y676
G3 X559.042 Y676.318 I-0.318 J0 F600
G1 X558.724
G18 G3 X558.407 Z-11.683 I0 K0.318
G1 Z-8
Z5
G0 Y675.682
G1 Z-9.5 F300
Z-13.183
G2 X558.724 Z-13.5 I0.318 K0 F600
G1 X559.042
G17 G3 X559.359 Y676 I0 J0.318
G1 Y686.439 F1000
Y687.162 Z-12.052
Y690.338
Y691.061 Z-13.5 F300
Y708.412 F1000
X549.258
X548.534 Z-12.052
X545.359
X544.636 Z-13.5 F300
X534.534 F1000
Y691.061
Y690.338 Z-12.052
Y687.162
Y686.439 Z-13.5 F300
Y668.114 F1000
X538.649 Y663.588
X555.245
X559.359 Y668.114
Y676
G3 X559.042 Y676.318 I-0.318 J0 F600
G1 X558.724
G18 G3 X558.407 Z-13.183 I0 K0.318
G1 Z-9.5
Z5
G0 Y675.682
G1 Z-11 F300
Z-14.683
G2 X558.724 Z-15 I0.318 K0 F600
G1 X559.042
G17 G3 X559.359 Y676 I0 J0.318
G1 Y685.689 F1000
Y687.162 Z-12.052
Y690.338
Y691.811 Z-15 F300
Y708.412 F1000
X550.008
X548.534 Z-12.052
X545.359
X543.886 Z-15 F300
X534.534 F1000
Y691.811
Y690.338 Z-12.052
Y687.162
Y685.689 Z-15 F300
Y668.114 F1000
X538.649 Y663.588
X555.245
X559.359 Y668.114
Y676
G3 X559.042 Y676.318 I-0.318 J0 F600
G1 X558.724
G18 G3 X558.407 Z-14.683 I0 K0.318
G1 Z-11
Z5
G0 Y675.682
G1 Z-12.5 F300
Z-16.183
G2 X558.724 Z-16.5 I0.318 K0 F600
G1 X559.042
G17 G3 X559.359 Y676 I0 J0.318
G1 Y684.939 F1000
Y687.162 Z-12.052
Y690.338
Y692.561 Z-16.5 F300
Y708.412 F1000
X550.758
X548.534 Z-12.052
X545.359
X543.136 Z-16.5 F300
X534.534 F1000
Y692.561
Y690.338 Z-12.052
Y687.162
Y684.939 Z-16.5 F300
Y668.114 F1000
X538.649 Y663.588
X555.245
X559.359 Y668.114
Y676
G3 X559.042 Y676.318 I-0.318 J0 F600
G1 X558.724
G18 G3 X558.407 Z-16.183 I0 K0.317
G1 Z-12.5
Z5
G0 Y675.682
G1 Z-14 F300
Z-16.959
G2 X558.724 Z-17.276 I0.318 K0 F600
G1 X559.042
G17 G3 X559.359 Y676 I0 J0.318
G1 Y684.551 F1000
Y687.162 Z-12.052
Y690.338
Y692.949 Z-17.276 F300
Y708.412 F1000
X551.146
X548.534 Z-12.052
X545.359
X542.748 Z-17.276 F300
X534.534 F1000
Y692.949
Y690.338 Z-12.052
Y687.162
Y684.551 Z-17.276 F300
Y668.114 F1000
X538.649 Y663.588
X555.245
X559.359 Y668.114
Y676
G3 X559.042 Y676.318 I-0.318 J0 F600
G1 X558.724
G18 G3 X558.407 Z-16.959 I0 K0.318
G1 Z-14
Z5
G0 Y675.682
G1 Z-14.776 F300
Z-17.735
G2 X558.724 Z-18.052 I0.318 K0 F600
G1 X559.042
G17 G3 X559.359 Y676 I0 J0.318
G1 Y684.162 F1000
Y687.162 Z-12.052
Y690.338
Y693.338 Z-18.052 F300
Y708.412 F1000
X551.534
X548.534 Z-12.052
X545.359
X542.359 Z-18.052 F300
X534.534 F1000
Y693.338
Y690.338 Z-12.052
Y687.162
Y684.162 Z-18.052 F300
Y668.114 F1000
X538.649 Y663.588
X555.245
X559.359 Y668.114
Y676
G3 X559.042 Y676.318 I-0.318 J0 F600
G1 X558.724
G18 G3 X558.407 Z-17.735 I0 K0.317
G1 Z5
G0 Z15
G17
G0 X0 Y0
G90
M5
M30
