(1001)
(T1  D=3.175 CR=0 - ZMIN=-18 - fraise deux tailles)
G90 G94
G17
G21

(Contour 2D3 2)
S99999 M3
G54
G0 Z15
G0 X466.117 Y47.493
Z15
Z5
G1 Z2.5 F300
Z-1.183
X466.125 Z-1.253 F600
X466.148 Y47.494 Z-1.32
X466.186 Y47.495 Z-1.38
X466.236 Y47.497 Z-1.431
X466.296 Y47.499 Z-1.469
X466.364 Y47.501 Z-1.492
X466.434 Y47.503 Z-1.5
X466.751 Y47.513
G3 X467.059 Y47.84 I-0.01 J0.317
X444.245 Y47.13 I-11.407 J-0.355 F1000
X467.059 Y47.84 I11.407 J0.355
X466.732 Y48.148 I-0.317 J-0.01 F600
G1 X466.414 Y48.138
X466.344 Y48.136 Z-1.492
X466.277 Y48.133 Z-1.469
X466.217 Y48.132 Z-1.431
X466.166 Y48.13 Z-1.38
X466.128 Y48.129 Z-1.32
X466.105 Y48.128 Z-1.253
X466.097 Z-1.183
Z2.5
Z5
G0 X466.117 Y47.493
G1 Z1 F300
Z-2.683
X466.125 Z-2.753 F600
X466.148 Y47.494 Z-2.82
X466.186 Y47.495 Z-2.88
X466.236 Y47.497 Z-2.931
X466.296 Y47.499 Z-2.969
X466.364 Y47.501 Z-2.992
X466.434 Y47.503 Z-3
X466.751 Y47.513
G3 X467.059 Y47.84 I-0.01 J0.317
X444.245 Y47.13 I-11.407 J-0.355 F1000
X467.059 Y47.84 I11.407 J0.355
X466.732 Y48.148 I-0.317 J-0.01 F600
G1 X466.414 Y48.138
X466.344 Y48.136 Z-2.992
X466.277 Y48.133 Z-2.969
X466.217 Y48.132 Z-2.931
X466.166 Y48.13 Z-2.88
X466.128 Y48.129 Z-2.82
X466.105 Y48.128 Z-2.753
X466.097 Z-2.683
Z1
Z5
G0 X466.117 Y47.493
G1 Z-0.5 F300
Z-4.183
X466.125 Z-4.253 F600
X466.148 Y47.494 Z-4.32
X466.186 Y47.495 Z-4.38
X466.236 Y47.497 Z-4.431
X466.296 Y47.499 Z-4.469
X466.364 Y47.501 Z-4.492
X466.434 Y47.503 Z-4.5
X466.751 Y47.513
G3 X467.059 Y47.84 I-0.01 J0.317
X444.245 Y47.13 I-11.407 J-0.355 F1000
X467.059 Y47.84 I11.407 J0.355
X466.732 Y48.148 I-0.317 J-0.01 F600
G1 X466.414 Y48.138
X466.344 Y48.136 Z-4.492
X466.277 Y48.133 Z-4.469
X466.217 Y48.132 Z-4.431
X466.166 Y48.13 Z-4.38
X466.128 Y48.129 Z-4.32
X466.105 Y48.128 Z-4.253
X466.097 Z-4.183
Z-0.5
Z5
G0 X466.117 Y47.493
G1 Z-2 F300
Z-5.683
X466.125 Z-5.753 F600
X466.148 Y47.494 Z-5.82
X466.186 Y47.495 Z-5.88
X466.236 Y47.497 Z-5.931
X466.296 Y47.499 Z-5.969
X466.364 Y47.501 Z-5.992
X466.434 Y47.503 Z-6
X466.751 Y47.513
G3 X467.059 Y47.84 I-0.01 J0.317
X444.245 Y47.13 I-11.407 J-0.355 F1000
X467.059 Y47.84 I11.407 J0.355
X466.732 Y48.148 I-0.317 J-0.01 F600
G1 X466.414 Y48.138
X466.344 Y48.136 Z-5.992
X466.277 Y48.133 Z-5.969
X466.217 Y48.132 Z-5.931
X466.166 Y48.13 Z-5.88
X466.128 Y48.129 Z-5.82
X466.105 Y48.128 Z-5.753
X466.097 Z-5.683
Z-2
Z5
G0 X466.117 Y47.493
G1 Z-3.5 F300
Z-7.183
X466.125 Z-7.253 F600
X466.148 Y47.494 Z-7.32
X466.186 Y47.495 Z-7.38
X466.236 Y47.497 Z-7.431
X466.296 Y47.499 Z-7.469
X466.364 Y47.501 Z-7.492
X466.434 Y47.503 Z-7.5
X466.751 Y47.513
G3 X467.059 Y47.84 I-0.01 J0.317
X444.245 Y47.13 I-11.407 J-0.355 F1000
X467.059 Y47.84 I11.407 J0.355
X466.732 Y48.148 I-0.317 J-0.01 F600
G1 X466.414 Y48.138
X466.344 Y48.136 Z-7.492
X466.277 Y48.133 Z-7.469
X466.217 Y48.132 Z-7.431
X466.166 Y48.13 Z-7.38
X466.128 Y48.129 Z-7.32
X466.105 Y48.128 Z-7.253
X466.097 Z-7.183
Z-3.5
Z5
G0 X466.117 Y47.493
G1 Z-5 F300
Z-8.683
X466.125 Z-8.753 F600
X466.148 Y47.494 Z-8.82
X466.186 Y47.495 Z-8.88
X466.236 Y47.497 Z-8.931
X466.296 Y47.499 Z-8.969
X466.364 Y47.501 Z-8.992
X466.434 Y47.503 Z-9
X466.751 Y47.513
G3 X467.059 Y47.84 I-0.01 J0.317
X444.245 Y47.13 I-11.407 J-0.355 F1000
X467.059 Y47.84 I11.407 J0.355
X466.732 Y48.148 I-0.317 J-0.01 F600
G1 X466.414 Y48.138
X466.344 Y48.136 Z-8.992
X466.277 Y48.133 Z-8.969
X466.217 Y48.132 Z-8.931
X466.166 Y48.13 Z-8.88
X466.128 Y48.129 Z-8.82
X466.105 Y48.128 Z-8.753
X466.097 Z-8.683
Z-5
Z5
G0 X466.117 Y47.493
G1 Z-6.5 F300
Z-10.183
X466.125 Z-10.253 F600
X466.148 Y47.494 Z-10.32
X466.186 Y47.495 Z-10.38
X466.236 Y47.497 Z-10.431
X466.296 Y47.499 Z-10.469
X466.364 Y47.501 Z-10.492
X466.434 Y47.503 Z-10.5
X466.751 Y47.513
G3 X467.059 Y47.84 I-0.01 J0.317
X444.245 Y47.13 I-11.407 J-0.355 F1000
X467.059 Y47.84 I11.407 J0.355
X466.732 Y48.148 I-0.317 J-0.01 F600
G1 X466.414 Y48.138
X466.344 Y48.136 Z-10.492
X466.277 Y48.133 Z-10.469
X466.217 Y48.132 Z-10.431
X466.166 Y48.13 Z-10.38
X466.128 Y48.129 Z-10.32
X466.105 Y48.128 Z-10.253
X466.097 Z-10.183
Z-6.5
Z5
G0 X466.117 Y47.493
G1 Z-8 F300
Z-11.683
X466.125 Z-11.753 F600
X466.148 Y47.494 Z-11.82
X466.186 Y47.495 Z-11.88
X466.236 Y47.497 Z-11.931
X466.296 Y47.499 Z-11.969
X466.364 Y47.501 Z-11.992
X466.434 Y47.503 Z-12
X466.751 Y47.513
G3 X467.059 Y47.84 I-0.01 J0.317
X444.245 Y47.13 I-11.407 J-0.355 F1000
X467.059 Y47.84 I11.407 J0.355
X466.732 Y48.148 I-0.317 J-0.01 F600
G1 X466.414 Y48.138
X466.344 Y48.136 Z-11.992
X466.277 Y48.133 Z-11.969
X466.217 Y48.132 Z-11.931
X466.166 Y48.13 Z-11.88
X466.128 Y48.129 Z-11.82
X466.105 Y48.128 Z-11.753
X466.097 Z-11.683
Z-8
Z5
G0 X466.117 Y47.493
G1 Z-9.5 F300
Z-13.183
X466.125 Z-13.253 F600
X466.148 Y47.494 Z-13.32
X466.186 Y47.495 Z-13.38
X466.236 Y47.497 Z-13.431
X466.296 Y47.499 Z-13.469
X466.364 Y47.501 Z-13.492
X466.434 Y47.503 Z-13.5
X466.751 Y47.513
G3 X467.059 Y47.84 I-0.01 J0.317
X463.262 Y55.99 I-11.407 J-0.355 F1000
X462.678 Y56.479 Z-12 I-7.61 J-8.505
X459.928 Y58.066 I-7.026 J-8.994
X459.213 Y58.328 Z-13.5 I-4.276 J-10.581 F300
X444.481 Y49.823 I-3.561 J-10.843 F1000
X444.35 Y49.073 Z-12 I11.171 J-2.338
X444.35 Y45.898 I11.302 J-1.588
X444.481 Y45.148 Z-13.5 I11.302 J1.587 F300
X459.213 Y36.642 I11.171 J2.337 F1000
X459.928 Y36.904 Z-12 I-3.561 J10.843
X462.678 Y38.492 I-4.276 J10.581
X463.262 Y38.98 Z-13.5 I-7.026 J8.994 F300
X467.059 Y47.84 I-7.61 J8.505 F1000
X466.732 Y48.148 I-0.317 J-0.01 F600
G1 X466.414 Y48.138
X466.344 Y48.136 Z-13.492
X466.277 Y48.133 Z-13.469
X466.217 Y48.132 Z-13.431
X466.166 Y48.13 Z-13.38
X466.128 Y48.129 Z-13.32
X466.105 Y48.128 Z-13.253
X466.097 Z-13.183
Z-9.5
Z5
G0 X466.117 Y47.493
G1 Z-11 F300
Z-14.683
X466.125 Z-14.753 F600
X466.148 Y47.494 Z-14.82
X466.186 Y47.495 Z-14.88
X466.236 Y47.497 Z-14.931
X466.296 Y47.499 Z-14.969
X466.364 Y47.501 Z-14.992
X466.434 Y47.503 Z-15
X466.751 Y47.513
G3 X467.059 Y47.84 I-0.01 J0.317
X463.819 Y55.456 I-11.407 J-0.355 F1000
X463.124 Y56.112 Z-13.141 I-8.167 J-7.971
X462.678 Y56.479 Z-12 I-7.472 J-8.626
X459.928 Y58.066 I-7.026 J-8.994
X459.028 Y58.387 Z-13.879 I-4.276 J-10.581 F300
X458.472 Y58.544 Z-15 I-3.376 J-10.902
X444.665 Y50.573 I-2.82 J-11.059 F1000
X444.445 Y49.643 Z-13.141 I10.987 J-3.088
X444.35 Y49.073 Z-12 I11.207 J-2.158
X444.35 Y45.898 I11.302 J-1.588
X444.523 Y44.958 Z-13.879 I11.302 J1.587 F300
X444.665 Y44.398 Z-15 I11.129 J2.527
X458.472 Y36.426 I10.987 J3.087 F1000
X459.387 Y36.701 Z-13.141 I-2.82 J11.059
X459.928 Y36.904 Z-12 I-3.735 J10.784
X462.678 Y38.492 I-4.276 J10.581
X463.405 Y39.111 Z-13.879 I-7.026 J8.994 F300
X463.819 Y39.514 Z-15 I-7.753 J8.375
X467.059 Y47.84 I-8.167 J7.971 F1000
X466.732 Y48.148 I-0.317 J-0.01 F600
G1 X466.414 Y48.138
X466.344 Y48.136 Z-14.992
X466.277 Y48.133 Z-14.969
X466.217 Y48.132 Z-14.931
X466.166 Y48.13 Z-14.88
X466.128 Y48.129 Z-14.82
X466.105 Y48.128 Z-14.753
X466.097 Z-14.683
Z-11
Z5
G0 X466.117 Y47.493
G1 Z-12.5 F300
Z-16.183
X466.125 Z-16.253 F600
X466.148 Y47.494 Z-16.32
X466.186 Y47.495 Z-16.38
X466.236 Y47.497 Z-16.431
X466.296 Y47.499 Z-16.469
X466.364 Y47.501 Z-16.492
X466.434 Y47.503 Z-16.5
X466.751 Y47.513
G3 X467.059 Y47.84 I-0.01 J0.317
X464.349 Y54.874 I-11.407 J-0.355 F1000
X463.701 Y55.576 Z-14.675 I-8.697 J-7.389
X462.996 Y56.221 Z-12.81 I-8.049 J-8.091
X462.678 Y56.479 Z-12 I-7.344 J-8.736
X459.928 Y58.066 I-7.026 J-8.994
X459.028 Y58.387 Z-13.879 I-4.276 J-10.581 F300
X458.104 Y58.631 Z-15.723 I-3.376 J-10.902
X457.703 Y58.712 Z-16.5 I-2.452 J-11.146
X444.904 Y51.323 I-2.051 J-11.227 F1000
X444.621 Y50.41 Z-14.675 I10.748 J-3.838
X444.415 Y49.478 Z-12.81 I11.031 J-2.925
X444.35 Y49.073 Z-12 I11.237 J-1.992
X444.35 Y45.898 I11.302 J-1.588
X444.523 Y44.958 Z-13.879 I11.302 J1.587 F300
X444.773 Y44.036 Z-15.723 I11.129 J2.527
X444.904 Y43.648 Z-16.5 I10.879 J3.449
X457.703 Y36.258 I10.748 J3.837 F1000
X458.634 Y36.469 Z-14.675 I-2.051 J11.227
X459.545 Y36.757 Z-12.81 I-2.982 J11.016
X459.928 Y36.904 Z-12 I-3.893 J10.728
X462.678 Y38.492 I-4.276 J10.581
X463.405 Y39.111 Z-13.879 I-7.026 J8.994 F300
X464.078 Y39.788 Z-15.723 I-7.753 J8.375
X464.349 Y40.096 Z-16.5 I-8.426 J7.697
X467.059 Y47.84 I-8.697 J7.389 F1000
X466.732 Y48.148 I-0.317 J-0.01 F600
G1 X466.414 Y48.138
X466.344 Y48.136 Z-16.492
X466.277 Y48.133 Z-16.469
X466.217 Y48.132 Z-16.431
X466.166 Y48.13 Z-16.38
X466.128 Y48.129 Z-16.32
X466.105 Y48.128 Z-16.253
X466.097 Z-16.183
Z-12.5
Z5
G0 X466.117 Y47.493
G1 Z-14 F300
Z-17.683
X466.125 Z-17.753 F600
X466.148 Y47.494 Z-17.82
X466.186 Y47.495 Z-17.88
X466.236 Y47.497 Z-17.931
X466.296 Y47.499 Z-17.969
X466.364 Y47.501 Z-17.992
X466.434 Y47.503 Z-18
X466.751 Y47.513
G3 X467.059 Y47.84 I-0.01 J0.317
X464.85 Y54.241 I-11.407 J-0.355 F1000
X464.253 Y54.987 Z-16.22 I-9.198 J-6.756
X463.595 Y55.68 Z-14.388 I-8.601 J-7.502
X462.882 Y56.315 Z-12.517 I-7.943 J-8.195
X462.678 Y56.479 Z-12 I-7.23 J-8.83
X459.928 Y58.066 I-7.026 J-8.994
X459.028 Y58.387 Z-13.879 I-4.276 J-10.581 F300
X458.104 Y58.631 Z-15.723 I-3.376 J-10.902
X457.164 Y58.797 Z-17.519 I-2.452 J-11.146
X456.904 Y58.829 Z-18 I-1.512 J-11.312
X445.202 Y52.073 I-1.252 J-11.344 F1000
X444.855 Y51.183 Z-16.22 I10.45 J-4.588
X444.584 Y50.267 Z-14.388 I10.797 J-3.697
X444.39 Y49.331 Z-12.517 I11.068 J-2.782
X444.35 Y49.073 Z-12 I11.262 J-1.846
X444.35 Y45.898 I11.302 J-1.588
X444.523 Y44.958 Z-13.879 I11.302 J1.587 F300
X444.773 Y44.036 Z-15.723 I11.129 J2.527
X445.1 Y43.138 Z-17.519 I10.879 J3.449
X445.202 Y42.898 Z-18 I10.552 J4.347
X456.904 Y36.142 I10.45 J4.587 F1000
X457.848 Y36.286 Z-16.22 I-1.252 J11.344
X458.777 Y36.509 Z-14.388 I-2.196 J11.199
X459.684 Y36.809 Z-12.517 I-3.125 J10.976
X459.928 Y36.904 Z-12 I-4.032 J10.676
X462.678 Y38.492 I-4.276 J10.581
X463.405 Y39.111 Z-13.879 I-7.026 J8.994 F300
X464.078 Y39.788 Z-15.723 I-7.753 J8.375
X464.693 Y40.52 Z-17.519 I-8.426 J7.697
X464.85 Y40.729 Z-18 I-9.041 J6.965
X467.059 Y47.84 I-9.198 J6.756 F1000
X466.732 Y48.148 I-0.317 J-0.01 F600
G1 X466.414 Y48.138
X466.344 Y48.136 Z-17.992
X466.277 Y48.133 Z-17.969
X466.217 Y48.132 Z-17.931
X466.166 Y48.13 Z-17.88
X466.128 Y48.129 Z-17.82
X466.105 Y48.128 Z-17.753
X466.097 Z-17.683
Z-14
Z5
G0 X516.112 Y97.168
G1 Z2.5 F300
Z-1.183
G18 G2 X516.43 Z-1.5 I0.318 K0 F600
G1 X516.747
G17 G3 X517.065 Y97.485 I0 J0.317
X494.24 Y97.485 I-11.413 J0 F1000
X517.065 Y97.485 I11.413 J0
X516.747 Y97.803 I-0.318 J0 F600
G1 X516.43
G18 G3 X516.112 Z-1.183 I0 K0.317
G1 Z2.5
Z5
G0 Y97.168
G1 Z1 F300
Z-2.683
G2 X516.43 Z-3 I0.318 K0 F600
G1 X516.747
G17 G3 X517.065 Y97.485 I0 J0.317
X494.24 Y97.485 I-11.413 J0 F1000
X517.065 Y97.485 I11.413 J0
X516.747 Y97.803 I-0.318 J0 F600
G1 X516.43
G18 G3 X516.112 Z-2.683 I0 K0.318
G1 Z1
Z5
G0 Y97.168
G1 Z-0.5 F300
Z-4.183
G2 X516.43 Z-4.5 I0.318 K0 F600
G1 X516.747
G17 G3 X517.065 Y97.485 I0 J0.317
X494.24 Y97.485 I-11.413 J0 F1000
X517.065 Y97.485 I11.413 J0
X516.747 Y97.803 I-0.318 J0 F600
G1 X516.43
G18 G3 X516.112 Z-4.183 I0 K0.318
G1 Z-0.5
Z5
G0 Y97.168
G1 Z-2 F300
Z-5.683
G2 X516.43 Z-6 I0.318 K0 F600
G1 X516.747
G17 G3 X517.065 Y97.485 I0 J0.317
X494.24 Y97.485 I-11.413 J0 F1000
X517.065 Y97.485 I11.413 J0
X516.747 Y97.803 I-0.318 J0 F600
G1 X516.43
G18 G3 X516.112 Z-5.683 I0 K0.318
G1 Z-2
Z5
G0 Y97.168
G1 Z-3.5 F300
Z-7.183
G2 X516.43 Z-7.5 I0.318 K0 F600
G1 X516.747
G17 G3 X517.065 Y97.485 I0 J0.317
X494.24 Y97.485 I-11.413 J0 F1000
X517.065 Y97.485 I11.413 J0
X516.747 Y97.803 I-0.318 J0 F600
G1 X516.43
G18 G3 X516.112 Z-7.183 I0 K0.318
G1 Z-3.5
Z5
G0 Y97.168
G1 Z-5 F300
Z-8.683
G2 X516.43 Z-9 I0.318 K0 F600
G1 X516.747
G17 G3 X517.065 Y97.485 I0 J0.317
X494.24 Y97.485 I-11.413 J0 F1000
X517.065 Y97.485 I11.413 J0
X516.747 Y97.803 I-0.318 J0 F600
G1 X516.43
G18 G3 X516.112 Z-8.683 I0 K0.318
G1 Z-5
Z5
G0 Y97.168
G1 Z-6.5 F300
Z-10.183
G2 X516.43 Z-10.5 I0.318 K0 F600
G1 X516.747
G17 G3 X517.065 Y97.485 I0 J0.317
X494.24 Y97.485 I-11.413 J0 F1000
X517.065 Y97.485 I11.413 J0
X516.747 Y97.803 I-0.318 J0 F600
G1 X516.43
G18 G3 X516.112 Z-10.183 I0 K0.318
G1 Z-6.5
Z5
G0 Y97.168
G1 Z-8 F300
Z-11.683
G2 X516.43 Z-12 I0.318 K0 F600
G1 X516.747
G17 G3 X517.065 Y97.485 I0 J0.317
X494.24 Y97.485 I-11.413 J0 F1000
X517.065 Y97.485 I11.413 J0
X516.747 Y97.803 I-0.318 J0 F600
G1 X516.43
G18 G3 X516.112 Z-11.683 I0 K0.318
G1 Z-8
Z5
G0 Y97.168
G1 Z-9.5 F300
Z-13.183
G2 X516.43 Z-13.5 I0.318 K0 F600
G1 X516.747
G17 G3 X517.065 Y97.485 I0 J0.317
X513.261 Y105.991 I-11.413 J0 F1000
X512.677 Y106.479 Z-12 I-7.609 J-8.505
X509.928 Y108.066 I-7.025 J-8.994
X509.213 Y108.328 Z-13.5 I-4.276 J-10.581 F300
X494.481 Y99.823 I-3.561 J-10.843 F1000
X494.35 Y99.073 Z-12 I11.171 J-2.338
X494.35 Y95.898 I11.302 J-1.588
X494.481 Y95.148 Z-13.5 I11.302 J1.588 F300
X509.213 Y86.642 I11.171 J2.338 F1000
X509.928 Y86.904 Z-12 I-3.561 J10.843
X512.678 Y88.492 I-4.276 J10.581
X513.262 Y88.98 Z-13.5 I-7.026 J8.994 F300
X517.065 Y97.485 I-7.61 J8.505 F1000
X516.747 Y97.803 I-0.318 J0 F600
G1 X516.43
G18 G3 X516.112 Z-13.183 I0 K0.318
G1 Z-9.5
Z5
G0 Y97.168
G1 Z-11 F300
Z-14.683
G2 X516.43 Z-15 I0.318 K0 F600
G1 X516.747
G17 G3 X517.065 Y97.485 I0 J0.317
X513.819 Y105.457 I-11.413 J0 F1000
X513.124 Y106.112 Z-13.141 I-8.167 J-7.971
X512.677 Y106.479 Z-12 I-7.472 J-8.626
X509.928 Y108.066 I-7.025 J-8.994
X509.028 Y108.387 Z-13.879 I-4.276 J-10.581 F300
X508.471 Y108.544 Z-15 I-3.376 J-10.902
X494.665 Y100.573 I-2.819 J-11.059 F1000
X494.445 Y99.643 Z-13.141 I10.987 J-3.088
X494.35 Y99.073 Z-12 I11.207 J-2.158
X494.35 Y95.898 I11.302 J-1.588
X494.523 Y94.958 Z-13.879 I11.302 J1.588 F300
X494.665 Y94.398 Z-15 I11.129 J2.527
X508.472 Y86.426 I10.987 J3.088 F1000
X509.387 Y86.701 Z-13.141 I-2.82 J11.059
X509.928 Y86.904 Z-12 I-3.735 J10.784
X512.678 Y88.492 I-4.276 J10.581
X513.405 Y89.111 Z-13.879 I-7.026 J8.994 F300
X513.819 Y89.514 Z-15 I-7.753 J8.375
X517.065 Y97.485 I-8.167 J7.971 F1000
X516.747 Y97.803 I-0.318 J0 F600
G1 X516.43
G18 G3 X516.112 Z-14.683 I0 K0.318
G1 Z-11
Z5
G0 Y97.168
G1 Z-12.5 F300
Z-16.183
G2 X516.43 Z-16.5 I0.318 K0 F600
G1 X516.747
G17 G3 X517.065 Y97.485 I0 J0.317
X514.349 Y104.875 I-11.413 J0 F1000
X513.701 Y105.576 Z-14.675 I-8.697 J-7.389
X512.996 Y106.221 Z-12.81 I-8.049 J-8.091
X512.677 Y106.479 Z-12 I-7.344 J-8.736
X509.928 Y108.066 I-7.025 J-8.994
X509.028 Y108.387 Z-13.879 I-4.276 J-10.581 F300
X508.104 Y108.631 Z-15.723 I-3.376 J-10.902
X507.702 Y108.712 Z-16.5 I-2.452 J-11.146
X494.904 Y101.323 I-2.05 J-11.227 F1000
X494.621 Y100.41 Z-14.675 I10.748 J-3.838
X494.415 Y99.478 Z-12.81 I11.031 J-2.925
X494.35 Y99.073 Z-12 I11.237 J-1.992
X494.35 Y95.898 I11.302 J-1.588
X494.523 Y94.958 Z-13.879 I11.302 J1.588 F300
X494.773 Y94.036 Z-15.723 I11.129 J2.527
X494.904 Y93.648 Z-16.5 I10.879 J3.449
X507.703 Y86.258 I10.748 J3.838 F1000
X508.634 Y86.469 Z-14.675 I-2.051 J11.227
X509.545 Y86.757 Z-12.81 I-2.982 J11.016
X509.928 Y86.904 Z-12 I-3.893 J10.728
X512.678 Y88.492 I-4.276 J10.581
X513.405 Y89.111 Z-13.879 I-7.026 J8.994 F300
X514.078 Y89.788 Z-15.723 I-7.753 J8.375
X514.349 Y90.096 Z-16.5 I-8.426 J7.697
X517.065 Y97.485 I-8.697 J7.389 F1000
X516.747 Y97.803 I-0.318 J0 F600
G1 X516.43
G18 G3 X516.112 Z-16.183 I0 K0.317
G1 Z-12.5
Z5
G0 Y97.168
G1 Z-14 F300
Z-17.683
G2 X516.43 Z-18 I0.318 K0 F600
G1 X516.747
G17 G3 X517.065 Y97.485 I0 J0.317
X514.85 Y104.242 I-11.413 J0 F1000
X514.252 Y104.987 Z-16.22 I-9.198 J-6.756
X513.595 Y105.68 Z-14.388 I-8.6 J-7.502
X512.882 Y106.316 Z-12.517 I-7.943 J-8.195
X512.677 Y106.479 Z-12 I-7.23 J-8.83
X509.928 Y108.066 I-7.025 J-8.994
X509.028 Y108.387 Z-13.879 I-4.276 J-10.581 F300
X508.104 Y108.631 Z-15.723 I-3.376 J-10.902
X507.163 Y108.797 Z-17.519 I-2.452 J-11.146
X506.904 Y108.829 Z-18 I-1.511 J-11.312
X495.202 Y102.073 I-1.252 J-11.344 F1000
X494.855 Y101.183 Z-16.22 I10.45 J-4.588
X494.584 Y100.267 Z-14.388 I10.797 J-3.697
X494.39 Y99.331 Z-12.517 I11.068 J-2.782
X494.35 Y99.073 Z-12 I11.262 J-1.846
X494.35 Y95.898 I11.302 J-1.588
X494.523 Y94.958 Z-13.879 I11.302 J1.588 F300
X494.773 Y94.036 Z-15.723 I11.129 J2.527
X495.1 Y93.138 Z-17.519 I10.879 J3.449
X495.202 Y92.898 Z-18 I10.552 J4.347
X506.904 Y86.142 I10.45 J4.588 F1000
X507.848 Y86.286 Z-16.22 I-1.252 J11.344
X508.777 Y86.509 Z-14.388 I-2.196 J11.199
X509.684 Y86.809 Z-12.517 I-3.125 J10.976
X509.928 Y86.904 Z-12 I-4.032 J10.676
X512.678 Y88.492 I-4.276 J10.581
X513.405 Y89.111 Z-13.879 I-7.026 J8.994 F300
X514.078 Y89.788 Z-15.723 I-7.753 J8.375
X514.693 Y90.52 Z-17.519 I-8.426 J7.697
X514.85 Y90.729 Z-18 I-9.041 J6.965
X517.065 Y97.485 I-9.198 J6.756 F1000
X516.747 Y97.803 I-0.318 J0 F600
G1 X516.43
G18 G3 X516.112 Z-17.683 I0 K0.317
G1 Z-14
Z5
G0 X249.112 Y97.168
G1 Z2.5 F300
Z-1.183
G2 X249.43 Z-1.5 I0.318 K0 F600
G1 X249.747
G17 G3 X250.064 Y97.485 I0 J0.317
X227.239 Y97.485 I-11.413 J0 F1000
X250.064 Y97.485 I11.413 J0
X249.747 Y97.803 I-0.318 J0 F600
G1 X249.43
G18 G3 X249.112 Z-1.183 I0 K0.317
G1 Z2.5
Z5
G0 Y97.168
G1 Z1 F300
Z-2.683
G2 X249.43 Z-3 I0.318 K0 F600
G1 X249.747
G17 G3 X250.064 Y97.485 I0 J0.317
X227.239 Y97.485 I-11.413 J0 F1000
X250.064 Y97.485 I11.413 J0
X249.747 Y97.803 I-0.318 J0 F600
G1 X249.43
G18 G3 X249.112 Z-2.683 I0 K0.318
G1 Z1
Z5
G0 Y97.168
G1 Z-0.5 F300
Z-4.183
G2 X249.43 Z-4.5 I0.318 K0 F600
G1 X249.747
G17 G3 X250.064 Y97.485 I0 J0.317
X227.239 Y97.485 I-11.413 J0 F1000
X250.064 Y97.485 I11.413 J0
X249.747 Y97.803 I-0.318 J0 F600
G1 X249.43
G18 G3 X249.112 Z-4.183 I0 K0.318
G1 Z-0.5
Z5
G0 Y97.168
G1 Z-2 F300
Z-5.683
G2 X249.43 Z-6 I0.318 K0 F600
G1 X249.747
G17 G3 X250.064 Y97.485 I0 J0.317
X227.239 Y97.485 I-11.413 J0 F1000
X250.064 Y97.485 I11.413 J0
X249.747 Y97.803 I-0.318 J0 F600
G1 X249.43
G18 G3 X249.112 Z-5.683 I0 K0.318
G1 Z-2
Z5
G0 Y97.168
G1 Z-3.5 F300
Z-7.183
G2 X249.43 Z-7.5 I0.318 K0 F600
G1 X249.747
G17 G3 X250.064 Y97.485 I0 J0.317
X227.239 Y97.485 I-11.413 J0 F1000
X250.064 Y97.485 I11.413 J0
X249.747 Y97.803 I-0.318 J0 F600
G1 X249.43
G18 G3 X249.112 Z-7.183 I0 K0.318
G1 Z-3.5
Z5
G0 Y97.168
G1 Z-5 F300
Z-8.683
G2 X249.43 Z-9 I0.318 K0 F600
G1 X249.747
G17 G3 X250.064 Y97.485 I0 J0.317
X227.239 Y97.485 I-11.413 J0 F1000
X250.064 Y97.485 I11.413 J0
X249.747 Y97.803 I-0.318 J0 F600
G1 X249.43
G18 G3 X249.112 Z-8.683 I0 K0.318
G1 Z-5
Z5
G0 Y97.168
G1 Z-6.5 F300
Z-10.183
G2 X249.43 Z-10.5 I0.318 K0 F600
G1 X249.747
G17 G3 X250.064 Y97.485 I0 J0.317
X227.239 Y97.485 I-11.413 J0 F1000
X250.064 Y97.485 I11.413 J0
X249.747 Y97.803 I-0.318 J0 F600
G1 X249.43
G18 G3 X249.112 Z-10.183 I0 K0.318
G1 Z-6.5
Z5
G0 Y97.168
G1 Z-8 F300
Z-11.683
G2 X249.43 Z-12 I0.318 K0 F600
G1 X249.747
G17 G3 X250.064 Y97.485 I0 J0.317
X227.239 Y97.485 I-11.413 J0 F1000
X250.064 Y97.485 I11.413 J0
X249.747 Y97.803 I-0.318 J0 F600
G1 X249.43
G18 G3 X249.112 Z-11.683 I0 K0.318
G1 Z-8
Z5
G0 Y97.168
G1 Z-9.5 F300
Z-13.183
G2 X249.43 Z-13.5 I0.318 K0 F600
G1 X249.747
G17 G3 X250.064 Y97.485 I0 J0.317
X246.261 Y105.991 I-11.413 J0 F1000
X245.677 Y106.479 Z-12 I-7.609 J-8.505
X242.928 Y108.066 I-7.025 J-8.994
X242.213 Y108.328 Z-13.5 I-4.276 J-10.581 F300
X227.481 Y99.823 I-3.561 J-10.843 F1000
X227.35 Y99.073 Z-12 I11.171 J-2.338
X227.35 Y95.898 I11.302 J-1.588
X227.481 Y95.148 Z-13.5 I11.302 J1.588 F300
X242.213 Y86.642 I11.171 J2.338 F1000
X242.928 Y86.904 Z-12 I-3.561 J10.843
X245.678 Y88.492 I-4.276 J10.581
X246.262 Y88.98 Z-13.5 I-7.026 J8.994 F300
X250.064 Y97.485 I-7.61 J8.505 F1000
X249.747 Y97.803 I-0.318 J0 F600
G1 X249.43
G18 G3 X249.112 Z-13.183 I0 K0.318
G1 Z-9.5
Z5
G0 Y97.168
G1 Z-11 F300
Z-14.683
G2 X249.43 Z-15 I0.318 K0 F600
G1 X249.747
G17 G3 X250.064 Y97.485 I0 J0.317
X246.819 Y105.457 I-11.413 J0 F1000
X246.124 Y106.112 Z-13.141 I-8.167 J-7.971
X245.677 Y106.479 Z-12 I-7.472 J-8.626
X242.928 Y108.066 I-7.025 J-8.994
X242.028 Y108.387 Z-13.879 I-4.276 J-10.581 F300
X241.471 Y108.544 Z-15 I-3.376 J-10.902
X227.665 Y100.573 I-2.819 J-11.059 F1000
X227.445 Y99.643 Z-13.141 I10.987 J-3.088
X227.35 Y99.073 Z-12 I11.207 J-2.158
X227.35 Y95.898 I11.302 J-1.588
X227.523 Y94.958 Z-13.879 I11.302 J1.588 F300
X227.665 Y94.398 Z-15 I11.129 J2.527
X241.472 Y86.426 I10.987 J3.088 F1000
X242.387 Y86.701 Z-13.141 I-2.82 J11.059
X242.928 Y86.904 Z-12 I-3.735 J10.784
X245.678 Y88.492 I-4.276 J10.581
X246.405 Y89.111 Z-13.879 I-7.026 J8.994 F300
X246.819 Y89.514 Z-15 I-7.753 J8.375
X250.064 Y97.485 I-8.167 J7.971 F1000
X249.747 Y97.803 I-0.318 J0 F600
G1 X249.43
G18 G3 X249.112 Z-14.683 I0 K0.318
G1 Z-11
Z5
G0 Y97.168
G1 Z-12.5 F300
Z-16.183
G2 X249.43 Z-16.5 I0.318 K0 F600
G1 X249.747
G17 G3 X250.064 Y97.485 I0 J0.317
X247.349 Y104.875 I-11.413 J0 F1000
X246.701 Y105.576 Z-14.675 I-8.697 J-7.389
X245.996 Y106.221 Z-12.81 I-8.049 J-8.091
X245.677 Y106.479 Z-12 I-7.344 J-8.736
X242.928 Y108.066 I-7.025 J-8.994
X242.028 Y108.387 Z-13.879 I-4.276 J-10.581 F300
X241.104 Y108.631 Z-15.723 I-3.376 J-10.902
X240.702 Y108.712 Z-16.5 I-2.452 J-11.146
X227.904 Y101.323 I-2.05 J-11.227 F1000
X227.621 Y100.41 Z-14.675 I10.748 J-3.838
X227.415 Y99.478 Z-12.81 I11.031 J-2.925
X227.35 Y99.073 Z-12 I11.237 J-1.992
X227.35 Y95.898 I11.302 J-1.588
X227.523 Y94.958 Z-13.879 I11.302 J1.588 F300
X227.773 Y94.036 Z-15.723 I11.129 J2.527
X227.904 Y93.648 Z-16.5 I10.879 J3.449
X240.703 Y86.258 I10.748 J3.838 F1000
X241.634 Y86.469 Z-14.675 I-2.051 J11.227
X242.545 Y86.757 Z-12.81 I-2.982 J11.016
X242.928 Y86.904 Z-12 I-3.893 J10.728
X245.678 Y88.492 I-4.276 J10.581
X246.405 Y89.111 Z-13.879 I-7.026 J8.994 F300
X247.078 Y89.788 Z-15.723 I-7.753 J8.375
X247.349 Y90.096 Z-16.5 I-8.426 J7.697
X250.064 Y97.485 I-8.697 J7.389 F1000
X249.747 Y97.803 I-0.318 J0 F600
G1 X249.43
G18 G3 X249.112 Z-16.183 I0 K0.317
G1 Z-12.5
Z5
G0 Y97.168
G1 Z-14 F300
Z-17.683
G2 X249.43 Z-18 I0.318 K0 F600
G1 X249.747
G17 G3 X250.064 Y97.485 I0 J0.317
X247.85 Y104.242 I-11.413 J0 F1000
X247.252 Y104.987 Z-16.22 I-9.198 J-6.756
X246.595 Y105.68 Z-14.388 I-8.6 J-7.502
X245.882 Y106.316 Z-12.517 I-7.943 J-8.195
X245.677 Y106.479 Z-12 I-7.23 J-8.83
X242.928 Y108.066 I-7.025 J-8.994
X242.028 Y108.387 Z-13.879 I-4.276 J-10.581 F300
X241.104 Y108.631 Z-15.723 I-3.376 J-10.902
X240.163 Y108.797 Z-17.519 I-2.452 J-11.146
X239.904 Y108.829 Z-18 I-1.511 J-11.312
X228.202 Y102.073 I-1.252 J-11.344 F1000
X227.855 Y101.183 Z-16.22 I10.45 J-4.588
X227.584 Y100.267 Z-14.388 I10.797 J-3.697
X227.39 Y99.331 Z-12.517 I11.068 J-2.782
X227.35 Y99.073 Z-12 I11.262 J-1.846
X227.35 Y95.898 I11.302 J-1.588
X227.523 Y94.958 Z-13.879 I11.302 J1.588 F300
X227.773 Y94.036 Z-15.723 I11.129 J2.527
X228.1 Y93.138 Z-17.519 I10.879 J3.449
X228.202 Y92.898 Z-18 I10.552 J4.347
X239.904 Y86.142 I10.45 J4.588 F1000
X240.848 Y86.286 Z-16.22 I-1.252 J11.344
X241.777 Y86.509 Z-14.388 I-2.196 J11.199
X242.684 Y86.809 Z-12.517 I-3.125 J10.976
X242.928 Y86.904 Z-12 I-4.032 J10.676
X245.678 Y88.492 I-4.276 J10.581
X246.405 Y89.111 Z-13.879 I-7.026 J8.994 F300
X247.078 Y89.788 Z-15.723 I-7.753 J8.375
X247.693 Y90.52 Z-17.519 I-8.426 J7.697
X247.85 Y90.729 Z-18 I-9.041 J6.965
X250.064 Y97.485 I-9.198 J6.756 F1000
X249.747 Y97.803 I-0.318 J0 F600
G1 X249.43
G18 G3 X249.112 Z-17.683 I0 K0.317
G1 Z-14
Z5
G0 X199.112 Y47.168
G1 Z2.5 F300
Z-1.183
G2 X199.43 Z-1.5 I0.318 K0 F600
G1 X199.747
G17 G3 X200.064 Y47.485 I0 J0.317
X177.239 Y47.485 I-11.413 J0 F1000
X200.064 Y47.485 I11.413 J0
X199.747 Y47.803 I-0.318 J0 F600
G1 X199.43
G18 G3 X199.112 Z-1.183 I0 K0.317
G1 Z2.5
Z5
G0 Y47.168
G1 Z1 F300
Z-2.683
G2 X199.43 Z-3 I0.318 K0 F600
G1 X199.747
G17 G3 X200.064 Y47.485 I0 J0.317
X177.239 Y47.485 I-11.413 J0 F1000
X200.064 Y47.485 I11.413 J0
X199.747 Y47.803 I-0.318 J0 F600
G1 X199.43
G18 G3 X199.112 Z-2.683 I0 K0.318
G1 Z1
Z5
G0 Y47.168
G1 Z-0.5 F300
Z-4.183
G2 X199.43 Z-4.5 I0.318 K0 F600
G1 X199.747
G17 G3 X200.064 Y47.485 I0 J0.317
X177.239 Y47.485 I-11.413 J0 F1000
X200.064 Y47.485 I11.413 J0
X199.747 Y47.803 I-0.318 J0 F600
G1 X199.43
G18 G3 X199.112 Z-4.183 I0 K0.318
G1 Z-0.5
Z5
G0 Y47.168
G1 Z-2 F300
Z-5.683
G2 X199.43 Z-6 I0.318 K0 F600
G1 X199.747
G17 G3 X200.064 Y47.485 I0 J0.317
X177.239 Y47.485 I-11.413 J0 F1000
X200.064 Y47.485 I11.413 J0
X199.747 Y47.803 I-0.318 J0 F600
G1 X199.43
G18 G3 X199.112 Z-5.683 I0 K0.318
G1 Z-2
Z5
G0 Y47.168
G1 Z-3.5 F300
Z-7.183
G2 X199.43 Z-7.5 I0.318 K0 F600
G1 X199.747
G17 G3 X200.064 Y47.485 I0 J0.317
X177.239 Y47.485 I-11.413 J0 F1000
X200.064 Y47.485 I11.413 J0
X199.747 Y47.803 I-0.318 J0 F600
G1 X199.43
G18 G3 X199.112 Z-7.183 I0 K0.318
G1 Z-3.5
Z5
G0 Y47.168
G1 Z-5 F300
Z-8.683
G2 X199.43 Z-9 I0.318 K0 F600
G1 X199.747
G17 G3 X200.064 Y47.485 I0 J0.317
X177.239 Y47.485 I-11.413 J0 F1000
X200.064 Y47.485 I11.413 J0
X199.747 Y47.803 I-0.318 J0 F600
G1 X199.43
G18 G3 X199.112 Z-8.683 I0 K0.318
G1 Z-5
Z5
G0 Y47.168
G1 Z-6.5 F300
Z-10.183
G2 X199.43 Z-10.5 I0.318 K0 F600
G1 X199.747
G17 G3 X200.064 Y47.485 I0 J0.317
X177.239 Y47.485 I-11.413 J0 F1000
X200.064 Y47.485 I11.413 J0
X199.747 Y47.803 I-0.318 J0 F600
G1 X199.43
G18 G3 X199.112 Z-10.183 I0 K0.318
G1 Z-6.5
Z5
G0 Y47.168
G1 Z-8 F300
Z-11.683
G2 X199.43 Z-12 I0.318 K0 F600
G1 X199.747
G17 G3 X200.064 Y47.485 I0 J0.317
X177.239 Y47.485 I-11.413 J0 F1000
X200.064 Y47.485 I11.413 J0
X199.747 Y47.803 I-0.318 J0 F600
G1 X199.43
G18 G3 X199.112 Z-11.683 I0 K0.318
G1 Z-8
Z5
G0 Y47.168
G1 Z-9.5 F300
Z-13.183
G2 X199.43 Z-13.5 I0.318 K0 F600
G1 X199.747
G17 G3 X200.064 Y47.485 I0 J0.317
X196.262 Y55.99 I-11.413 J0 F1000
X195.678 Y56.479 Z-12 I-7.61 J-8.505
X192.928 Y58.066 I-7.026 J-8.994
X192.213 Y58.328 Z-13.5 I-4.276 J-10.581 F300
X177.481 Y49.823 I-3.561 J-10.843 F1000
X177.35 Y49.073 Z-12 I11.171 J-2.338
X177.35 Y45.898 I11.302 J-1.588
X177.481 Y45.148 Z-13.5 I11.302 J1.587 F300
X192.213 Y36.642 I11.171 J2.337 F1000
X192.928 Y36.904 Z-12 I-3.561 J10.843
X195.678 Y38.492 I-4.276 J10.581
X196.262 Y38.98 Z-13.5 I-7.026 J8.994 F300
X200.064 Y47.485 I-7.61 J8.505 F1000
X199.747 Y47.803 I-0.318 J0 F600
G1 X199.43
G18 G3 X199.112 Z-13.183 I0 K0.318
G1 Z-9.5
Z5
G0 Y47.168
G1 Z-11 F300
Z-14.683
G2 X199.43 Z-15 I0.318 K0 F600
G1 X199.747
G17 G3 X200.064 Y47.485 I0 J0.317
X196.819 Y55.456 I-11.413 J0 F1000
X196.124 Y56.112 Z-13.141 I-8.167 J-7.971
X195.678 Y56.479 Z-12 I-7.472 J-8.626
X192.928 Y58.066 I-7.026 J-8.994
X192.028 Y58.387 Z-13.879 I-4.276 J-10.581 F300
X191.472 Y58.544 Z-15 I-3.376 J-10.902
X177.665 Y50.573 I-2.82 J-11.059 F1000
X177.445 Y49.643 Z-13.141 I10.987 J-3.088
X177.35 Y49.073 Z-12 I11.207 J-2.158
X177.35 Y45.898 I11.302 J-1.588
X177.523 Y44.958 Z-13.879 I11.302 J1.587 F300
X177.665 Y44.398 Z-15 I11.129 J2.527
X191.472 Y36.426 I10.987 J3.087 F1000
X192.387 Y36.701 Z-13.141 I-2.82 J11.059
X192.928 Y36.904 Z-12 I-3.735 J10.784
X195.678 Y38.492 I-4.276 J10.581
X196.405 Y39.111 Z-13.879 I-7.026 J8.994 F300
X196.819 Y39.514 Z-15 I-7.753 J8.375
X200.064 Y47.485 I-8.167 J7.971 F1000
X199.747 Y47.803 I-0.318 J0 F600
G1 X199.43
G18 G3 X199.112 Z-14.683 I0 K0.318
G1 Z-11
Z5
G0 Y47.168
G1 Z-12.5 F300
Z-16.183
G2 X199.43 Z-16.5 I0.318 K0 F600
G1 X199.747
G17 G3 X200.064 Y47.485 I0 J0.317
X197.349 Y54.874 I-11.413 J0 F1000
X196.701 Y55.576 Z-14.675 I-8.697 J-7.389
X195.996 Y56.221 Z-12.81 I-8.049 J-8.091
X195.678 Y56.479 Z-12 I-7.344 J-8.736
X192.928 Y58.066 I-7.026 J-8.994
X192.028 Y58.387 Z-13.879 I-4.276 J-10.581 F300
X191.104 Y58.631 Z-15.723 I-3.376 J-10.902
X190.703 Y58.712 Z-16.5 I-2.452 J-11.146
X177.904 Y51.323 I-2.051 J-11.227 F1000
X177.621 Y50.41 Z-14.675 I10.748 J-3.838
X177.415 Y49.478 Z-12.81 I11.031 J-2.925
X177.35 Y49.073 Z-12 I11.237 J-1.992
X177.35 Y45.898 I11.302 J-1.588
X177.523 Y44.958 Z-13.879 I11.302 J1.587 F300
X177.773 Y44.036 Z-15.723 I11.129 J2.527
X177.904 Y43.648 Z-16.5 I10.879 J3.449
X190.703 Y36.258 I10.748 J3.837 F1000
X191.634 Y36.469 Z-14.675 I-2.051 J11.227
X192.545 Y36.757 Z-12.81 I-2.982 J11.016
X192.928 Y36.904 Z-12 I-3.893 J10.728
X195.678 Y38.492 I-4.276 J10.581
X196.405 Y39.111 Z-13.879 I-7.026 J8.994 F300
X197.078 Y39.788 Z-15.723 I-7.753 J8.375
X197.349 Y40.096 Z-16.5 I-8.426 J7.697
X200.064 Y47.485 I-8.697 J7.389 F1000
X199.747 Y47.803 I-0.318 J0 F600
G1 X199.43
G18 G3 X199.112 Z-16.183 I0 K0.317
G1 Z-12.5
Z5
G0 Y47.168
G1 Z-14 F300
Z-17.683
G2 X199.43 Z-18 I0.318 K0 F600
G1 X199.747
G17 G3 X200.064 Y47.485 I0 J0.317
X197.85 Y54.241 I-11.413 J0 F1000
X197.253 Y54.987 Z-16.22 I-9.198 J-6.756
X196.595 Y55.68 Z-14.388 I-8.601 J-7.502
X195.882 Y56.315 Z-12.517 I-7.943 J-8.195
X195.678 Y56.479 Z-12 I-7.23 J-8.83
X192.928 Y58.066 I-7.026 J-8.994
X192.028 Y58.387 Z-13.879 I-4.276 J-10.581 F300
X191.104 Y58.631 Z-15.723 I-3.376 J-10.902
X190.164 Y58.797 Z-17.519 I-2.452 J-11.146
X189.904 Y58.829 Z-18 I-1.512 J-11.312
X178.202 Y52.073 I-1.252 J-11.344 F1000
X177.855 Y51.183 Z-16.22 I10.45 J-4.588
X177.584 Y50.267 Z-14.388 I10.797 J-3.697
X177.39 Y49.331 Z-12.517 I11.068 J-2.782
X177.35 Y49.073 Z-12 I11.262 J-1.846
X177.35 Y45.898 I11.302 J-1.588
X177.523 Y44.958 Z-13.879 I11.302 J1.587 F300
X177.773 Y44.036 Z-15.723 I11.129 J2.527
X178.1 Y43.138 Z-17.519 I10.879 J3.449
X178.202 Y42.898 Z-18 I10.552 J4.347
X189.904 Y36.142 I10.45 J4.587 F1000
X190.848 Y36.286 Z-16.22 I-1.252 J11.344
X191.777 Y36.509 Z-14.388 I-2.196 J11.199
X192.684 Y36.809 Z-12.517 I-3.125 J10.976
X192.928 Y36.904 Z-12 I-4.032 J10.676
X195.678 Y38.492 I-4.276 J10.581
X196.405 Y39.111 Z-13.879 I-7.026 J8.994 F300
X197.078 Y39.788 Z-15.723 I-7.753 J8.375
X197.693 Y40.52 Z-17.519 I-8.426 J7.697
X197.85 Y40.729 Z-18 I-9.041 J6.965
X200.064 Y47.485 I-9.198 J6.756 F1000
X199.747 Y47.803 I-0.318 J0 F600
G1 X199.43
G18 G3 X199.112 Z-17.683 I0 K0.317
G1 Z5
G0 Z15
G17
G0 X0 Y0
G90
M5
M30
