(PetitePlaque2)
(T1  D=3.175 CR=0 - ZMIN=-18 - fraise deux tailles)
G90 G94
G17
G21

(Contour 2D3 3)
S99999 M3
G54
G0 Z15
G0 X575.318 Y22.46
Z15
Z5
G1 Z2.5 F300
Z-1.183
G19 G3 Y22.778 Z-1.5 J0.318 K0 F600
G1 Y23.095
G17 G3 X575 Y23.413 I-0.318 J0
G1 X475 F1000
G2 X473.413 Y25 I0 J1.587
G1 Y124.804
G3 X394.709 Y197.807 I-95.447 J-23.976
X112.136 Y173.505 I-95.007 J-550.271
G2 X110.809 Y173.625 I-0.533 J1.495
G1 X24.206 Y223.625
G2 X23.413 Y225 I0.794 J1.375
G1 Y375
G2 X25 Y376.587 I1.587 J0
G1 X575
G2 X576.588 Y375 I0 J-1.587
G1 Y25
G2 X575 Y23.413 I-1.588 J0
G3 X574.682 Y23.095 I0 J-0.318 F600
G1 Y22.778
G19 G2 Y22.46 Z-1.183 J0 K0.317
G1 Z2.5
Z5
G0 X575.318
G1 Z1 F300
Z-2.683
G3 Y22.778 Z-3 J0.318 K0 F600
G1 Y23.095
G17 G3 X575 Y23.413 I-0.318 J0
G1 X475 F1000
G2 X473.413 Y25 I0 J1.587
G1 Y124.804
G3 X394.709 Y197.807 I-95.447 J-23.976
X112.136 Y173.505 I-95.007 J-550.271
G2 X110.809 Y173.625 I-0.533 J1.495
G1 X24.206 Y223.625
G2 X23.413 Y225 I0.794 J1.375
G1 Y375
G2 X25 Y376.587 I1.587 J0
G1 X575
G2 X576.588 Y375 I0 J-1.587
G1 Y25
G2 X575 Y23.413 I-1.588 J0
G3 X574.682 Y23.095 I0 J-0.318 F600
G1 Y22.778
G19 G2 Y22.46 Z-2.683 J0 K0.318
G1 Z1
Z5
G0 X575.318
G1 Z-0.5 F300
Z-4.183
G3 Y22.778 Z-4.5 J0.318 K0 F600
G1 Y23.095
G17 G3 X575 Y23.413 I-0.318 J0
G1 X475 F1000
G2 X473.413 Y25 I0 J1.587
G1 Y124.804
G3 X394.709 Y197.807 I-95.447 J-23.976
X112.136 Y173.505 I-95.007 J-550.271
G2 X110.809 Y173.625 I-0.533 J1.495
G1 X24.206 Y223.625
G2 X23.413 Y225 I0.794 J1.375
G1 Y375
G2 X25 Y376.587 I1.587 J0
G1 X575
G2 X576.588 Y375 I0 J-1.587
G1 Y25
G2 X575 Y23.413 I-1.588 J0
G3 X574.682 Y23.095 I0 J-0.318 F600
G1 Y22.778
G19 G2 Y22.46 Z-4.183 J0 K0.318
G1 Z-0.5
Z5
G0 X575.318
G1 Z-2 F300
Z-5.683
G3 Y22.778 Z-6 J0.318 K0 F600
G1 Y23.095
G17 G3 X575 Y23.413 I-0.318 J0
G1 X475 F1000
G2 X473.413 Y25 I0 J1.587
G1 Y124.804
G3 X394.709 Y197.807 I-95.447 J-23.976
X112.136 Y173.505 I-95.007 J-550.271
G2 X110.809 Y173.625 I-0.533 J1.495
G1 X24.206 Y223.625
G2 X23.413 Y225 I0.794 J1.375
G1 Y375
G2 X25 Y376.587 I1.587 J0
G1 X575
G2 X576.588 Y375 I0 J-1.587
G1 Y25
G2 X575 Y23.413 I-1.588 J0
G3 X574.682 Y23.095 I0 J-0.318 F600
G1 Y22.778
G19 G2 Y22.46 Z-5.683 J0 K0.318
G1 Z-2
Z5
G0 X575.318
G1 Z-3.5 F300
Z-7.183
G3 Y22.778 Z-7.5 J0.318 K0 F600
G1 Y23.095
G17 G3 X575 Y23.413 I-0.318 J0
G1 X475 F1000
G2 X473.413 Y25 I0 J1.587
G1 Y124.804
G3 X394.709 Y197.807 I-95.447 J-23.976
X112.136 Y173.505 I-95.007 J-550.271
G2 X110.809 Y173.625 I-0.533 J1.495
G1 X24.206 Y223.625
G2 X23.413 Y225 I0.794 J1.375
G1 Y375
G2 X25 Y376.587 I1.587 J0
G1 X575
G2 X576.588 Y375 I0 J-1.587
G1 Y25
G2 X575 Y23.413 I-1.588 J0
G3 X574.682 Y23.095 I0 J-0.318 F600
G1 Y22.778
G19 G2 Y22.46 Z-7.183 J0 K0.318
G1 Z-3.5
Z5
G0 X575.318
G1 Z-5 F300
Z-8.683
G3 Y22.778 Z-9 J0.318 K0 F600
G1 Y23.095
G17 G3 X575 Y23.413 I-0.318 J0
G1 X475 F1000
G2 X473.413 Y25 I0 J1.587
G1 Y124.804
G3 X394.709 Y197.807 I-95.447 J-23.976
X112.136 Y173.505 I-95.007 J-550.271
G2 X110.809 Y173.625 I-0.533 J1.495
G1 X24.206 Y223.625
G2 X23.413 Y225 I0.794 J1.375
G1 Y375
G2 X25 Y376.587 I1.587 J0
G1 X575
G2 X576.588 Y375 I0 J-1.587
G1 Y25
G2 X575 Y23.413 I-1.588 J0
G3 X574.682 Y23.095 I0 J-0.318 F600
G1 Y22.778
G19 G2 Y22.46 Z-8.683 J0 K0.318
G1 Z-5
Z5
G0 X575.318
G1 Z-6.5 F300
Z-10.183
G3 Y22.778 Z-10.5 J0.318 K0 F600
G1 Y23.095
G17 G3 X575 Y23.413 I-0.318 J0
G1 X475 F1000
G2 X473.413 Y25 I0 J1.587
G1 Y124.804
G3 X394.709 Y197.807 I-95.447 J-23.976
X112.136 Y173.505 I-95.007 J-550.271
G2 X110.809 Y173.625 I-0.533 J1.495
G1 X24.206 Y223.625
G2 X23.413 Y225 I0.794 J1.375
G1 Y375
G2 X25 Y376.587 I1.587 J0
G1 X575
G2 X576.588 Y375 I0 J-1.587
G1 Y25
G2 X575 Y23.413 I-1.588 J0
G3 X574.682 Y23.095 I0 J-0.318 F600
G1 Y22.778
G19 G2 Y22.46 Z-10.183 J0 K0.318
G1 Z-6.5
Z5
G0 X575.318
G1 Z-8 F300
Z-11.683
G3 Y22.778 Z-12 J0.318 K0 F600
G1 Y23.095
G17 G3 X575 Y23.413 I-0.318 J0
G1 X475 F1000
G2 X473.413 Y25 I0 J1.587
G1 Y124.804
G3 X394.709 Y197.807 I-95.447 J-23.976
X112.136 Y173.505 I-95.007 J-550.271
G2 X110.809 Y173.625 I-0.533 J1.495
G1 X24.206 Y223.625
G2 X23.413 Y225 I0.794 J1.375
G1 Y375
G2 X25 Y376.587 I1.587 J0
G1 X575
G2 X576.588 Y375 I0 J-1.587
G1 Y25
G2 X575 Y23.413 I-1.588 J0
G3 X574.682 Y23.095 I0 J-0.318 F600
G1 Y22.778
G19 G2 Y22.46 Z-11.683 J0 K0.318
G1 Z-8
Z5
G0 X575.318
G1 Z-9.5 F300
Z-13.183
G3 Y22.778 Z-13.5 J0.318 K0 F600
G1 Y23.095
G17 G3 X575 Y23.413 I-0.318 J0
G1 X475 F1000
G2 X473.413 Y25 I0 J1.587
G1 Y124.804
G3 X394.709 Y197.807 I-95.447 J-23.976
X328.06 Y205.228 I-95.007 J-550.271
G1 Z-12
G3 X318.893 Y205.618 I-28.358 J-557.692
G1 Z-13.5 F300
G3 X185.505 Y194.147 I-19.191 J-558.082 F1000
G1 Z-12
G3 X176.54 Y192.197 I114.197 J-546.611
G1 Z-13.5 F300
G3 X112.136 Y173.505 I123.162 J-544.661 F1000
G2 X110.809 Y173.625 I-0.533 J1.495
G1 X24.206 Y223.625
G2 X23.413 Y225 I0.794 J1.375
G1 Y295.413
Z-12
Y304.587
Z-13.5 F300
Y375 F1000
G2 X25 Y376.587 I1.587 J0
G1 X89.162
Z-12
X98.338
Z-13.5 F300
X226.663 F1000
Z-12
X235.837
Z-13.5 F300
X364.163 F1000
Z-12
X373.337
Z-13.5 F300
X501.663 F1000
Z-12
X510.837
Z-13.5 F300
X575 F1000
G2 X576.588 Y375 I0 J-1.587
G1 Y292.087
Z-12
Y282.913
Z-13.5 F300
Y117.088 F1000
Z-12
Y107.912
Z-13.5 F300
Y25 F1000
G2 X575 Y23.413 I-1.588 J0
G3 X574.682 Y23.095 I0 J-0.318 F600
G1 Y22.778
G19 G2 Y22.46 Z-13.183 J0 K0.318
G1 Z-9.5
Z5
G0 X575.318
G1 Z-11 F300
Z-14.683
G3 Y22.778 Z-15 J0.318 K0 F600
G1 Y23.095
G17 G3 X575 Y23.413 I-0.318 J0
G1 X475 F1000
G2 X473.413 Y25 I0 J1.587
G1 Y124.804
G3 X394.709 Y197.807 I-95.447 J-23.976
X328.06 Y205.228 I-95.007 J-550.271
G1 Z-12
G3 X318.893 Y205.618 I-28.358 J-557.692
G1 Z-15 F300
G3 X185.505 Y194.147 I-19.191 J-558.082 F1000
G1 Z-12
G3 X176.54 Y192.197 I114.197 J-546.611
G1 Z-15 F300
G3 X112.136 Y173.505 I123.162 J-544.661 F1000
G2 X110.809 Y173.625 I-0.533 J1.495
G1 X24.206 Y223.625
G2 X23.413 Y225 I0.794 J1.375
G1 Y295.413
Z-12
Y304.587
Z-15 F300
Y375 F1000
G2 X25 Y376.587 I1.587 J0
G1 X89.162
Z-12
X98.338
Z-15 F300
X226.663 F1000
Z-12
X235.837
Z-15 F300
X364.163 F1000
Z-12
X373.337
Z-15 F300
X501.663 F1000
Z-12
X510.837
Z-15 F300
X575 F1000
G2 X576.588 Y375 I0 J-1.587
G1 Y292.087
Z-12
Y282.913
Z-15 F300
Y117.088 F1000
Z-12
Y107.912
Z-15 F300
Y25 F1000
G2 X575 Y23.413 I-1.588 J0
G3 X574.682 Y23.095 I0 J-0.318 F600
G1 Y22.778
G19 G2 Y22.46 Z-14.683 J0 K0.318
G1 Z-11
Z5
G0 X575.318
G1 Z-12.5 F300
Z-16.183
G3 Y22.778 Z-16.5 J0.318 K0 F600
G1 Y23.095
G17 G3 X575 Y23.413 I-0.318 J0
G1 X475 F1000
G2 X473.413 Y25 I0 J1.587
G1 Y124.804
G3 X394.709 Y197.807 I-95.447 J-23.976
X328.06 Y205.228 I-95.007 J-550.271
G1 Z-12
G3 X318.893 Y205.618 I-28.358 J-557.692
G1 Z-16.5 F300
G3 X185.505 Y194.147 I-19.191 J-558.082 F1000
G1 Z-12
G3 X176.54 Y192.197 I114.197 J-546.611
G1 Z-16.5 F300
G3 X112.136 Y173.505 I123.162 J-544.661 F1000
G2 X110.809 Y173.625 I-0.533 J1.495
G1 X24.206 Y223.625
G2 X23.413 Y225 I0.794 J1.375
G1 Y295.413
Z-12
Y304.587
Z-16.5 F300
Y375 F1000
G2 X25 Y376.587 I1.587 J0
G1 X89.162
Z-12
X98.338
Z-16.5 F300
X226.663 F1000
Z-12
X235.837
Z-16.5 F300
X364.163 F1000
Z-12
X373.337
Z-16.5 F300
X501.663 F1000
Z-12
X510.837
Z-16.5 F300
X575 F1000
G2 X576.588 Y375 I0 J-1.587
G1 Y292.087
Z-12
Y282.913
Z-16.5 F300
Y117.088 F1000
Z-12
Y107.912
Z-16.5 F300
Y25 F1000
G2 X575 Y23.413 I-1.588 J0
G3 X574.682 Y23.095 I0 J-0.318 F600
G1 Y22.778
G19 G2 Y22.46 Z-16.183 J0 K0.317
G1 Z-12.5
Z5
G0 X575.318
G1 Z-14 F300
Z-17.683
G3 Y22.778 Z-18 J0.318 K0 F600
G1 Y23.095
G17 G3 X575 Y23.413 I-0.318 J0
G1 X475 F1000
G2 X473.413 Y25 I0 J1.587
G1 Y124.804
G3 X394.709 Y197.807 I-95.447 J-23.976
X328.06 Y205.228 I-95.007 J-550.271
G1 Z-12
G3 X318.893 Y205.618 I-28.358 J-557.692
G1 Z-18 F300
G3 X185.505 Y194.147 I-19.191 J-558.082 F1000
G1 Z-12
G3 X176.54 Y192.197 I114.197 J-546.611
G1 Z-18 F300
G3 X112.136 Y173.505 I123.162 J-544.661 F1000
G2 X110.809 Y173.625 I-0.533 J1.495
G1 X24.206 Y223.625
G2 X23.413 Y225 I0.794 J1.375
G1 Y295.413
Z-12
Y304.587
Z-18 F300
Y375 F1000
G2 X25 Y376.587 I1.587 J0
G1 X89.162
Z-12
X98.338
Z-18 F300
X226.663 F1000
Z-12
X235.837
Z-18 F300
X364.163 F1000
Z-12
X373.337
Z-18 F300
X501.663 F1000
Z-12
X510.837
Z-18 F300
X575 F1000
G2 X576.588 Y375 I0 J-1.587
G1 Y292.087
Z-12
Y282.913
Z-18 F300
Y117.088 F1000
Z-12
Y107.912
Z-18 F300
Y25 F1000
G2 X575 Y23.413 I-1.588 J0
G3 X574.682 Y23.095 I0 J-0.318 F600
G1 Y22.778
G19 G2 Y22.46 Z-17.683 J0 K0.317
G1 Z5
G0 Z15
G17
G0 X0 Y0
G90
M5
M30
