(PetitePlaque2)
(T1  D=3.175 CR=0 - ZMIN=-3 - fraise deux tailles)
G90 G94
G17
G21

(Poche 2D4 2)
S99999 M3
G54
G0 Z15
G0 X80.054 Y511.536
Z15
Z5
G1 Z2.817 F300
X80.039 Y511.519 Z2.698
X79.995 Y511.469 Z2.597
X79.934 Y511.391 Z2.527
X79.868 Y511.293 Z2.5
G3 X82.433 Y509.707 Z2.335 I1.283 J-0.793
X79.868 Y511.293 Z2.169 I-1.283 J0.793
X82.433 Y509.707 Z2.004 I1.283 J-0.793
X79.868 Y511.293 Z1.838 I-1.283 J0.793
X82.433 Y509.707 Z1.673 I1.283 J-0.793
X79.868 Y511.293 Z1.507 I-1.283 J0.793
X82.433 Y509.707 Z1.342 I1.283 J-0.793
X79.868 Y511.293 Z1.176 I-1.283 J0.793
X82.433 Y509.707 Z1.011 I1.283 J-0.793
X79.868 Y511.293 Z0.845 I-1.283 J0.793
X82.433 Y509.707 Z0.68 I1.283 J-0.793
X79.868 Y511.293 Z0.515 I-1.283 J0.793
X82.433 Y509.707 Z0.349 I1.283 J-0.793
X79.868 Y511.293 Z0.184 I-1.283 J0.793
X82.433 Y509.707 Z0.018 I1.283 J-0.793
X79.868 Y511.293 Z-0.147 I-1.283 J0.793
X82.433 Y509.707 Z-0.313 I1.283 J-0.793
X79.868 Y511.293 Z-0.478 I-1.283 J0.793
X82.433 Y509.707 Z-0.644 I1.283 J-0.793
X79.868 Y511.293 Z-0.809 I-1.283 J0.793
X82.433 Y509.707 Z-0.974 I1.283 J-0.793
X79.868 Y511.293 Z-1.14 I-1.283 J0.793
X82.433 Y509.707 Z-1.305 I1.283 J-0.793
X79.868 Y511.293 Z-1.471 I-1.283 J0.793
X79.643 Y510.5 Z-1.5 I1.283 J-0.793
G1 Y479.962 F1000
G3 X79.962 Y479.642 I0.319 J0
G1 X81.038
G3 X81.357 Y479.962 I0 J0.319
G1 Y511.038
G3 X81.038 Y511.358 I-0.319 J0
G1 X79.962
G3 X79.643 Y511.038 I0 J-0.319
G1 Y510.5
G2 X78.74 Y509.146 I-1.467 J0
G3 X77.838 Y507.793 I0.564 J-1.354
G1 Y478.157
G3 X78.157 Y477.837 I0.319 J0
G1 X82.843
G3 X83.162 Y478.157 I0 J0.319
G1 Y512.843
G3 X82.843 Y513.162 I-0.319 J0
G1 X78.157
G3 X77.838 Y512.843 I0 J-0.319
G1 Y507.793
G2 X76.935 Y506.439 I-1.467 J0
G3 X76.033 Y505.085 I0.564 J-1.354
G1 Y476.352
G3 X76.352 Y476.033 I0.319 J0
G1 X84.648
G3 X84.967 Y476.352 I0 J0.319
G1 Y514.648
G3 X84.648 Y514.968 I-0.319 J0
G1 X76.352
G3 X76.033 Y514.648 I0 J-0.319
G1 Y505.085
G2 X75.13 Y503.731 I-1.467 J0
G3 X74.228 Y502.378 I0.564 J-1.354
G1 Y474.547
G3 X74.547 Y474.228 I0.319 J0
G1 X86.453
G3 X86.772 Y474.547 I0 J0.319
G1 Y516.453
G3 X86.453 Y516.773 I-0.319 J0
G1 X74.547
G3 X74.228 Y516.453 I0 J-0.319
G1 Y502.378
G2 X73.325 Y501.024 I-1.467 J0
G3 X72.423 Y499.67 I0.564 J-1.354
G1 Y472.742
G3 X72.742 Y472.422 I0.319 J0
G1 X88.258
G3 X88.577 Y472.742 I0 J0.319
G1 Y518.258
G3 X88.258 Y518.578 I-0.319 J0
G1 X72.742
G3 X72.423 Y518.258 I0 J-0.319
G1 Y499.67
G2 X71.52 Y498.316 I-1.467 J0
G3 X70.618 Y496.962 I0.564 J-1.354
G1 Y470.937
G3 X70.937 Y470.617 I0.319 J0
G1 X90.063
G3 X90.382 Y470.937 I0 J0.319
G1 Y520.063
G3 X90.063 Y520.383 I-0.319 J0
G1 X70.937
G3 X70.618 Y520.063 I0 J-0.319
G1 Y496.962
G2 X69.715 Y495.609 I-1.467 J0
G3 X68.813 Y494.255 I0.564 J-1.354
G1 Y469.132
G3 X69.132 Y468.813 I0.319 J0
G1 X91.868
G3 X92.188 Y469.132 I0 J0.319
G1 Y521.868
G3 X91.868 Y522.188 I-0.319 J0
G1 X69.132
G3 X68.813 Y521.868 I0 J-0.319
G1 Y494.255
G2 X67.91 Y492.901 I-1.467 J0
G3 X67.007 Y491.547 I0.564 J-1.354
G1 Y467.327
G3 X67.327 Y467.008 I0.319 J0
G1 X93.673
G3 X93.993 Y467.327 I0 J0.319
G1 Y523.673
G3 X93.673 Y523.992 I-0.319 J0
G1 X67.327
G3 X67.007 Y523.673 I0 J-0.319
G1 Y491.547
G2 X66.105 Y490.194 I-1.467 J0
G3 X65.202 Y488.84 I0.564 J-1.354
G1 Y465.522
G3 X65.522 Y465.203 I0.319 J0
G1 X95.478
G3 X95.798 Y465.522 I0 J0.319
G1 Y525.478
G3 X95.478 Y525.797 I-0.319 J0
G1 X65.522
G3 X65.202 Y525.478 I0 J-0.319
G1 Y488.84
G2 X64.323 Y487.52 I-1.43 J0
G3 X63.443 Y486.2 I0.55 J-1.32
G1 Y465
G3 X65 Y463.443 I1.557 J0
G1 X96
G3 X97.558 Y465 I0 J1.557
G1 Y526
G3 X96 Y527.557 I-1.558 J0
G1 X65
G3 X63.443 Y526 I0 J-1.557
G1 Y486.2
G2 X62.515 Y484.809 I-1.507 J0
G3 X61.588 Y483.418 I0.58 J-1.391
G1 Y465
G3 X65 Y461.587 I3.412 J0
G1 X96
G3 X99.412 Y465 I0 J3.413
G1 Y526
G3 X96 Y529.412 I-3.412 J0
G1 X65
G3 X61.588 Y526 I0 J-3.412
G1 Y483.418
X61.593 Y483.357 Z-1.488 F600
X61.61 Y483.299 Z-1.476
X61.633 Y483.253 Z-1.441
X61.664 Y483.211 Z-1.407
X61.714 Y483.164 Z-1.304
X61.733 Y483.15 Z-1.183
Z5
G0 X80.054 Y511.536
G1 Z1.317 F300
X80.039 Y511.519 Z1.198
X79.995 Y511.469 Z1.097
X79.934 Y511.391 Z1.027
X79.868 Y511.293 Z1
G3 X82.433 Y509.707 Z0.835 I1.283 J-0.793
X79.868 Y511.293 Z0.669 I-1.283 J0.793
X82.433 Y509.707 Z0.504 I1.283 J-0.793
X79.868 Y511.293 Z0.338 I-1.283 J0.793
X82.433 Y509.707 Z0.173 I1.283 J-0.793
X79.868 Y511.293 Z0.007 I-1.283 J0.793
X82.433 Y509.707 Z-0.158 I1.283 J-0.793
X79.868 Y511.293 Z-0.324 I-1.283 J0.793
X82.433 Y509.707 Z-0.489 I1.283 J-0.793
X79.868 Y511.293 Z-0.655 I-1.283 J0.793
X82.433 Y509.707 Z-0.82 I1.283 J-0.793
X79.868 Y511.293 Z-0.985 I-1.283 J0.793
X82.433 Y509.707 Z-1.151 I1.283 J-0.793
X79.868 Y511.293 Z-1.316 I-1.283 J0.793
X82.433 Y509.707 Z-1.482 I1.283 J-0.793
X79.868 Y511.293 Z-1.647 I-1.283 J0.793
X82.433 Y509.707 Z-1.813 I1.283 J-0.793
X79.868 Y511.293 Z-1.978 I-1.283 J0.793
X82.433 Y509.707 Z-2.144 I1.283 J-0.793
X79.868 Y511.293 Z-2.309 I-1.283 J0.793
X82.433 Y509.707 Z-2.474 I1.283 J-0.793
X79.868 Y511.293 Z-2.64 I-1.283 J0.793
X82.433 Y509.707 Z-2.805 I1.283 J-0.793
X79.868 Y511.293 Z-2.971 I-1.283 J0.793
X79.643 Y510.5 Z-3 I1.283 J-0.793
G1 Y479.962 F1000
G3 X79.962 Y479.642 I0.319 J0
G1 X81.038
G3 X81.357 Y479.962 I0 J0.319
G1 Y511.038
G3 X81.038 Y511.358 I-0.319 J0
G1 X79.962
G3 X79.643 Y511.038 I0 J-0.319
G1 Y510.5
G2 X78.74 Y509.146 I-1.467 J0
G3 X77.838 Y507.793 I0.564 J-1.354
G1 Y478.157
G3 X78.157 Y477.837 I0.319 J0
G1 X82.843
G3 X83.162 Y478.157 I0 J0.319
G1 Y512.843
G3 X82.843 Y513.162 I-0.319 J0
G1 X78.157
G3 X77.838 Y512.843 I0 J-0.319
G1 Y507.793
G2 X76.935 Y506.439 I-1.467 J0
G3 X76.033 Y505.085 I0.564 J-1.354
G1 Y476.352
G3 X76.352 Y476.033 I0.319 J0
G1 X84.648
G3 X84.967 Y476.352 I0 J0.319
G1 Y514.648
G3 X84.648 Y514.968 I-0.319 J0
G1 X76.352
G3 X76.033 Y514.648 I0 J-0.319
G1 Y505.085
G2 X75.13 Y503.731 I-1.467 J0
G3 X74.228 Y502.378 I0.564 J-1.354
G1 Y474.547
G3 X74.547 Y474.228 I0.319 J0
G1 X86.453
G3 X86.772 Y474.547 I0 J0.319
G1 Y516.453
G3 X86.453 Y516.773 I-0.319 J0
G1 X74.547
G3 X74.228 Y516.453 I0 J-0.319
G1 Y502.378
G2 X73.325 Y501.024 I-1.467 J0
G3 X72.423 Y499.67 I0.564 J-1.354
G1 Y472.742
G3 X72.742 Y472.422 I0.319 J0
G1 X88.258
G3 X88.577 Y472.742 I0 J0.319
G1 Y518.258
G3 X88.258 Y518.578 I-0.319 J0
G1 X72.742
G3 X72.423 Y518.258 I0 J-0.319
G1 Y499.67
G2 X71.52 Y498.316 I-1.467 J0
G3 X70.618 Y496.962 I0.564 J-1.354
G1 Y470.937
G3 X70.937 Y470.617 I0.319 J0
G1 X90.063
G3 X90.382 Y470.937 I0 J0.319
G1 Y520.063
G3 X90.063 Y520.383 I-0.319 J0
G1 X70.937
G3 X70.618 Y520.063 I0 J-0.319
G1 Y496.962
G2 X69.715 Y495.609 I-1.467 J0
G3 X68.813 Y494.255 I0.564 J-1.354
G1 Y469.132
G3 X69.132 Y468.813 I0.319 J0
G1 X91.868
G3 X92.188 Y469.132 I0 J0.319
G1 Y521.868
G3 X91.868 Y522.188 I-0.319 J0
G1 X69.132
G3 X68.813 Y521.868 I0 J-0.319
G1 Y494.255
G2 X67.91 Y492.901 I-1.467 J0
G3 X67.007 Y491.547 I0.564 J-1.354
G1 Y467.327
G3 X67.327 Y467.008 I0.319 J0
G1 X93.673
G3 X93.993 Y467.327 I0 J0.319
G1 Y523.673
G3 X93.673 Y523.992 I-0.319 J0
G1 X67.327
G3 X67.007 Y523.673 I0 J-0.319
G1 Y491.547
G2 X66.105 Y490.194 I-1.467 J0
G3 X65.202 Y488.84 I0.564 J-1.354
G1 Y465.522
G3 X65.522 Y465.203 I0.319 J0
G1 X95.478
G3 X95.798 Y465.522 I0 J0.319
G1 Y525.478
G3 X95.478 Y525.797 I-0.319 J0
G1 X65.522
G3 X65.202 Y525.478 I0 J-0.319
G1 Y488.84
G2 X64.323 Y487.52 I-1.43 J0
G3 X63.443 Y486.2 I0.55 J-1.32
G1 Y465
G3 X65 Y463.443 I1.557 J0
G1 X96
G3 X97.558 Y465 I0 J1.557
G1 Y526
G3 X96 Y527.557 I-1.558 J0
G1 X65
G3 X63.443 Y526 I0 J-1.557
G1 Y486.2
G2 X62.515 Y484.809 I-1.507 J0
G3 X61.588 Y483.418 I0.58 J-1.391
G1 Y465
G3 X65 Y461.587 I3.412 J0
G1 X96
G3 X99.412 Y465 I0 J3.413
G1 Y526
G3 X96 Y529.412 I-3.412 J0
G1 X65
G3 X61.588 Y526 I0 J-3.412
G1 Y483.418
X61.593 Y483.357 Z-2.988 F600
X61.61 Y483.299 Z-2.976
X61.633 Y483.253 Z-2.941
X61.664 Y483.211 Z-2.907
X61.714 Y483.164 Z-2.804
X61.733 Y483.15 Z-2.683
Z5
G0 Z15
G0 X0 Y0
G90
M5
M30
