(PetitePlaque2)
(T1  D=3.175 CR=0 - ZMIN=-3 - fraise deux tailles)
G90 G94
G17
G21

(Poche 2D1 2)
S99999 M3
G54
G0 Z15
G0 X424.272 Y231.265
Z15
Z5
G1 Z2.817 F300
X424.287 Y231.282 Z2.698
X424.331 Y231.332 Z2.597
X424.392 Y231.41 Z2.527
X424.458 Y231.508 Z2.5
G3 X421.893 Y233.094 Z2.335 I-1.283 J0.793
X424.458 Y231.508 Z2.169 I1.283 J-0.793
X421.893 Y233.094 Z2.004 I-1.283 J0.793
X424.458 Y231.508 Z1.838 I1.283 J-0.793
X421.893 Y233.094 Z1.673 I-1.283 J0.793
X424.458 Y231.508 Z1.507 I1.283 J-0.793
X421.893 Y233.094 Z1.342 I-1.283 J0.793
X424.458 Y231.508 Z1.176 I1.283 J-0.793
X421.893 Y233.094 Z1.011 I-1.283 J0.793
X424.458 Y231.508 Z0.845 I1.283 J-0.793
X421.893 Y233.094 Z0.68 I-1.283 J0.793
X424.458 Y231.508 Z0.515 I1.283 J-0.793
X421.893 Y233.094 Z0.349 I-1.283 J0.793
X424.458 Y231.508 Z0.184 I1.283 J-0.793
X421.893 Y233.094 Z0.018 I-1.283 J0.793
X424.458 Y231.508 Z-0.147 I1.283 J-0.793
X421.893 Y233.094 Z-0.313 I-1.283 J0.793
X424.458 Y231.508 Z-0.478 I1.283 J-0.793
X421.893 Y233.094 Z-0.644 I-1.283 J0.793
X424.458 Y231.508 Z-0.809 I1.283 J-0.793
X421.893 Y233.094 Z-0.974 I-1.283 J0.793
X424.458 Y231.508 Z-1.14 I1.283 J-0.793
X421.893 Y233.094 Z-1.305 I-1.283 J0.793
X424.458 Y231.508 Z-1.471 I1.283 J-0.793
X424.684 Y232.301 Z-1.5 I-1.283 J0.793
X423.339 Y232.301 I-0.673 J0 F1000
X426.589 Y232.301 I1.625 J0
X421.434 Y232.301 I-2.578 J0
X428.493 Y232.301 I3.53 J0
X419.529 Y232.301 I-4.483 J0
X430.398 Y232.301 I5.435 J0
X417.624 Y232.301 I-6.388 J0
X432.303 Y232.301 I7.34 J0
X415.719 Y232.301 I-8.293 J0
X434.208 Y232.301 I9.245 J0
X413.814 Y232.301 I-10.198 J0
X436.113 Y232.301 I11.15 J0
X411.909 Y232.301 I-12.103 J0
X438.018 Y232.301 I13.055 J0
X410.004 Y232.301 I-14.008 J0
X439.923 Y232.301 I14.96 J0
X408.098 Y232.301 I-15.913 J0
X439.923 Y232.301 I15.913 J0
G1 X439.918 Y232.361 Z-1.488 F600
X439.901 Y232.42 Z-1.476
X439.878 Y232.466 Z-1.441
X439.847 Y232.507 Z-1.407
X439.797 Y232.554 Z-1.304
X439.778 Y232.568 Z-1.183
Z5
G0 X424.272 Y231.265
G1 Z1.317 F300
X424.287 Y231.282 Z1.198
X424.331 Y231.332 Z1.097
X424.392 Y231.41 Z1.027
X424.458 Y231.508 Z1
G3 X421.893 Y233.094 Z0.835 I-1.283 J0.793
X424.458 Y231.508 Z0.669 I1.283 J-0.793
X421.893 Y233.094 Z0.504 I-1.283 J0.793
X424.458 Y231.508 Z0.338 I1.283 J-0.793
X421.893 Y233.094 Z0.173 I-1.283 J0.793
X424.458 Y231.508 Z0.007 I1.283 J-0.793
X421.893 Y233.094 Z-0.158 I-1.283 J0.793
X424.458 Y231.508 Z-0.324 I1.283 J-0.793
X421.893 Y233.094 Z-0.489 I-1.283 J0.793
X424.458 Y231.508 Z-0.655 I1.283 J-0.793
X421.893 Y233.094 Z-0.82 I-1.283 J0.793
X424.458 Y231.508 Z-0.985 I1.283 J-0.793
X421.893 Y233.094 Z-1.151 I-1.283 J0.793
X424.458 Y231.508 Z-1.316 I1.283 J-0.793
X421.893 Y233.094 Z-1.482 I-1.283 J0.793
X424.458 Y231.508 Z-1.647 I1.283 J-0.793
X421.893 Y233.094 Z-1.813 I-1.283 J0.793
X424.458 Y231.508 Z-1.978 I1.283 J-0.793
X421.893 Y233.094 Z-2.144 I-1.283 J0.793
X424.458 Y231.508 Z-2.309 I1.283 J-0.793
X421.893 Y233.094 Z-2.474 I-1.283 J0.793
X424.458 Y231.508 Z-2.64 I1.283 J-0.793
X421.893 Y233.094 Z-2.805 I-1.283 J0.793
X424.458 Y231.508 Z-2.971 I1.283 J-0.793
X424.684 Y232.301 Z-3 I-1.283 J0.793
X423.339 Y232.301 I-0.673 J0 F1000
X426.589 Y232.301 I1.625 J0
X421.434 Y232.301 I-2.578 J0
X428.493 Y232.301 I3.53 J0
X419.529 Y232.301 I-4.483 J0
X430.398 Y232.301 I5.435 J0
X417.624 Y232.301 I-6.388 J0
X432.303 Y232.301 I7.34 J0
X415.719 Y232.301 I-8.293 J0
X434.208 Y232.301 I9.245 J0
X413.814 Y232.301 I-10.198 J0
X436.113 Y232.301 I11.15 J0
X411.909 Y232.301 I-12.103 J0
X438.018 Y232.301 I13.055 J0
X410.004 Y232.301 I-14.008 J0
X439.923 Y232.301 I14.96 J0
X408.098 Y232.301 I-15.913 J0
X439.923 Y232.301 I15.913 J0
G1 X439.918 Y232.361 Z-2.988 F600
X439.901 Y232.42 Z-2.976
X439.878 Y232.466 Z-2.941
X439.847 Y232.507 Z-2.907
X439.797 Y232.554 Z-2.804
X439.778 Y232.568 Z-2.683
Z5
G0 Z15
X234.533 Y348.664
Z5
G1 Z2.817 F300
X234.517 Y348.648 Z2.698
X234.473 Y348.599 Z2.597
X234.41 Y348.522 Z2.527
X234.342 Y348.426 Z2.5
G3 X236.875 Y346.788 Z2.335 I1.266 J-0.819
X234.342 Y348.426 Z2.169 I-1.266 J0.819
X236.875 Y346.788 Z2.004 I1.266 J-0.819
X234.342 Y348.426 Z1.838 I-1.266 J0.819
X236.875 Y346.788 Z1.673 I1.266 J-0.819
X234.342 Y348.426 Z1.507 I-1.266 J0.819
X236.875 Y346.788 Z1.342 I1.266 J-0.819
X234.342 Y348.426 Z1.176 I-1.266 J0.819
X236.875 Y346.788 Z1.011 I1.266 J-0.819
X234.342 Y348.426 Z0.845 I-1.266 J0.819
X236.875 Y346.788 Z0.68 I1.266 J-0.819
X234.342 Y348.426 Z0.515 I-1.266 J0.819
X236.875 Y346.788 Z0.349 I1.266 J-0.819
X234.342 Y348.426 Z0.184 I-1.266 J0.819
X236.875 Y346.788 Z0.018 I1.266 J-0.819
X234.342 Y348.426 Z-0.147 I-1.266 J0.819
X236.875 Y346.788 Z-0.313 I1.266 J-0.819
X234.342 Y348.426 Z-0.478 I-1.266 J0.819
X236.875 Y346.788 Z-0.644 I1.266 J-0.819
X234.342 Y348.426 Z-0.809 I-1.266 J0.819
X236.875 Y346.788 Z-0.974 I1.266 J-0.819
X234.342 Y348.426 Z-1.14 I-1.266 J0.819
X236.875 Y346.788 Z-1.305 I1.266 J-0.819
X234.342 Y348.426 Z-1.471 I-1.266 J0.819
X234.1 Y347.637 Z-1.5 I1.266 J-0.819
X234.081 Y345.698 I95.359 J-1.94 F1000
G1 X234.087 Y345.66
X234.106 Y345.626
X234.135 Y345.6
X234.171 Y345.586
X234.21 Y345.585
X234.247 Y345.597
X234.278 Y345.62
X234.299 Y345.652
G2 X234.694 Y346.471 I9.901 J-4.279
X235.144 Y347.261 I15.745 J-8.444
G3 X235.143 Y347.847 I-0.483 J0.292
G2 X234.254 Y349.624 I10.062 J6.146
G1 X234.234 Y349.655
X234.204 Y349.678
X234.169 Y349.69
X234.131 Y349.688
X234.097 Y349.673
X234.069 Y349.647
X234.053 Y349.614
X234.049 Y349.576
G2 X234.1 Y347.637 I-20.615 J-1.519
X233.523 Y346.792 I-0.935 J0.019
G3 X232.954 Y345.941 I0.352 J-0.851
G1 Y345.21
G2 X232.6 Y342.573 I-9.988 J0
X231.603 Y340.107 I-10.985 J3.007
G3 X231.767 Y339.829 I0.164 J-0.09
G1 X233.979
G3 X234.303 Y340.146 I0 J0.324
G2 X234.341 Y341.399 I66.165 J-1.397
X234.496 Y342.643 I7.497 J-0.3
X236.006 Y346.478 I12.074 J-2.539
X236.255 Y346.866 I6.871 J-4.148
G3 X236.51 Y347.25 I-12.635 J8.654
X236.511 Y347.878 I-0.49 J0.314
G1 X236.378 Y348.07
X236.246 Y348.263
G2 X235.06 Y350.671 I10.191 J6.518
X234.372 Y353.265 I14.432 J5.214
G3 X233.985 Y353.591 I-0.387 J-0.067
G1 X233.128
G3 X232.757 Y353.267 I0 J-0.375
G2 X232.52 Y352.062 I-10.521 J1.443
G3 X232.525 Y351.542 I0.976 J-0.251
G2 X232.954 Y348.379 I-11.432 J-3.164
G1 Y345.941
G2 X232.016 Y344.538 I-1.519 J0
G3 X230.924 Y343.251 I0.705 J-1.706
G2 X230.233 Y341.339 I-8.42 J1.959
X227.713 Y338.261 I-8.08 J4.046
G3 X227.794 Y338.024 I0.081 J-0.104
G1 X236.006
G3 X236.252 Y338.32 I0 J0.25
G2 X236.456 Y342.916 I10.05 J1.857
X238.548 Y347.013 I11.112 J-3.091
G1 X238.637 Y347.119
X238.727 Y347.224
G3 X238.741 Y347.762 I-0.349 J0.278
G2 X237.656 Y349.381 I26.551 J18.97
X236.818 Y351.141 I7.106 J4.462
X236.306 Y352.813 I26.978 J9.175
X236.021 Y354.539 I8.232 J2.247
X236.013 Y354.811 I4.345 J0.266
G3 X236.005 Y355.084 I-4.711 J-0.004
X235.674 Y355.396 I-0.331 J-0.019
G1 X231.363
G3 X231.05 Y355.083 I0 J-0.313
G1 X231.056 Y354.896
X231.062 Y354.71
G2 X230.974 Y353.505 I-8.246 J0
X230.721 Y352.323 I-9.38 J1.386
G3 X230.731 Y351.249 I1.851 J-0.521
G2 X231.161 Y348.245 I-9.718 J-2.923
G3 X231.148 Y345.21 I380.077 J-3.035
G2 X230.924 Y343.251 I-8.645 J0
X229.605 Y342.093 I-1.468 J0.342
G3 X228.094 Y341.201 I0.207 J-2.078
G2 X222.29 Y338.156 I-5.804 J4.009
G1 X213.246 Y338.202
X213.205 Y338.195
X213.168 Y338.176
X213.139 Y338.146
X213.121 Y338.109
X213.116 Y338.068
X213.123 Y338.027
X213.144 Y337.991
X213.174 Y337.963
G3 X215.945 Y336.687 I5.514 J8.325
X218.967 Y336.263 I3.022 J10.58
G1 X238.545 Y336.219
G3 X238.727 Y336.501 I0 J0.2
G2 X238.097 Y338.244 I11.061 J4.985
X237.868 Y340.083 I6.109 J1.694
X238.487 Y343.367 I10.279 J-0.235
X239.105 Y344.698 I7.769 J-2.801
X239.932 Y345.911 I8.544 J-4.937
X240.497 Y346.59 I16.841 J-13.42
G3 X241.073 Y347.261 I-90.397 J78.309
X241.072 Y347.768 I-0.296 J0.253
X240.498 Y348.407 I-15.948 J-13.731
G2 X239.971 Y349.086 I3.441 J3.216
X239.169 Y350.36 I82.587 J52.82
X238.527 Y351.722 I5.683 J3.513
X238.03 Y353.421 I19.374 J6.589
X237.764 Y355.17 I9.55 J2.35
X237.793 Y356.035 I4.58 J0.28
X237.909 Y356.893 I59.628 J-7.661
G3 X237.641 Y357.202 I-0.268 J0.038
G1 X229.564
G3 X229.245 Y356.882 I0 J-0.319
X229.267 Y355.796 I26.224 J0
G2 X229.29 Y354.71 I-26.201 J-1.086
X229.15 Y353.43 I-5.921 J0
X228.779 Y352.198 I-8.455 J1.871
G3 X228.786 Y351.34 I1.092 J-0.419
G2 X229.361 Y348.302 I-7.291 J-2.951
G3 X229.344 Y345.21 I279.542 J-3.092
G2 X228.094 Y341.201 I-7.054 J0
X226.381 Y340.615 I-1.253 J0.865
G3 X224.575 Y340.485 I-0.74 J-2.335
G2 X222.29 Y339.961 I-2.285 J4.725
G1 X208.987 Y340.007
G3 X208.842 Y339.732 I0 J-0.175
X213.254 Y335.846 I9.965 J6.868
X218.967 Y334.458 I5.713 J11.062
G1 X242.229 Y334.414
G3 X242.333 Y334.667 I0 J0.148
X241.804 Y335.158 I-10.336 J-10.571
G2 X241.318 Y335.691 I2.289 J2.582
X240.134 Y337.73 I8.652 J6.387
X239.673 Y340.042 I4.951 J2.189
X240.185 Y342.755 I8.475 J-0.193
X241.091 Y344.429 I5.981 J-2.156
X242.257 Y345.933 I57.732 J-43.571
X242.876 Y346.632 I7.072 J-5.635
G3 X243.496 Y347.332 I-5.342 J5.352
X243.465 Y347.826 I-0.295 J0.23
G2 X242.418 Y348.889 I72.474 J72.474
X241.491 Y350.058 I5.312 J5.159
G1 X240.783 Y351.165
G2 X240.236 Y352.303 I4.422 J2.828
X239.801 Y353.769 I18.299 J6.223
X239.565 Y355.28 I7.915 J2.01
X239.655 Y356.77 I6.161 J0.377
X240.09 Y358.197 I6.402 J-1.173
X240.214 Y358.458 I4.241 J-1.848
G3 X240.338 Y358.719 I-4.118 J2.109
X240.149 Y359.007 I-0.188 J0.082
G1 X227.694
G3 X227.416 Y358.701 I0 J-0.279
G2 X227.498 Y356.706 I-18.485 J-1.752
G3 X227.484 Y354.71 I152.75 J-1.996
G2 X227.277 Y353.331 I-4.681 J0
X226.712 Y352.056 I-5.655 J1.743
G3 X226.717 Y351.444 I0.508 J-0.301
G2 X227.562 Y348.384 I-4.82 J-2.977
G3 X227.538 Y345.21 I216.551 J-3.174
G2 X224.575 Y340.485 I-5.249 J0
X222.781 Y340.932 I-0.629 J1.301
G3 X221.132 Y341.767 I-1.649 J-1.209
G1 X207.29
G2 X206.556 Y341.869 I0 J2.7
X205.86 Y342.127 I1.273 J4.501
G1 X205.819 Y342.138
X205.777 Y342.135
X205.738 Y342.119
X205.706 Y342.09
X205.686 Y342.052
X205.679 Y342.01
X205.686 Y341.968
G3 X218.967 Y332.652 I13.218 J4.719
G1 X243.428 Y332.608
G3 X243.733 Y332.644 I0 J1.318
X246.176 Y333.355 I-5.875 J24.738
X246.242 Y333.674 I-0.061 J0.179
X244.676 Y334.996 I-18.809 J-20.699
G2 X243.133 Y336.347 I11.509 J14.698
X242.275 Y337.464 I3.494 J3.574
X241.685 Y338.744 I7.469 J4.214
X241.437 Y340.181 I3.862 J1.406
X241.694 Y341.616 I4.325 J-0.032
X242.57 Y343.349 I7.49 J-2.7
X243.743 Y344.897 I13.929 J-9.338
X244.856 Y346.173 I61.616 J-52.584
G3 X245.873 Y347.525 I-7.654 J6.813
X245.811 Y348.042 I-0.35 J0.22
X244.327 Y349.456 I-61.134 J-62.694
G2 X243.013 Y351.031 I5.549 J5.964
G3 X242.423 Y351.926 I-32.966 J-21.084
G2 X241.946 Y352.885 I3.31 J2.247
X241.482 Y354.454 I19.159 J6.516
X241.396 Y356.089 I4.105 J1.035
X241.761 Y357.623 I8.565 J-1.226
X242.457 Y359.038 I5.652 J-1.902
X242.99 Y359.792 I15.11 J-10.115
G3 X243.523 Y360.546 I-18.464 J13.616
X243.382 Y360.812 I-0.141 J0.095
G1 X224.792
G3 X224.687 Y360.565 I0 J-0.146
G2 X225.411 Y359.483 I-2.689 J-2.584
X225.678 Y358.21 I-2.892 J-1.273
G3 X225.694 Y354.856 I358.35 J0
G2 X224.13 Y351.888 I-3.534 J-0.033
G3 X224.133 Y351.565 I0.108 J-0.16
G2 X225.742 Y348.591 I-1.906 J-2.954
G3 X225.732 Y345.21 I597.695 J-3.382
G2 X222.29 Y341.767 I-3.443 J0
G1 X221.132
X221.071 Y341.762 Z-1.488 F600
X221.013 Y341.745 Z-1.476
X220.967 Y341.722 Z-1.441
X220.925 Y341.691 Z-1.407
X220.878 Y341.641 Z-1.304
X220.865 Y341.622 Z-1.183
Z5
G0 X206.799 Y352.623
G1 Z2.817 F300
X206.815 Y352.606 Z2.698
X206.863 Y352.561 Z2.597
X206.938 Y352.496 Z2.527
X207.033 Y352.426 Z2.5
G3 X208.735 Y354.916 Z2.335 I0.851 J1.245
X207.033 Y352.426 Z2.169 I-0.851 J-1.245
X208.735 Y354.916 Z2.004 I0.851 J1.245
X207.033 Y352.426 Z1.838 I-0.851 J-1.245
X208.735 Y354.916 Z1.673 I0.851 J1.245
X207.033 Y352.426 Z1.507 I-0.851 J-1.245
X208.735 Y354.916 Z1.342 I0.851 J1.245
X207.033 Y352.426 Z1.176 I-0.851 J-1.245
X208.735 Y354.916 Z1.011 I0.851 J1.245
X207.033 Y352.426 Z0.845 I-0.851 J-1.245
X208.735 Y354.916 Z0.68 I0.851 J1.245
X207.033 Y352.426 Z0.515 I-0.851 J-1.245
X208.735 Y354.916 Z0.349 I0.851 J1.245
X207.033 Y352.426 Z0.184 I-0.851 J-1.245
X208.735 Y354.916 Z0.018 I0.851 J1.245
X207.033 Y352.426 Z-0.147 I-0.851 J-1.245
X208.735 Y354.916 Z-0.313 I0.851 J1.245
X207.033 Y352.426 Z-0.478 I-0.851 J-1.245
X208.735 Y354.916 Z-0.644 I0.851 J1.245
X207.033 Y352.426 Z-0.809 I-0.851 J-1.245
X208.735 Y354.916 Z-0.974 I0.851 J1.245
X207.033 Y352.426 Z-1.14 I-0.851 J-1.245
X208.735 Y354.916 Z-1.305 I0.851 J1.245
X207.033 Y352.426 Z-1.471 I-0.851 J-1.245
X207.815 Y352.164 Z-1.5 I0.851 J1.245
G1 X207.87 Y352.161 F1000
G3 X209.68 Y352.108 I1.81 J30.925
X209.785 Y352.355 I0 J0.146
G2 X209.061 Y353.437 I2.689 J2.584
X208.794 Y354.71 I2.892 J1.273
X208.816 Y355.455 I12.605 J0
G3 X208.838 Y356.2 I-12.583 J0.745
G1 X208.83 Y356.243
X208.809 Y356.281
X208.776 Y356.31
X208.736 Y356.325
X208.692 Y356.327
X208.651 Y356.313
X208.616 Y356.287
G3 X205.917 Y352.053 I10.351 J-9.577
G1 X205.908 Y352.012
X205.912 Y351.97
X205.93 Y351.932
X205.96 Y351.902
X205.997 Y351.883
X206.039 Y351.878
X206.08 Y351.886
G2 X207.815 Y352.164 I1.537 J-4.036
X209.163 Y351.215 I-0.07 J-1.532
G3 X210.533 Y350.297 I1.369 J0.563
G1 X222.236
X222.29
G2 X223.878 Y348.71 I0 J-1.587
G1 Y345.21
G2 X222.29 Y343.622 I-1.588 J0
G1 X207.29
G2 X205.702 Y345.21 I0 J1.587
G1 Y348.71
G2 X207.29 Y350.297 I1.587 J0
G1 X210.533
X210.593 Y350.303 Z-1.488 F600
X210.651 Y350.32 Z-1.476
X210.697 Y350.343 Z-1.441
X210.739 Y350.374 Z-1.407
X210.786 Y350.424 Z-1.304
X210.8 Y350.443 Z-1.183
Z5
G0 X210.651 Y353.111
G1 Z2.817 F300
X210.661 Y353.132 Z2.698
X210.687 Y353.192 Z2.597
X210.721 Y353.285 Z2.527
X210.754 Y353.399 Z2.5
G3 X207.826 Y354.121 Z2.335 I-1.464 J0.361
X210.754 Y353.399 Z2.169 I1.464 J-0.361
X207.826 Y354.121 Z2.004 I-1.464 J0.361
X210.754 Y353.399 Z1.838 I1.464 J-0.361
X207.826 Y354.121 Z1.673 I-1.464 J0.361
X210.754 Y353.399 Z1.507 I1.464 J-0.361
X207.826 Y354.121 Z1.342 I-1.464 J0.361
X210.754 Y353.399 Z1.176 I1.464 J-0.361
X207.826 Y354.121 Z1.011 I-1.464 J0.361
X210.754 Y353.399 Z0.845 I1.464 J-0.361
X207.826 Y354.121 Z0.68 I-1.464 J0.361
X210.754 Y353.399 Z0.515 I1.464 J-0.361
X207.826 Y354.121 Z0.349 I-1.464 J0.361
X210.754 Y353.399 Z0.184 I1.464 J-0.361
X207.826 Y354.121 Z0.018 I-1.464 J0.361
X210.754 Y353.399 Z-0.147 I1.464 J-0.361
X207.826 Y354.121 Z-0.313 I-1.464 J0.361
X210.754 Y353.399 Z-0.478 I1.464 J-0.361
X207.826 Y354.121 Z-0.644 I-1.464 J0.361
X210.754 Y353.399 Z-0.809 I1.464 J-0.361
X207.826 Y354.121 Z-0.974 I-1.464 J0.361
X210.754 Y353.399 Z-1.14 I1.464 J-0.361
X207.826 Y354.121 Z-1.305 I-1.464 J0.361
X210.754 Y353.399 Z-1.471 I1.464 J-0.361
X210.725 Y354.223 Z-1.5 I-1.464 J0.361
G2 X210.648 Y354.71 I1.511 J0.487 F1000
G1 Y358.21
G2 X212.236 Y359.797 I1.587 J0
G1 X222.236
G2 X223.824 Y358.21 I0 J-1.587
G1 Y354.71
G2 X222.236 Y353.122 I-1.588 J0
G1 X212.236
G2 X210.725 Y354.223 I0 J1.587
G1 X210.701 Y354.278 Z-1.488 F600
X210.667 Y354.328 Z-1.476
X210.631 Y354.365 Z-1.441
X210.589 Y354.396 Z-1.407
X210.527 Y354.425 Z-1.304
X210.504 Y354.432 Z-1.183
Z5
G0 X206.167 Y355.514
G1 Z2.817 F300
X206.145 Y355.508 Z2.698
X206.082 Y355.487 Z2.597
X205.99 Y355.451 Z2.527
X205.883 Y355.401 Z2.5
G3 X207.279 Y352.727 Z2.335 I0.698 J-1.337
X205.883 Y355.401 Z2.169 I-0.698 J1.337
X207.279 Y352.727 Z2.004 I0.698 J-1.337
X205.883 Y355.401 Z1.838 I-0.698 J1.337
X207.279 Y352.727 Z1.673 I0.698 J-1.337
X205.883 Y355.401 Z1.507 I-0.698 J1.337
X207.279 Y352.727 Z1.342 I0.698 J-1.337
X205.883 Y355.401 Z1.176 I-0.698 J1.337
X207.279 Y352.727 Z1.011 I0.698 J-1.337
X205.883 Y355.401 Z0.845 I-0.698 J1.337
X207.279 Y352.727 Z0.68 I0.698 J-1.337
X205.883 Y355.401 Z0.515 I-0.698 J1.337
X207.279 Y352.727 Z0.349 I0.698 J-1.337
X205.883 Y355.401 Z0.184 I-0.698 J1.337
X207.279 Y352.727 Z0.018 I0.698 J-1.337
X205.883 Y355.401 Z-0.147 I-0.698 J1.337
X207.279 Y352.727 Z-0.313 I0.698 J-1.337
X205.883 Y355.401 Z-0.478 I-0.698 J1.337
X207.279 Y352.727 Z-0.644 I0.698 J-1.337
X205.883 Y355.401 Z-0.809 I-0.698 J1.337
X207.279 Y352.727 Z-0.974 I0.698 J-1.337
X205.883 Y355.401 Z-1.14 I-0.698 J1.337
X207.279 Y352.727 Z-1.305 I0.698 J-1.337
X205.883 Y355.401 Z-1.471 I-0.698 J1.337
X205.285 Y354.834 Z-1.5 I0.698 J-1.337
X218.967 Y330.797 I13.682 J-8.124 F1000
G1 X243.787
X244.011 Y330.849
X244.523 Y330.971
X245.765 Y331.301
X246.986 Y331.718
X247.971 Y332.184
X248.624 Y332.639
X248.92 Y332.98
X248.976 Y333.133
X248.964 Y333.282
X248.784 Y333.657
X248.343 Y334.212
X246.791 Y335.622
X245.16 Y336.967
X245.06 Y337.057
X244.43 Y337.673
G2 X244.263 Y337.865 I1.11 J1.135
G1 X243.84 Y338.438
G2 X243.625 Y338.838 I1.277 J0.943
G1 X243.428 Y339.379
G2 X243.333 Y339.958 I1.492 J0.543
G1 X243.345 Y340.484
G2 X243.439 Y340.986 I1.587 J-0.036
G1 X243.629 Y341.513
G2 X243.763 Y341.795 I1.493 J-0.538
G1 X244.089 Y342.335
X244.145 Y342.422
X244.206 Y342.504
X245.12 Y343.651
X245.154 Y343.693
X246.18 Y344.894
X247.09 Y346.061
X247.734 Y347.082
X248.056 Y347.883
X248.083 Y348.043
X248.082 Y348.062
X247.961 Y348.375
X247.534 Y348.892
X246.711 Y349.694
X246.696 Y349.708
X245.713 Y350.691
X245.633 Y350.778
X244.71 Y351.85
X244.64 Y351.938
X244.576 Y352.031
X243.868 Y353.138
G2 X243.702 Y353.482 I1.337 J0.855
G1 X243.333 Y354.567
G2 X243.251 Y354.981 I1.503 J0.511
G1 X243.219 Y355.504
G2 X243.233 Y355.826 I1.585 J0.097
G1 X243.306 Y356.336
G2 X243.422 Y356.745 I1.571 J-0.225
G1 X243.863 Y357.757
G2 X243.999 Y358.006 I1.455 J-0.634
G1 X244.728 Y359.095
X245.506 Y360.244
X246.079 Y361.342
X246.195 Y361.713
X246.225 Y361.973
X246.211 Y362.065
X246.197 Y362.091
X246.083 Y362.19
X245.701 Y362.365
X244.976 Y362.531
X243.899 Y362.622
X218.967
G3 X205.285 Y354.834 I0 J-15.913
G1 X205.259 Y354.779 Z-1.488 F600
X205.244 Y354.72 Z-1.476
X205.24 Y354.669 Z-1.441
X205.245 Y354.618 Z-1.407
X205.264 Y354.552 Z-1.304
X205.274 Y354.53 Z-1.183
Z5
G0 X206.799 Y352.623
G1 Z1.317 F300
X206.815 Y352.606 Z1.198
X206.863 Y352.561 Z1.097
X206.938 Y352.496 Z1.027
X207.033 Y352.426 Z1
G3 X208.735 Y354.916 Z0.835 I0.851 J1.245
X207.033 Y352.426 Z0.669 I-0.851 J-1.245
X208.735 Y354.916 Z0.504 I0.851 J1.245
X207.033 Y352.426 Z0.338 I-0.851 J-1.245
X208.735 Y354.916 Z0.173 I0.851 J1.245
X207.033 Y352.426 Z0.007 I-0.851 J-1.245
X208.735 Y354.916 Z-0.158 I0.851 J1.245
X207.033 Y352.426 Z-0.324 I-0.851 J-1.245
X208.735 Y354.916 Z-0.489 I0.851 J1.245
X207.033 Y352.426 Z-0.655 I-0.851 J-1.245
X208.735 Y354.916 Z-0.82 I0.851 J1.245
X207.033 Y352.426 Z-0.985 I-0.851 J-1.245
X208.735 Y354.916 Z-1.151 I0.851 J1.245
X207.033 Y352.426 Z-1.316 I-0.851 J-1.245
X208.735 Y354.916 Z-1.482 I0.851 J1.245
X207.033 Y352.426 Z-1.647 I-0.851 J-1.245
X208.735 Y354.916 Z-1.813 I0.851 J1.245
X207.033 Y352.426 Z-1.978 I-0.851 J-1.245
X208.735 Y354.916 Z-2.144 I0.851 J1.245
X207.033 Y352.426 Z-2.309 I-0.851 J-1.245
X208.735 Y354.916 Z-2.474 I0.851 J1.245
X207.033 Y352.426 Z-2.64 I-0.851 J-1.245
X208.735 Y354.916 Z-2.805 I0.851 J1.245
X207.033 Y352.426 Z-2.971 I-0.851 J-1.245
X207.815 Y352.164 Z-3 I0.851 J1.245
G1 X207.87 Y352.161 F1000
G3 X209.68 Y352.108 I1.81 J30.925
X209.785 Y352.355 I0 J0.146
G2 X209.061 Y353.437 I2.689 J2.584
X208.794 Y354.71 I2.892 J1.273
X208.816 Y355.455 I12.605 J0
G3 X208.838 Y356.2 I-12.583 J0.745
G1 X208.83 Y356.243
X208.809 Y356.281
X208.776 Y356.31
X208.736 Y356.325
X208.692 Y356.327
X208.651 Y356.313
X208.616 Y356.287
G3 X205.917 Y352.053 I10.351 J-9.577
G1 X205.908 Y352.012
X205.912 Y351.97
X205.93 Y351.932
X205.96 Y351.902
X205.997 Y351.883
X206.039 Y351.878
X206.08 Y351.886
G2 X207.815 Y352.164 I1.537 J-4.036
G1 X207.875 Y352.17 Z-2.988 F600
X207.934 Y352.187 Z-2.976
X207.98 Y352.21 Z-2.941
X208.021 Y352.24 Z-2.907
X208.068 Y352.29 Z-2.804
X208.082 Y352.31 Z-2.683
Z5
G0 X234.533 Y348.664
G1 Z1.317 F300
X234.517 Y348.648 Z1.198
X234.473 Y348.599 Z1.097
X234.41 Y348.522 Z1.027
X234.342 Y348.426 Z1
G3 X236.875 Y346.788 Z0.835 I1.266 J-0.819
X234.342 Y348.426 Z0.669 I-1.266 J0.819
X236.875 Y346.788 Z0.504 I1.266 J-0.819
X234.342 Y348.426 Z0.338 I-1.266 J0.819
X236.875 Y346.788 Z0.173 I1.266 J-0.819
X234.342 Y348.426 Z0.007 I-1.266 J0.819
X236.875 Y346.788 Z-0.158 I1.266 J-0.819
X234.342 Y348.426 Z-0.324 I-1.266 J0.819
X236.875 Y346.788 Z-0.489 I1.266 J-0.819
X234.342 Y348.426 Z-0.655 I-1.266 J0.819
X236.875 Y346.788 Z-0.82 I1.266 J-0.819
X234.342 Y348.426 Z-0.985 I-1.266 J0.819
X236.875 Y346.788 Z-1.151 I1.266 J-0.819
X234.342 Y348.426 Z-1.316 I-1.266 J0.819
X236.875 Y346.788 Z-1.482 I1.266 J-0.819
X234.342 Y348.426 Z-1.647 I-1.266 J0.819
X236.875 Y346.788 Z-1.813 I1.266 J-0.819
X234.342 Y348.426 Z-1.978 I-1.266 J0.819
X236.875 Y346.788 Z-2.144 I1.266 J-0.819
X234.342 Y348.426 Z-2.309 I-1.266 J0.819
X236.875 Y346.788 Z-2.474 I1.266 J-0.819
X234.342 Y348.426 Z-2.64 I-1.266 J0.819
X236.875 Y346.788 Z-2.805 I1.266 J-0.819
X234.342 Y348.426 Z-2.971 I-1.266 J0.819
X234.1 Y347.637 Z-3 I1.266 J-0.819
X234.081 Y345.698 I95.359 J-1.94 F1000
G1 X234.087 Y345.66
X234.106 Y345.626
X234.135 Y345.6
X234.171 Y345.586
X234.21 Y345.585
X234.247 Y345.597
X234.278 Y345.62
X234.299 Y345.652
G2 X234.694 Y346.471 I9.901 J-4.279
X235.144 Y347.261 I15.745 J-8.444
G3 X235.143 Y347.847 I-0.483 J0.292
G2 X234.254 Y349.624 I10.062 J6.146
G1 X234.234 Y349.655
X234.204 Y349.678
X234.169 Y349.69
X234.131 Y349.688
X234.097 Y349.673
X234.069 Y349.647
X234.053 Y349.614
X234.049 Y349.576
G2 X234.1 Y347.637 I-20.615 J-1.519
X233.523 Y346.792 I-0.935 J0.019
G3 X232.954 Y345.941 I0.352 J-0.851
G1 Y345.21
G2 X232.6 Y342.573 I-9.988 J0
X231.603 Y340.107 I-10.985 J3.007
G3 X231.767 Y339.829 I0.164 J-0.09
G1 X233.979
G3 X234.303 Y340.146 I0 J0.324
G2 X234.341 Y341.399 I66.165 J-1.397
X234.496 Y342.643 I7.497 J-0.3
X236.006 Y346.478 I12.074 J-2.539
X236.255 Y346.866 I6.871 J-4.148
G3 X236.51 Y347.25 I-12.635 J8.654
X236.511 Y347.878 I-0.49 J0.314
G1 X236.378 Y348.07
X236.246 Y348.263
G2 X235.06 Y350.671 I10.191 J6.518
X234.372 Y353.265 I14.432 J5.214
G3 X233.985 Y353.591 I-0.387 J-0.067
G1 X233.128
G3 X232.757 Y353.267 I0 J-0.375
G2 X232.52 Y352.062 I-10.521 J1.443
G3 X232.525 Y351.542 I0.976 J-0.251
G2 X232.954 Y348.379 I-11.432 J-3.164
G1 Y345.941
G2 X232.016 Y344.538 I-1.519 J0
G3 X230.924 Y343.251 I0.705 J-1.706
G2 X230.233 Y341.339 I-8.42 J1.959
X227.713 Y338.261 I-8.08 J4.046
G3 X227.794 Y338.024 I0.081 J-0.104
G1 X236.006
G3 X236.252 Y338.32 I0 J0.25
G2 X236.456 Y342.916 I10.05 J1.857
X238.548 Y347.013 I11.112 J-3.091
G1 X238.637 Y347.119
X238.727 Y347.224
G3 X238.741 Y347.762 I-0.349 J0.278
G2 X237.656 Y349.381 I26.551 J18.97
X236.818 Y351.141 I7.106 J4.462
X236.306 Y352.813 I26.978 J9.175
X236.021 Y354.539 I8.232 J2.247
X236.013 Y354.811 I4.345 J0.266
G3 X236.005 Y355.084 I-4.711 J-0.004
X235.674 Y355.396 I-0.331 J-0.019
G1 X231.363
G3 X231.05 Y355.083 I0 J-0.313
G1 X231.056 Y354.896
X231.062 Y354.71
G2 X230.974 Y353.505 I-8.246 J0
X230.721 Y352.323 I-9.38 J1.386
G3 X230.731 Y351.249 I1.851 J-0.521
G2 X231.161 Y348.245 I-9.718 J-2.923
G3 X231.148 Y345.21 I380.077 J-3.035
G2 X230.924 Y343.251 I-8.645 J0
X229.605 Y342.093 I-1.468 J0.342
G3 X228.094 Y341.201 I0.207 J-2.078
G2 X222.29 Y338.156 I-5.804 J4.009
G1 X213.246 Y338.202
X213.205 Y338.195
X213.168 Y338.176
X213.139 Y338.146
X213.121 Y338.109
X213.116 Y338.068
X213.123 Y338.027
X213.144 Y337.991
X213.174 Y337.963
G3 X215.945 Y336.687 I5.514 J8.325
X218.967 Y336.263 I3.022 J10.58
G1 X238.545 Y336.219
G3 X238.727 Y336.501 I0 J0.2
G2 X238.097 Y338.244 I11.061 J4.985
X237.868 Y340.083 I6.109 J1.694
X238.487 Y343.367 I10.279 J-0.235
X239.105 Y344.698 I7.769 J-2.801
X239.932 Y345.911 I8.544 J-4.937
X240.497 Y346.59 I16.841 J-13.42
G3 X241.073 Y347.261 I-90.397 J78.309
X241.072 Y347.768 I-0.296 J0.253
X240.498 Y348.407 I-15.948 J-13.731
G2 X239.971 Y349.086 I3.441 J3.216
X239.169 Y350.36 I82.587 J52.82
X238.527 Y351.722 I5.683 J3.513
X238.03 Y353.421 I19.374 J6.589
X237.764 Y355.17 I9.55 J2.35
X237.793 Y356.035 I4.58 J0.28
X237.909 Y356.893 I59.628 J-7.661
G3 X237.641 Y357.202 I-0.268 J0.038
G1 X229.564
G3 X229.245 Y356.882 I0 J-0.319
X229.267 Y355.796 I26.224 J0
G2 X229.29 Y354.71 I-26.201 J-1.086
X229.15 Y353.43 I-5.921 J0
X228.779 Y352.198 I-8.455 J1.871
G3 X228.786 Y351.34 I1.092 J-0.419
G2 X229.361 Y348.302 I-7.291 J-2.951
G3 X229.344 Y345.21 I279.542 J-3.092
G2 X228.094 Y341.201 I-7.054 J0
X226.381 Y340.615 I-1.253 J0.865
G3 X224.575 Y340.485 I-0.74 J-2.335
G2 X222.29 Y339.961 I-2.285 J4.725
G1 X208.987 Y340.007
G3 X208.842 Y339.732 I0 J-0.175
X213.254 Y335.846 I9.965 J6.868
X218.967 Y334.458 I5.713 J11.062
G1 X242.229 Y334.414
G3 X242.333 Y334.667 I0 J0.148
X241.804 Y335.158 I-10.336 J-10.571
G2 X241.318 Y335.691 I2.289 J2.582
X240.134 Y337.73 I8.652 J6.387
X239.673 Y340.042 I4.951 J2.189
X240.185 Y342.755 I8.475 J-0.193
X241.091 Y344.429 I5.981 J-2.156
X242.257 Y345.933 I57.732 J-43.571
X242.876 Y346.632 I7.072 J-5.635
G3 X243.496 Y347.332 I-5.342 J5.352
X243.465 Y347.826 I-0.295 J0.23
G2 X242.418 Y348.889 I72.474 J72.474
X241.491 Y350.058 I5.312 J5.159
G1 X240.783 Y351.165
G2 X240.236 Y352.303 I4.422 J2.828
X239.801 Y353.769 I18.299 J6.223
X239.565 Y355.28 I7.915 J2.01
X239.655 Y356.77 I6.161 J0.377
X240.09 Y358.197 I6.402 J-1.173
X240.214 Y358.458 I4.241 J-1.848
G3 X240.338 Y358.719 I-4.118 J2.109
X240.149 Y359.007 I-0.188 J0.082
G1 X227.694
G3 X227.416 Y358.701 I0 J-0.279
G2 X227.498 Y356.706 I-18.485 J-1.752
G3 X227.484 Y354.71 I152.75 J-1.996
G2 X227.277 Y353.331 I-4.681 J0
X226.712 Y352.056 I-5.655 J1.743
G3 X226.717 Y351.444 I0.508 J-0.301
G2 X227.562 Y348.384 I-4.82 J-2.977
G3 X227.538 Y345.21 I216.551 J-3.174
G2 X224.575 Y340.485 I-5.249 J0
X222.781 Y340.932 I-0.629 J1.301
G3 X221.132 Y341.767 I-1.649 J-1.209
G1 X207.29
G2 X206.556 Y341.869 I0 J2.7
X205.86 Y342.127 I1.273 J4.501
G1 X205.819 Y342.138
X205.777 Y342.135
X205.738 Y342.119
X205.706 Y342.09
X205.686 Y342.052
X205.679 Y342.01
X205.686 Y341.968
G3 X218.967 Y332.652 I13.218 J4.719
G1 X243.428 Y332.608
G3 X243.733 Y332.644 I0 J1.318
X246.176 Y333.355 I-5.875 J24.738
X246.242 Y333.674 I-0.061 J0.179
X244.676 Y334.996 I-18.809 J-20.699
G2 X243.133 Y336.347 I11.509 J14.698
X242.275 Y337.464 I3.494 J3.574
X241.685 Y338.744 I7.469 J4.214
X241.437 Y340.181 I3.862 J1.406
X241.694 Y341.616 I4.325 J-0.032
X242.57 Y343.349 I7.49 J-2.7
X243.743 Y344.897 I13.929 J-9.338
X244.856 Y346.173 I61.616 J-52.584
G3 X245.873 Y347.525 I-7.654 J6.813
X245.811 Y348.042 I-0.35 J0.22
X244.327 Y349.456 I-61.134 J-62.694
G2 X243.013 Y351.031 I5.549 J5.964
G3 X242.423 Y351.926 I-32.966 J-21.084
G2 X241.946 Y352.885 I3.31 J2.247
X241.482 Y354.454 I19.159 J6.516
X241.396 Y356.089 I4.105 J1.035
X241.761 Y357.623 I8.565 J-1.226
X242.457 Y359.038 I5.652 J-1.902
X242.99 Y359.792 I15.11 J-10.115
G3 X243.523 Y360.546 I-18.464 J13.616
X243.382 Y360.812 I-0.141 J0.095
G1 X224.792
G3 X224.687 Y360.565 I0 J-0.146
G2 X225.411 Y359.483 I-2.689 J-2.584
X225.678 Y358.21 I-2.892 J-1.273
G3 X225.694 Y354.856 I358.35 J0
G2 X224.13 Y351.888 I-3.534 J-0.033
G3 X224.133 Y351.565 I0.108 J-0.16
G2 X225.742 Y348.591 I-1.906 J-2.954
G3 X225.732 Y345.21 I597.695 J-3.382
G2 X222.29 Y341.767 I-3.443 J0
G1 X221.132
G2 X219.74 Y342.695 I0 J1.507
G3 X218.349 Y343.622 I-1.391 J-0.58
G1 X207.29
G2 X205.702 Y345.21 I0 J1.587
G1 Y348.71
G2 X207.29 Y350.297 I1.587 J0
G1 X222.236
X222.29
G2 X223.878 Y348.71 I0 J-1.587
G1 Y345.21
G2 X222.29 Y343.622 I-1.588 J0
G1 X218.349
X218.289 Y343.617 Z-2.988 F600
X218.231 Y343.6 Z-2.976
X218.185 Y343.577 Z-2.941
X218.143 Y343.546 Z-2.907
X218.096 Y343.496 Z-2.804
X218.082 Y343.477 Z-2.683
Z5
G0 X210.651 Y353.111
G1 Z1.317 F300
X210.661 Y353.132 Z1.198
X210.687 Y353.192 Z1.097
X210.721 Y353.285 Z1.027
X210.754 Y353.399 Z1
G3 X207.826 Y354.121 Z0.835 I-1.464 J0.361
X210.754 Y353.399 Z0.669 I1.464 J-0.361
X207.826 Y354.121 Z0.504 I-1.464 J0.361
X210.754 Y353.399 Z0.338 I1.464 J-0.361
X207.826 Y354.121 Z0.173 I-1.464 J0.361
X210.754 Y353.399 Z0.007 I1.464 J-0.361
X207.826 Y354.121 Z-0.158 I-1.464 J0.361
X210.754 Y353.399 Z-0.324 I1.464 J-0.361
X207.826 Y354.121 Z-0.489 I-1.464 J0.361
X210.754 Y353.399 Z-0.655 I1.464 J-0.361
X207.826 Y354.121 Z-0.82 I-1.464 J0.361
X210.754 Y353.399 Z-0.985 I1.464 J-0.361
X207.826 Y354.121 Z-1.151 I-1.464 J0.361
X210.754 Y353.399 Z-1.316 I1.464 J-0.361
X207.826 Y354.121 Z-1.482 I-1.464 J0.361
X210.754 Y353.399 Z-1.647 I1.464 J-0.361
X207.826 Y354.121 Z-1.813 I-1.464 J0.361
X210.754 Y353.399 Z-1.978 I1.464 J-0.361
X207.826 Y354.121 Z-2.144 I-1.464 J0.361
X210.754 Y353.399 Z-2.309 I1.464 J-0.361
X207.826 Y354.121 Z-2.474 I-1.464 J0.361
X210.754 Y353.399 Z-2.64 I1.464 J-0.361
X207.826 Y354.121 Z-2.805 I-1.464 J0.361
X210.754 Y353.399 Z-2.971 I1.464 J-0.361
X210.725 Y354.223 Z-3 I-1.464 J0.361
G2 X210.648 Y354.71 I1.511 J0.487 F1000
G1 Y358.21
G2 X212.236 Y359.797 I1.587 J0
G1 X222.236
G2 X223.824 Y358.21 I0 J-1.587
G1 Y354.71
G2 X222.236 Y353.122 I-1.588 J0
G1 X212.236
G2 X210.725 Y354.223 I0 J1.587
G1 X210.701 Y354.278 Z-2.988 F600
X210.667 Y354.328 Z-2.976
X210.631 Y354.365 Z-2.941
X210.589 Y354.396 Z-2.907
X210.527 Y354.425 Z-2.804
X210.504 Y354.432 Z-2.683
Z5
G0 X206.167 Y355.514
G1 Z1.317 F300
X206.145 Y355.508 Z1.198
X206.082 Y355.487 Z1.097
X205.99 Y355.451 Z1.027
X205.883 Y355.401 Z1
G3 X207.279 Y352.727 Z0.835 I0.698 J-1.337
X205.883 Y355.401 Z0.669 I-0.698 J1.337
X207.279 Y352.727 Z0.504 I0.698 J-1.337
X205.883 Y355.401 Z0.338 I-0.698 J1.337
X207.279 Y352.727 Z0.173 I0.698 J-1.337
X205.883 Y355.401 Z0.007 I-0.698 J1.337
X207.279 Y352.727 Z-0.158 I0.698 J-1.337
X205.883 Y355.401 Z-0.324 I-0.698 J1.337
X207.279 Y352.727 Z-0.489 I0.698 J-1.337
X205.883 Y355.401 Z-0.655 I-0.698 J1.337
X207.279 Y352.727 Z-0.82 I0.698 J-1.337
X205.883 Y355.401 Z-0.985 I-0.698 J1.337
X207.279 Y352.727 Z-1.151 I0.698 J-1.337
X205.883 Y355.401 Z-1.316 I-0.698 J1.337
X207.279 Y352.727 Z-1.482 I0.698 J-1.337
X205.883 Y355.401 Z-1.647 I-0.698 J1.337
X207.279 Y352.727 Z-1.813 I0.698 J-1.337
X205.883 Y355.401 Z-1.978 I-0.698 J1.337
X207.279 Y352.727 Z-2.144 I0.698 J-1.337
X205.883 Y355.401 Z-2.309 I-0.698 J1.337
X207.279 Y352.727 Z-2.474 I0.698 J-1.337
X205.883 Y355.401 Z-2.64 I-0.698 J1.337
X207.279 Y352.727 Z-2.805 I0.698 J-1.337
X205.883 Y355.401 Z-2.971 I-0.698 J1.337
X205.285 Y354.834 Z-3 I0.698 J-1.337
X218.967 Y330.797 I13.682 J-8.124 F1000
G1 X243.787
X244.011 Y330.849
X244.523 Y330.971
X245.765 Y331.301
X246.986 Y331.718
X247.971 Y332.184
X248.624 Y332.639
X248.92 Y332.98
X248.976 Y333.133
X248.964 Y333.282
X248.784 Y333.657
X248.343 Y334.212
X246.791 Y335.622
X245.16 Y336.967
X245.06 Y337.057
X244.43 Y337.673
G2 X244.263 Y337.865 I1.11 J1.135
G1 X243.84 Y338.438
G2 X243.625 Y338.838 I1.277 J0.943
G1 X243.428 Y339.379
G2 X243.333 Y339.958 I1.492 J0.543
G1 X243.345 Y340.484
G2 X243.439 Y340.986 I1.587 J-0.036
G1 X243.629 Y341.513
G2 X243.763 Y341.795 I1.493 J-0.538
G1 X244.089 Y342.335
X244.145 Y342.422
X244.206 Y342.504
X245.12 Y343.651
X245.154 Y343.693
X246.18 Y344.894
X247.09 Y346.061
X247.734 Y347.082
X248.056 Y347.883
X248.083 Y348.043
X248.082 Y348.062
X247.961 Y348.375
X247.534 Y348.892
X246.711 Y349.694
X246.696 Y349.708
X245.713 Y350.691
X245.633 Y350.778
X244.71 Y351.85
X244.64 Y351.938
X244.576 Y352.031
X243.868 Y353.138
G2 X243.702 Y353.482 I1.337 J0.855
G1 X243.333 Y354.567
G2 X243.251 Y354.981 I1.503 J0.511
G1 X243.219 Y355.504
G2 X243.233 Y355.826 I1.585 J0.097
G1 X243.306 Y356.336
G2 X243.422 Y356.745 I1.571 J-0.225
G1 X243.863 Y357.757
G2 X243.999 Y358.006 I1.455 J-0.634
G1 X244.728 Y359.095
X245.506 Y360.244
X246.079 Y361.342
X246.195 Y361.713
X246.225 Y361.973
X246.211 Y362.065
X246.197 Y362.091
X246.083 Y362.19
X245.701 Y362.365
X244.976 Y362.531
X243.899 Y362.622
X218.967
G3 X205.285 Y354.834 I0 J-15.913
G1 X205.259 Y354.779 Z-2.988 F600
X205.244 Y354.72 Z-2.976
X205.24 Y354.669 Z-2.941
X205.245 Y354.618 Z-2.907
X205.264 Y354.552 Z-2.804
X205.274 Y354.53 Z-2.683
Z5
G0 X222.919 Y223.716
G1 Z2.817 F300
X222.936 Y223.7 Z2.698
X222.986 Y223.656 Z2.597
X223.064 Y223.595 Z2.527
X223.162 Y223.529 Z2.5
G3 X224.748 Y226.095 Z2.335 I0.793 J1.283
X223.162 Y223.529 Z2.169 I-0.793 J-1.283
X224.748 Y226.095 Z2.004 I0.793 J1.283
X223.162 Y223.529 Z1.838 I-0.793 J-1.283
X224.748 Y226.095 Z1.673 I0.793 J1.283
X223.162 Y223.529 Z1.507 I-0.793 J-1.283
X224.748 Y226.095 Z1.342 I0.793 J1.283
X223.162 Y223.529 Z1.176 I-0.793 J-1.283
X224.748 Y226.095 Z1.011 I0.793 J1.283
X223.162 Y223.529 Z0.845 I-0.793 J-1.283
X224.748 Y226.095 Z0.68 I0.793 J1.283
X223.162 Y223.529 Z0.515 I-0.793 J-1.283
X224.748 Y226.095 Z0.349 I0.793 J1.283
X223.162 Y223.529 Z0.184 I-0.793 J-1.283
X224.748 Y226.095 Z0.018 I0.793 J1.283
X223.162 Y223.529 Z-0.147 I-0.793 J-1.283
X224.748 Y226.095 Z-0.313 I0.793 J1.283
X223.162 Y223.529 Z-0.478 I-0.793 J-1.283
X224.748 Y226.095 Z-0.644 I0.793 J1.283
X223.162 Y223.529 Z-0.809 I-0.793 J-1.283
X224.748 Y226.095 Z-0.974 I0.793 J1.283
X223.162 Y223.529 Z-1.14 I-0.793 J-1.283
X224.748 Y226.095 Z-1.305 I0.793 J1.283
X223.162 Y223.529 Z-1.471 I-0.793 J-1.283
X223.955 Y223.304 Z-1.5 I0.793 J1.283
X228.858 Y224.762 I0 J8.972 F1000
X232.137 Y228.688 I-4.78 J7.325
G1 X232.145 Y228.724
X232.139 Y228.759
X232.12 Y228.79
X232.092 Y228.812
X232.057 Y228.822
X232.021 Y228.818
X231.989 Y228.801
X231.965 Y228.774
G3 X231.707 Y228.293 I7.567 J-4.369
G2 X231.449 Y227.812 I-7.825 J3.888
X216.461 Y227.812 I-7.494 J4.327
X216.203 Y228.293 I7.567 J4.369
G3 X215.945 Y228.774 I-7.825 J-3.888
G1 X215.921 Y228.801
X215.889 Y228.818
X215.853 Y228.822
X215.818 Y228.812
X215.79 Y228.79
X215.771 Y228.759
X215.765 Y228.724
X215.773 Y228.688
G3 X219.052 Y224.762 I8.059 J3.399
X223.955 Y223.304 I4.903 J7.513
G2 X225.115 Y222.567 I0 J-1.281
G3 X226.352 Y221.97 I0.987 J0.464
X234.017 Y235.112 I-2.396 J10.205
G1 X233.998 Y235.151
X233.968 Y235.181
X233.929 Y235.2
X233.886 Y235.205
X233.844 Y235.196
X233.807 Y235.174
X233.78 Y235.14
X230.063 Y228.613
G2 X217.847 Y228.613 I-6.108 J3.526
X215.989 Y231.877 I271.479 J156.743
G3 X214.13 Y235.14 I-273.337 J-153.479
G1 X214.103 Y235.174
X214.066 Y235.196
X214.024 Y235.205
X213.981 Y235.2
X213.942 Y235.181
X213.912 Y235.151
X213.893 Y235.112
G3 X223.955 Y221.692 I10.028 J-2.963
X226.352 Y221.97 I0 J10.482
G2 X227.807 Y221.461 I0.328 J-1.398
G3 X229.31 Y221.116 I0.966 J0.763
X234.19 Y238.955 I-5.355 J11.052
X233.892 Y238.946 I-0.146 J-0.097
G1 X228.499 Y229.515
G2 X219.411 Y229.515 I-4.544 J2.624
G1 X214.018 Y238.946
G3 X213.72 Y238.955 I-0.152 J-0.088
X223.955 Y219.887 I10.211 J-6.8
X229.31 Y221.116 I0 J12.281
G2 X230.853 Y220.933 I0.628 J-1.296
G3 X232.405 Y220.899 I0.798 J0.972
X233.959 Y242.078 I-8.45 J11.267
X233.589 Y242.03 I-0.167 J-0.166
G1 X226.936 Y230.418
G2 X220.974 Y230.418 I-2.981 J1.721
G1 X214.321 Y242.03
G3 X213.951 Y242.078 I-0.204 J-0.118
X223.955 Y218.082 I9.986 J-9.92
X232.405 Y220.899 I0 J14.084
G2 X233.999 Y221.015 I0.888 J-1.183
G3 X235.577 Y221.27 I0.624 J1.148
X233.246 Y245.057 I-11.622 J10.869
G1 X225.33 Y231.345
G2 X222.58 Y231.345 I-1.375 J0.794
G1 X214.664 Y245.057
G3 X212.005 Y221.632 I9.291 J-12.918
X235.577 Y221.27 I11.95 J10.507
G1 X235.614 Y221.318 Z-1.488 F600
X235.641 Y221.373 Z-1.476
X235.656 Y221.422 Z-1.441
X235.662 Y221.473 Z-1.407
X235.658 Y221.542 Z-1.304
X235.653 Y221.565 Z-1.183
Z5
G0 X222.919 Y223.716
G1 Z1.317 F300
X222.936 Y223.7 Z1.198
X222.986 Y223.656 Z1.097
X223.064 Y223.595 Z1.027
X223.162 Y223.529 Z1
G3 X224.748 Y226.095 Z0.835 I0.793 J1.283
X223.162 Y223.529 Z0.669 I-0.793 J-1.283
X224.748 Y226.095 Z0.504 I0.793 J1.283
X223.162 Y223.529 Z0.338 I-0.793 J-1.283
X224.748 Y226.095 Z0.173 I0.793 J1.283
X223.162 Y223.529 Z0.007 I-0.793 J-1.283
X224.748 Y226.095 Z-0.158 I0.793 J1.283
X223.162 Y223.529 Z-0.324 I-0.793 J-1.283
X224.748 Y226.095 Z-0.489 I0.793 J1.283
X223.162 Y223.529 Z-0.655 I-0.793 J-1.283
X224.748 Y226.095 Z-0.82 I0.793 J1.283
X223.162 Y223.529 Z-0.985 I-0.793 J-1.283
X224.748 Y226.095 Z-1.151 I0.793 J1.283
X223.162 Y223.529 Z-1.316 I-0.793 J-1.283
X224.748 Y226.095 Z-1.482 I0.793 J1.283
X223.162 Y223.529 Z-1.647 I-0.793 J-1.283
X224.748 Y226.095 Z-1.813 I0.793 J1.283
X223.162 Y223.529 Z-1.978 I-0.793 J-1.283
X224.748 Y226.095 Z-2.144 I0.793 J1.283
X223.162 Y223.529 Z-2.309 I-0.793 J-1.283
X224.748 Y226.095 Z-2.474 I0.793 J1.283
X223.162 Y223.529 Z-2.64 I-0.793 J-1.283
X224.748 Y226.095 Z-2.805 I0.793 J1.283
X223.162 Y223.529 Z-2.971 I-0.793 J-1.283
X223.955 Y223.304 Z-3 I0.793 J1.283
X228.858 Y224.762 I0 J8.972 F1000
X232.137 Y228.688 I-4.78 J7.325
G1 X232.145 Y228.724
X232.139 Y228.759
X232.12 Y228.79
X232.092 Y228.812
X232.057 Y228.822
X232.021 Y228.818
X231.989 Y228.801
X231.965 Y228.774
G3 X231.707 Y228.293 I7.567 J-4.369
G2 X231.449 Y227.812 I-7.825 J3.888
X216.461 Y227.812 I-7.494 J4.327
X216.203 Y228.293 I7.567 J4.369
G3 X215.945 Y228.774 I-7.825 J-3.888
G1 X215.921 Y228.801
X215.889 Y228.818
X215.853 Y228.822
X215.818 Y228.812
X215.79 Y228.79
X215.771 Y228.759
X215.765 Y228.724
X215.773 Y228.688
G3 X219.052 Y224.762 I8.059 J3.399
X223.955 Y223.304 I4.903 J7.513
G2 X225.115 Y222.567 I0 J-1.281
G3 X226.352 Y221.97 I0.987 J0.464
X234.017 Y235.112 I-2.396 J10.205
G1 X233.998 Y235.151
X233.968 Y235.181
X233.929 Y235.2
X233.886 Y235.205
X233.844 Y235.196
X233.807 Y235.174
X233.78 Y235.14
X230.063 Y228.613
G2 X217.847 Y228.613 I-6.108 J3.526
X215.989 Y231.877 I271.479 J156.743
G3 X214.13 Y235.14 I-273.337 J-153.479
G1 X214.103 Y235.174
X214.066 Y235.196
X214.024 Y235.205
X213.981 Y235.2
X213.942 Y235.181
X213.912 Y235.151
X213.893 Y235.112
G3 X223.955 Y221.692 I10.028 J-2.963
X226.352 Y221.97 I0 J10.482
G2 X227.807 Y221.461 I0.328 J-1.398
G3 X229.31 Y221.116 I0.966 J0.763
X234.19 Y238.955 I-5.355 J11.052
X233.892 Y238.946 I-0.146 J-0.097
G1 X228.499 Y229.515
G2 X219.411 Y229.515 I-4.544 J2.624
G1 X214.018 Y238.946
G3 X213.72 Y238.955 I-0.152 J-0.088
X223.955 Y219.887 I10.211 J-6.8
X229.31 Y221.116 I0 J12.281
G2 X230.853 Y220.933 I0.628 J-1.296
G3 X232.405 Y220.899 I0.798 J0.972
X233.959 Y242.078 I-8.45 J11.267
X233.589 Y242.03 I-0.167 J-0.166
G1 X226.936 Y230.418
G2 X220.974 Y230.418 I-2.981 J1.721
G1 X214.321 Y242.03
G3 X213.951 Y242.078 I-0.204 J-0.118
X223.955 Y218.082 I9.986 J-9.92
X232.405 Y220.899 I0 J14.084
G2 X233.999 Y221.015 I0.888 J-1.183
G3 X235.577 Y221.27 I0.624 J1.148
X233.246 Y245.057 I-11.622 J10.869
G1 X225.33 Y231.345
G2 X222.58 Y231.345 I-1.375 J0.794
G1 X214.664 Y245.057
G3 X212.005 Y221.632 I9.291 J-12.918
X235.577 Y221.27 I11.95 J10.507
G1 X235.614 Y221.318 Z-2.988 F600
X235.641 Y221.373 Z-2.976
X235.656 Y221.422 Z-2.941
X235.662 Y221.473 Z-2.907
X235.658 Y221.542 Z-2.804
X235.653 Y221.565 Z-2.683
Z5
G0 X405.158 Y339.668
G1 Z2.817 F300
X405.141 Y339.683 Z2.698
X405.089 Y339.724 Z2.597
X405.008 Y339.781 Z2.527
X404.908 Y339.843 Z2.5
G3 X403.44 Y337.208 Z2.335 I-0.734 J-1.318
X404.908 Y339.843 Z2.169 I0.734 J1.318
X403.44 Y337.208 Z2.004 I-0.734 J-1.318
X404.908 Y339.843 Z1.838 I0.734 J1.318
X403.44 Y337.208 Z1.673 I-0.734 J-1.318
X404.908 Y339.843 Z1.507 I0.734 J1.318
X403.44 Y337.208 Z1.342 I-0.734 J-1.318
X404.908 Y339.843 Z1.176 I0.734 J1.318
X403.44 Y337.208 Z1.011 I-0.734 J-1.318
X404.908 Y339.843 Z0.845 I0.734 J1.318
X403.44 Y337.208 Z0.68 I-0.734 J-1.318
X404.908 Y339.843 Z0.515 I0.734 J1.318
X403.44 Y337.208 Z0.349 I-0.734 J-1.318
X404.908 Y339.843 Z0.184 I0.734 J1.318
X403.44 Y337.208 Z0.018 I-0.734 J-1.318
X404.908 Y339.843 Z-0.147 I0.734 J1.318
X403.44 Y337.208 Z-0.313 I-0.734 J-1.318
X404.908 Y339.843 Z-0.478 I0.734 J1.318
X403.44 Y337.208 Z-0.644 I-0.734 J-1.318
X404.908 Y339.843 Z-0.809 I0.734 J1.318
X403.44 Y337.208 Z-0.974 I-0.734 J-1.318
X404.908 Y339.843 Z-1.14 I0.734 J1.318
X403.44 Y337.208 Z-1.305 I-0.734 J-1.318
X404.908 Y339.843 Z-1.471 I0.734 J1.318
X404.105 Y340.032 Z-1.5 I-0.734 J-1.318
G2 X402.37 Y340.31 I-0.197 J4.315 F1000
G1 X402.329 Y340.318
X402.287 Y340.313
X402.25 Y340.294
X402.22 Y340.264
X402.202 Y340.226
X402.198 Y340.184
X402.207 Y340.143
G3 X404.906 Y335.909 I13.05 J5.343
G1 X404.941 Y335.883
X404.982 Y335.869
X405.026 Y335.871
X405.066 Y335.886
X405.099 Y335.915
X405.12 Y335.953
X405.128 Y335.996
G3 X405.106 Y336.741 I-12.605 J0
G2 X405.083 Y337.486 I12.583 J0.745
X405.351 Y338.759 I3.16 J0
X406.075 Y339.841 I3.413 J-1.503
G3 X405.97 Y340.088 I-0.105 J0.101
X404.16 Y340.035 I0 J-30.978
G1 X404.105 Y340.032
X404.045 Y340.026 Z-1.488 F600
X403.986 Y340.009 Z-1.476
X403.94 Y339.986 Z-1.441
X403.899 Y339.956 Z-1.407
X403.852 Y339.906 Z-1.304
X403.838 Y339.886 Z-1.183
Z5
G0 X430.781 Y345.603
G1 Z2.817 F300
X430.766 Y345.585 Z2.698
X430.723 Y345.535 Z2.597
X430.664 Y345.456 Z2.527
X430.6 Y345.356 Z2.5
G3 X433.197 Y343.823 Z2.335 I1.299 J-0.767
X430.6 Y345.356 Z2.169 I-1.299 J0.767
X433.197 Y343.823 Z2.004 I1.299 J-0.767
X430.6 Y345.356 Z1.838 I-1.299 J0.767
X433.197 Y343.823 Z1.673 I1.299 J-0.767
X430.6 Y345.356 Z1.507 I-1.299 J0.767
X433.197 Y343.823 Z1.342 I1.299 J-0.767
X430.6 Y345.356 Z1.176 I-1.299 J0.767
X433.197 Y343.823 Z1.011 I1.299 J-0.767
X430.6 Y345.356 Z0.845 I-1.299 J0.767
X433.197 Y343.823 Z0.68 I1.299 J-0.767
X430.6 Y345.356 Z0.515 I-1.299 J0.767
X433.197 Y343.823 Z0.349 I1.299 J-0.767
X430.6 Y345.356 Z0.184 I-1.299 J0.767
X433.197 Y343.823 Z0.018 I1.299 J-0.767
X430.6 Y345.356 Z-0.147 I-1.299 J0.767
X433.197 Y343.823 Z-0.313 I1.299 J-0.767
X430.6 Y345.356 Z-0.478 I-1.299 J0.767
X433.197 Y343.823 Z-0.644 I1.299 J-0.767
X430.6 Y345.356 Z-0.809 I-1.299 J0.767
X433.197 Y343.823 Z-0.974 I1.299 J-0.767
X430.6 Y345.356 Z-1.14 I-1.299 J0.767
X433.197 Y343.823 Z-1.305 I1.299 J-0.767
X430.6 Y345.356 Z-1.471 I-1.299 J0.767
X430.39 Y344.559 Z-1.5 I1.299 J-0.767
G2 X430.339 Y342.62 I-20.671 J-0.42 F1000
G1 X430.343 Y342.583
X430.359 Y342.549
X430.387 Y342.523
X430.421 Y342.509
X430.459 Y342.507
X430.494 Y342.518
X430.524 Y342.541
X430.544 Y342.573
G2 X431.433 Y344.349 I10.951 J-4.37
G3 X431.434 Y344.936 I-0.482 J0.294
G2 X430.984 Y345.725 I14.761 J8.939
X430.589 Y346.543 I9.55 J5.116
G1 X430.568 Y346.576
X430.537 Y346.599
X430.5 Y346.611
X430.461 Y346.61
X430.425 Y346.595
X430.396 Y346.57
X430.377 Y346.536
X430.371 Y346.498
G3 X430.39 Y344.559 I95.384 J0
G2 X429.819 Y343.673 I-0.943 J-0.019
G3 X429.202 Y342.817 I0.404 J-0.941
G2 X428.815 Y340.654 I-11.82 J1
G3 X428.81 Y340.134 I0.971 J-0.269
G2 X429.047 Y338.929 I-10.284 J-2.648
G3 X429.418 Y338.605 I0.371 J0.051
G1 X430.275
G3 X430.662 Y338.931 I0 J0.393
G2 X431.35 Y341.525 I15.12 J-2.62
X432.536 Y343.933 I11.377 J-4.111
G1 X432.669 Y344.126
X432.801 Y344.319
G3 X432.801 Y344.947 I-0.49 J0.314
G2 X432.011 Y346.244 I27.042 J17.348
X431.374 Y347.621 I7.364 J4.247
X430.827 Y349.522 I14.518 J5.207
X430.589 Y351.485 I10.114 J2.219
X430.591 Y351.768 I4.498 J0.111
G3 X430.593 Y352.05 I-5.079 J0.175
X430.269 Y352.366 I-0.323 J-0.007
G1 X428.057
G3 X427.893 Y352.089 I0 J-0.187
G2 X428.89 Y349.623 I-9.988 J-5.473
X429.245 Y346.986 I-9.634 J-2.637
G1 Y343.817
G2 X429.202 Y342.817 I-11.862 J0
X428.033 Y341.604 I-1.332 J0.113
G3 X426.941 Y340.321 I0.152 J-1.236
X427.011 Y339.873 I1.922 J0.072
G2 X427.264 Y338.691 I-9.127 J-2.567
X427.352 Y337.486 I-8.157 J-1.205
G1 X427.346 Y337.3
X427.34 Y337.113
G3 X427.653 Y336.8 I0.313 J0
G1 X431.964
G3 X432.295 Y337.112 I0 J0.331
X432.303 Y337.385 I-4.703 J0.277
G2 X432.311 Y337.657 I4.353 J0.007
X432.596 Y339.383 I8.517 J-0.521
X433.108 Y341.055 I27.49 J-7.503
X433.946 Y342.815 I7.945 J-2.702
X435.031 Y344.434 I27.617 J-17.339
G3 X435.017 Y344.972 I-0.363 J0.26
G2 X433.912 Y346.521 I14.209 J11.31
X433.074 Y348.231 I7.21 J4.595
X432.434 Y351.018 I11.36 J4.074
X432.542 Y353.876 I9.855 J1.057
G3 X432.296 Y354.172 I-0.246 J0.046
G1 X424.084
G3 X424.003 Y353.935 I0 J-0.132
G2 X426.523 Y350.857 I-5.56 J-7.124
X427.439 Y346.986 I-7.73 J-3.871
G3 X427.451 Y343.951 I380.089 J0
G2 X427.021 Y340.947 I-10.148 J-0.081
G3 X426.941 Y340.321 I1.842 J-0.554
G2 X426.275 Y338.861 I-1.786 J-0.067
G3 X425.579 Y337.415 I1.167 J-1.451
G2 X425.557 Y336.4 I-26.224 J0.071
G3 X425.534 Y335.314 I26.201 J-1.086
X425.854 Y334.995 I0.319 J0
G1 X433.931
G3 X434.199 Y335.303 I0 J0.27
G2 X434.083 Y336.161 I59.511 J8.518
X434.054 Y337.026 I4.551 J0.585
X434.32 Y338.775 I9.817 J-0.601
X434.817 Y340.474 I19.871 J-4.89
X435.682 Y342.285 I8.093 J-2.752
X436.875 Y343.898 I11.491 J-7.254
X437.118 Y344.163 I4.368 J-3.761
G3 X437.362 Y344.428 I-4.125 J4.026
X437.363 Y344.935 I-0.295 J0.254
G2 X435.89 Y346.77 I29.614 J25.273
X434.773 Y348.84 I6.249 J4.712
X434.159 Y352.1 I9.91 J3.554
X434.386 Y353.946 I6.328 J0.156
X435.018 Y355.695 I11.706 J-3.242
G3 X434.836 Y355.978 I-0.183 J0.082
G1 X415.257 Y355.932
G3 X412.235 Y355.509 I0 J-11.003
X409.464 Y354.233 I2.742 J-9.602
G1 X409.434 Y354.205
X409.413 Y354.169
X409.406 Y354.128
X409.411 Y354.087
X409.429 Y354.05
X409.458 Y354.02
X409.495 Y354.001
X409.536 Y353.995
G3 X418.495 Y354.044 I0 J804.203
G2 X425.483 Y348.438 I0.079 J-7.06
X425.634 Y346.986 I-6.903 J-1.452
G3 X425.651 Y343.894 I279.559 J0
G2 X425.077 Y340.856 I-7.865 J-0.087
G3 X425.069 Y339.998 I1.084 J-0.439
G2 X425.44 Y338.766 I-8.084 J-3.104
X425.579 Y337.486 I-5.781 J-1.28
G1 Y337.415
G2 X424.663 Y336.074 I-1.446 J0.004
G3 X423.747 Y334.733 I0.538 J-1.351
X423.745 Y333.986 I114.655 J-0.747
G1 X423.741 Y333.863
X423.731 Y333.74
X423.706 Y333.495
G3 X423.984 Y333.19 I0.278 J-0.026
G1 X436.439
G3 X436.628 Y333.477 I0 J0.205
G2 X436.237 Y334.387 I83.517 J36.394
X435.971 Y335.341 I3.547 J1.5
X436.298 Y339.282 I8.777 J1.256
X438.226 Y342.735 I9.408 J-2.988
X438.975 Y343.567 I18.934 J-16.302
X439.755 Y344.37 I26.959 J-25.402
G3 X439.786 Y344.864 I-0.264 J0.264
X439.166 Y345.565 I-5.981 J-4.667
G2 X438.546 Y346.265 I6.407 J6.294
X437.059 Y348.323 I21.27 J16.931
X436.087 Y350.668 I5.751 J3.759
X436.006 Y352.671 I5.91 J1.243
X436.479 Y354.619 I8.871 J-1.125
X437.19 Y355.967 I5.344 J-1.956
X438.182 Y357.125 I6.986 J-4.983
X438.403 Y357.327 I3.347 J-3.429
G3 X438.623 Y357.529 I-3.127 J3.631
X438.52 Y357.783 I-0.103 J0.106
G1 X415.257 Y357.737
G3 X409.544 Y356.35 I0 J-12.45
X405.132 Y352.464 I5.553 J-10.754
X405.277 Y352.19 I0.144 J-0.099
G1 X418.58 Y352.234
G2 X423.828 Y346.986 I0 J-5.249
G3 X423.852 Y343.812 I216.574 J0
G2 X423.007 Y340.752 I-5.664 J-0.083
G3 X423.002 Y340.14 I0.502 J-0.31
G2 X423.788 Y337.113 I-4.845 J-2.874
G3 X423.747 Y334.733 I114.615 J-3.127
G2 X422.764 Y333.293 I-1.561 J0.01
G3 X421.417 Y332.187 I1.063 J-2.669
G2 X420.977 Y331.631 I-3.13 J2.029
G3 X421.082 Y331.384 I0.105 J-0.101
G1 X439.673
G3 X439.813 Y331.65 I0 J0.17
X439.085 Y332.643 I-13.699 J-9.287
G2 X438.452 Y333.698 I3.732 J2.958
X437.871 Y335.204 I17.333 J7.553
X437.658 Y336.805 I3.982 J1.344
X437.863 Y338.078 I6.518 J-0.399
X438.236 Y339.311 I18.053 J-4.779
X438.713 Y340.27 I3.788 J-1.288
G3 X439.303 Y341.165 I-32.377 J21.979
G2 X440.617 Y342.739 I6.853 J-4.383
G3 X442.102 Y344.153 I-58.778 J63.215
X442.163 Y344.67 I-0.289 J0.296
X441.098 Y346.06 I-8.11 J-5.107
G2 X439.959 Y347.39 I17.711 J16.335
X438.693 Y349.092 I25.163 J20.03
X437.854 Y351.04 I4.396 J3.049
X437.807 Y352.541 I4.203 J0.884
X438.175 Y353.998 I7.215 J-1.049
X438.977 Y355.338 I3.913 J-1.432
X440.056 Y356.467 I16.773 J-14.947
X441.285 Y357.506 I7.821 J-8.011
G3 X442.533 Y358.522 I-8.746 J12.007
X442.467 Y358.841 I-0.127 J0.14
X440.023 Y359.552 I-8.948 J-26.188
X439.718 Y359.588 I-0.305 J-1.282
G1 X415.257 Y359.543
G3 X401.976 Y350.228 I0 J-14.124
G1 X401.969 Y350.186
X401.976 Y350.144
X401.996 Y350.106
X402.028 Y350.077
X402.067 Y350.061
X402.109 Y350.058
X402.15 Y350.069
G2 X402.846 Y350.327 I1.968 J-4.244
X403.58 Y350.428 I0.734 J-2.598
G1 X418.58
G2 X422.022 Y346.986 I0 J-3.443
G3 X422.032 Y343.604 I597.704 J0
G2 X420.423 Y340.631 I-3.516 J-0.02
G3 X420.42 Y340.308 I0.105 J-0.162
G2 X421.984 Y337.34 I-1.969 J-2.934
G3 X421.969 Y333.986 I358.334 J-3.354
G2 X421.701 Y332.713 I-3.16 J0
X421.417 Y332.187 I-3.413 J1.503
G3 X421.661 Y330.273 I1.253 J-0.813
X423.46 Y329.573 I1.799 J1.964
G1 X440.19
X441.267 Y329.665
X441.992 Y329.831
X442.374 Y330.006
X442.487 Y330.104
X442.501 Y330.131
X442.516 Y330.224
X442.486 Y330.482
X442.369 Y330.853
X441.797 Y331.952
X441.023 Y333.093
X440.289 Y334.19
G2 X440.153 Y334.439 I1.319 J0.883
G1 X439.712 Y335.451
G2 X439.596 Y335.86 I1.455 J0.634
G1 X439.523 Y336.37
G2 X439.509 Y336.692 I1.571 J0.225
G1 X439.541 Y337.215
G2 X439.623 Y337.629 I1.585 J-0.097
G1 X439.992 Y338.714
G2 X440.158 Y339.058 I1.503 J-0.511
G1 X440.866 Y340.165
X440.93 Y340.258
X441 Y340.346
X441.923 Y341.418
X442.004 Y341.505
X442.988 Y342.488
X443.002 Y342.502
X443.825 Y343.304
X444.252 Y343.821
X444.373 Y344.132
Y344.151
X444.346 Y344.313
X444.024 Y345.114
X443.38 Y346.135
X442.47 Y347.302
X441.444 Y348.503
X441.41 Y348.545
X440.497 Y349.692
X440.436 Y349.774
X440.381 Y349.859
X440.054 Y350.399
G2 X439.918 Y350.685 I1.358 J0.822
G1 X439.729 Y351.212
G2 X439.636 Y351.709 I1.494 J0.536
G1 X439.623 Y352.235
G2 X439.719 Y352.82 I1.587 J0.039
G1 X439.917 Y353.361
G2 X440.13 Y353.756 I1.491 J-0.546
G1 X440.552 Y354.329
G2 X440.721 Y354.524 I1.278 J-0.941
G1 X441.352 Y355.14
X441.451 Y355.229
X443.081 Y356.573
X444.634 Y357.985
X445.075 Y358.539
X445.254 Y358.914
X445.267 Y359.063
X445.211 Y359.216
X444.914 Y359.557
X444.263 Y360.011
X443.276 Y360.478
X442.055 Y360.895
X440.813 Y361.225
X440.301 Y361.347
X440.077 Y361.398
X415.257
G3 X415.257 Y329.573 I0 J-15.913
G1 X423.46
X423.52 Y329.579 Z-1.488 F600
X423.578 Y329.596 Z-1.476
X423.625 Y329.619 Z-1.441
X423.666 Y329.65 Z-1.407
X423.713 Y329.7 Z-1.304
X423.727 Y329.719 Z-1.183
Z5
G0 X418.014 Y332.303
G1 Z2.817 F300
X417.993 Y332.294 Z2.698
X417.932 Y332.268 Z2.597
X417.844 Y332.223 Z2.527
X417.743 Y332.162 Z2.5
G3 X419.309 Y329.81 Z2.345 I0.783 J-1.176
X417.743 Y332.162 Z2.19 I-0.783 J1.176
X419.309 Y329.81 Z2.035 I0.783 J-1.176
X417.743 Y332.162 Z1.88 I-0.783 J1.176
X419.309 Y329.81 Z1.725 I0.783 J-1.176
X417.743 Y332.162 Z1.57 I-0.783 J1.176
X419.309 Y329.81 Z1.415 I0.783 J-1.176
X417.743 Y332.162 Z1.26 I-0.783 J1.176
X419.309 Y329.81 Z1.105 I0.783 J-1.176
X417.743 Y332.162 Z0.95 I-0.783 J1.176
X419.309 Y329.81 Z0.795 I0.783 J-1.176
X417.743 Y332.162 Z0.64 I-0.783 J1.176
X419.309 Y329.81 Z0.486 I0.783 J-1.176
X417.743 Y332.162 Z0.331 I-0.783 J1.176
X419.309 Y329.81 Z0.176 I0.783 J-1.176
X417.743 Y332.162 Z0.021 I-0.783 J1.176
X419.309 Y329.81 Z-0.134 I0.783 J-1.176
X417.743 Y332.162 Z-0.289 I-0.783 J1.176
X419.309 Y329.81 Z-0.444 I0.783 J-1.176
X417.743 Y332.162 Z-0.599 I-0.783 J1.176
X419.309 Y329.81 Z-0.754 I0.783 J-1.176
X417.743 Y332.162 Z-0.909 I-0.783 J1.176
X419.309 Y329.81 Z-1.064 I0.783 J-1.176
X417.743 Y332.162 Z-1.219 I-0.783 J1.176
X419.309 Y329.81 Z-1.374 I0.783 J-1.176
X418.526 Y332.398 Z-1.5 I-0.783 J1.176
G1 X408.526 F1000
G2 X406.939 Y333.986 I0 J1.587
G1 Y337.486
G2 X408.526 Y339.073 I1.587 J0
G1 X418.526
G2 X420.113 Y337.486 I0 J-1.587
G1 Y333.986
G2 X418.526 Y332.398 I-1.587 J0
G1 X418.466 Y332.393 Z-1.488 F600
X418.407 Y332.376 Z-1.476
X418.361 Y332.353 Z-1.441
X418.32 Y332.322 Z-1.407
X418.273 Y332.272 Z-1.304
X418.259 Y332.253 Z-1.183
Z5
G0 X405.193 Y341.487
G1 Z2.817 F300
X405.176 Y341.503 Z2.698
X405.126 Y341.546 Z2.597
X405.048 Y341.607 Z2.527
X404.95 Y341.673 Z2.5
G3 X403.364 Y339.108 Z2.335 I-0.793 J-1.283
X404.95 Y341.673 Z2.169 I0.793 J1.283
X403.364 Y339.108 Z2.004 I-0.793 J-1.283
X404.95 Y341.673 Z1.838 I0.793 J1.283
X403.364 Y339.108 Z1.673 I-0.793 J-1.283
X404.95 Y341.673 Z1.507 I0.793 J1.283
X403.364 Y339.108 Z1.342 I-0.793 J-1.283
X404.95 Y341.673 Z1.176 I0.793 J1.283
X403.364 Y339.108 Z1.011 I-0.793 J-1.283
X404.95 Y341.673 Z0.845 I0.793 J1.283
X403.364 Y339.108 Z0.68 I-0.793 J-1.283
X404.95 Y341.673 Z0.515 I0.793 J1.283
X403.364 Y339.108 Z0.349 I-0.793 J-1.283
X404.95 Y341.673 Z0.184 I0.793 J1.283
X403.364 Y339.108 Z0.018 I-0.793 J-1.283
X404.95 Y341.673 Z-0.147 I0.793 J1.283
X403.364 Y339.108 Z-0.313 I-0.793 J-1.283
X404.95 Y341.673 Z-0.478 I0.793 J1.283
X403.364 Y339.108 Z-0.644 I-0.793 J-1.283
X404.95 Y341.673 Z-0.809 I0.793 J1.283
X403.364 Y339.108 Z-0.974 I-0.793 J-1.283
X404.95 Y341.673 Z-1.14 I0.793 J1.283
X403.364 Y339.108 Z-1.305 I-0.793 J-1.283
X404.95 Y341.673 Z-1.471 I0.793 J1.283
X404.157 Y341.898 Z-1.5 I-0.793 J-1.283
G1 X403.58 F1000
G2 X401.992 Y343.486 I0 J1.587
G1 Y346.986
G2 X403.58 Y348.573 I1.587 J0
G1 X418.58
G2 X420.168 Y346.986 I0 J-1.587
G1 Y343.486
G2 X418.58 Y341.898 I-1.588 J0
G1 X404.157
X404.097 Y341.893 Z-1.488 F600
X404.038 Y341.876 Z-1.476
X403.992 Y341.853 Z-1.441
X403.951 Y341.822 Z-1.407
X403.904 Y341.772 Z-1.304
X403.89 Y341.753 Z-1.183
Z5
G0 X405.158 Y339.668
G1 Z1.317 F300
X405.141 Y339.683 Z1.198
X405.089 Y339.724 Z1.097
X405.008 Y339.781 Z1.027
X404.908 Y339.843 Z1
G3 X403.44 Y337.208 Z0.835 I-0.734 J-1.318
X404.908 Y339.843 Z0.669 I0.734 J1.318
X403.44 Y337.208 Z0.504 I-0.734 J-1.318
X404.908 Y339.843 Z0.338 I0.734 J1.318
X403.44 Y337.208 Z0.173 I-0.734 J-1.318
X404.908 Y339.843 Z0.007 I0.734 J1.318
X403.44 Y337.208 Z-0.158 I-0.734 J-1.318
X404.908 Y339.843 Z-0.324 I0.734 J1.318
X403.44 Y337.208 Z-0.489 I-0.734 J-1.318
X404.908 Y339.843 Z-0.655 I0.734 J1.318
X403.44 Y337.208 Z-0.82 I-0.734 J-1.318
X404.908 Y339.843 Z-0.985 I0.734 J1.318
X403.44 Y337.208 Z-1.151 I-0.734 J-1.318
X404.908 Y339.843 Z-1.316 I0.734 J1.318
X403.44 Y337.208 Z-1.482 I-0.734 J-1.318
X404.908 Y339.843 Z-1.647 I0.734 J1.318
X403.44 Y337.208 Z-1.813 I-0.734 J-1.318
X404.908 Y339.843 Z-1.978 I0.734 J1.318
X403.44 Y337.208 Z-2.144 I-0.734 J-1.318
X404.908 Y339.843 Z-2.309 I0.734 J1.318
X403.44 Y337.208 Z-2.474 I-0.734 J-1.318
X404.908 Y339.843 Z-2.64 I0.734 J1.318
X403.44 Y337.208 Z-2.805 I-0.734 J-1.318
X404.908 Y339.843 Z-2.971 I0.734 J1.318
X404.105 Y340.032 Z-3 I-0.734 J-1.318
G2 X402.37 Y340.31 I-0.197 J4.315 F1000
G1 X402.329 Y340.318
X402.287 Y340.313
X402.25 Y340.294
X402.22 Y340.264
X402.202 Y340.226
X402.198 Y340.184
X402.207 Y340.143
G3 X404.906 Y335.909 I13.05 J5.343
G1 X404.941 Y335.883
X404.982 Y335.869
X405.026 Y335.871
X405.066 Y335.886
X405.099 Y335.915
X405.12 Y335.953
X405.128 Y335.996
G3 X405.106 Y336.741 I-12.605 J0
G2 X405.083 Y337.486 I12.583 J0.745
X405.351 Y338.759 I3.16 J0
X406.075 Y339.841 I3.413 J-1.503
G3 X405.97 Y340.088 I-0.105 J0.101
X404.16 Y340.035 I0 J-30.978
G1 X404.105 Y340.032
X404.045 Y340.026 Z-2.988 F600
X403.986 Y340.009 Z-2.976
X403.94 Y339.986 Z-2.941
X403.899 Y339.956 Z-2.907
X403.852 Y339.906 Z-2.804
X403.838 Y339.886 Z-2.683
Z5
G0 X430.781 Y345.603
G1 Z1.317 F300
X430.766 Y345.585 Z1.198
X430.723 Y345.535 Z1.097
X430.664 Y345.456 Z1.027
X430.6 Y345.356 Z1
G3 X433.197 Y343.823 Z0.835 I1.299 J-0.767
X430.6 Y345.356 Z0.669 I-1.299 J0.767
X433.197 Y343.823 Z0.504 I1.299 J-0.767
X430.6 Y345.356 Z0.338 I-1.299 J0.767
X433.197 Y343.823 Z0.173 I1.299 J-0.767
X430.6 Y345.356 Z0.007 I-1.299 J0.767
X433.197 Y343.823 Z-0.158 I1.299 J-0.767
X430.6 Y345.356 Z-0.324 I-1.299 J0.767
X433.197 Y343.823 Z-0.489 I1.299 J-0.767
X430.6 Y345.356 Z-0.655 I-1.299 J0.767
X433.197 Y343.823 Z-0.82 I1.299 J-0.767
X430.6 Y345.356 Z-0.985 I-1.299 J0.767
X433.197 Y343.823 Z-1.151 I1.299 J-0.767
X430.6 Y345.356 Z-1.316 I-1.299 J0.767
X433.197 Y343.823 Z-1.482 I1.299 J-0.767
X430.6 Y345.356 Z-1.647 I-1.299 J0.767
X433.197 Y343.823 Z-1.813 I1.299 J-0.767
X430.6 Y345.356 Z-1.978 I-1.299 J0.767
X433.197 Y343.823 Z-2.144 I1.299 J-0.767
X430.6 Y345.356 Z-2.309 I-1.299 J0.767
X433.197 Y343.823 Z-2.474 I1.299 J-0.767
X430.6 Y345.356 Z-2.64 I-1.299 J0.767
X433.197 Y343.823 Z-2.805 I1.299 J-0.767
X430.6 Y345.356 Z-2.971 I-1.299 J0.767
X430.39 Y344.559 Z-3 I1.299 J-0.767
G2 X430.339 Y342.62 I-20.671 J-0.42 F1000
G1 X430.343 Y342.583
X430.359 Y342.549
X430.387 Y342.523
X430.421 Y342.509
X430.459 Y342.507
X430.494 Y342.518
X430.524 Y342.541
X430.544 Y342.573
G2 X431.433 Y344.349 I10.951 J-4.37
G3 X431.434 Y344.936 I-0.482 J0.294
G2 X430.984 Y345.725 I14.761 J8.939
X430.589 Y346.543 I9.55 J5.116
G1 X430.568 Y346.576
X430.537 Y346.599
X430.5 Y346.611
X430.461 Y346.61
X430.425 Y346.595
X430.396 Y346.57
X430.377 Y346.536
X430.371 Y346.498
G3 X430.39 Y344.559 I95.384 J0
G2 X429.819 Y343.673 I-0.943 J-0.019
G3 X429.202 Y342.817 I0.404 J-0.941
G2 X428.815 Y340.654 I-11.82 J1
G3 X428.81 Y340.134 I0.971 J-0.269
G2 X429.047 Y338.929 I-10.284 J-2.648
G3 X429.418 Y338.605 I0.371 J0.051
G1 X430.275
G3 X430.662 Y338.931 I0 J0.393
G2 X431.35 Y341.525 I15.12 J-2.62
X432.536 Y343.933 I11.377 J-4.111
G1 X432.669 Y344.126
X432.801 Y344.319
G3 X432.801 Y344.947 I-0.49 J0.314
G2 X432.011 Y346.244 I27.042 J17.348
X431.374 Y347.621 I7.364 J4.247
X430.827 Y349.522 I14.518 J5.207
X430.589 Y351.485 I10.114 J2.219
X430.591 Y351.768 I4.498 J0.111
G3 X430.593 Y352.05 I-5.079 J0.175
X430.269 Y352.366 I-0.323 J-0.007
G1 X428.057
G3 X427.893 Y352.089 I0 J-0.187
G2 X428.89 Y349.623 I-9.988 J-5.473
X429.245 Y346.986 I-9.634 J-2.637
G1 Y343.817
G2 X429.202 Y342.817 I-11.862 J0
X428.033 Y341.604 I-1.332 J0.113
G3 X426.941 Y340.321 I0.152 J-1.236
X427.011 Y339.873 I1.922 J0.072
G2 X427.264 Y338.691 I-9.127 J-2.567
X427.352 Y337.486 I-8.157 J-1.205
G1 X427.346 Y337.3
X427.34 Y337.113
G3 X427.653 Y336.8 I0.313 J0
G1 X431.964
G3 X432.295 Y337.112 I0 J0.331
X432.303 Y337.385 I-4.703 J0.277
G2 X432.311 Y337.657 I4.353 J0.007
X432.596 Y339.383 I8.517 J-0.521
X433.108 Y341.055 I27.49 J-7.503
X433.946 Y342.815 I7.945 J-2.702
X435.031 Y344.434 I27.617 J-17.339
G3 X435.017 Y344.972 I-0.363 J0.26
G2 X433.912 Y346.521 I14.209 J11.31
X433.074 Y348.231 I7.21 J4.595
X432.434 Y351.018 I11.36 J4.074
X432.542 Y353.876 I9.855 J1.057
G3 X432.296 Y354.172 I-0.246 J0.046
G1 X424.084
G3 X424.003 Y353.935 I0 J-0.132
G2 X426.523 Y350.857 I-5.56 J-7.124
X427.439 Y346.986 I-7.73 J-3.871
G3 X427.451 Y343.951 I380.089 J0
G2 X427.021 Y340.947 I-10.148 J-0.081
G3 X426.941 Y340.321 I1.842 J-0.554
G2 X426.275 Y338.861 I-1.786 J-0.067
G3 X425.579 Y337.415 I1.167 J-1.451
G2 X425.557 Y336.4 I-26.224 J0.071
G3 X425.534 Y335.314 I26.201 J-1.086
X425.854 Y334.995 I0.319 J0
G1 X433.931
G3 X434.199 Y335.303 I0 J0.27
G2 X434.083 Y336.161 I59.511 J8.518
X434.054 Y337.026 I4.551 J0.585
X434.32 Y338.775 I9.817 J-0.601
X434.817 Y340.474 I19.871 J-4.89
X435.682 Y342.285 I8.093 J-2.752
X436.875 Y343.898 I11.491 J-7.254
X437.118 Y344.163 I4.368 J-3.761
G3 X437.362 Y344.428 I-4.125 J4.026
X437.363 Y344.935 I-0.295 J0.254
G2 X435.89 Y346.77 I29.614 J25.273
X434.773 Y348.84 I6.249 J4.712
X434.159 Y352.1 I9.91 J3.554
X434.386 Y353.946 I6.328 J0.156
X435.018 Y355.695 I11.706 J-3.242
G3 X434.836 Y355.978 I-0.183 J0.082
G1 X415.257 Y355.932
G3 X412.235 Y355.509 I0 J-11.003
X409.464 Y354.233 I2.742 J-9.602
G1 X409.434 Y354.205
X409.413 Y354.169
X409.406 Y354.128
X409.411 Y354.087
X409.429 Y354.05
X409.458 Y354.02
X409.495 Y354.001
X409.536 Y353.995
G3 X418.495 Y354.044 I0 J804.203
G2 X425.483 Y348.438 I0.079 J-7.06
X425.634 Y346.986 I-6.903 J-1.452
G3 X425.651 Y343.894 I279.559 J0
G2 X425.077 Y340.856 I-7.865 J-0.087
G3 X425.069 Y339.998 I1.084 J-0.439
G2 X425.44 Y338.766 I-8.084 J-3.104
X425.579 Y337.486 I-5.781 J-1.28
G1 Y337.415
G2 X424.663 Y336.074 I-1.446 J0.004
G3 X423.747 Y334.733 I0.538 J-1.351
X423.745 Y333.986 I114.655 J-0.747
G1 X423.741 Y333.863
X423.731 Y333.74
X423.706 Y333.495
G3 X423.984 Y333.19 I0.278 J-0.026
G1 X436.439
G3 X436.628 Y333.477 I0 J0.205
G2 X436.237 Y334.387 I83.517 J36.394
X435.971 Y335.341 I3.547 J1.5
X436.298 Y339.282 I8.777 J1.256
X438.226 Y342.735 I9.408 J-2.988
X438.975 Y343.567 I18.934 J-16.302
X439.755 Y344.37 I26.959 J-25.402
G3 X439.786 Y344.864 I-0.264 J0.264
X439.166 Y345.565 I-5.981 J-4.667
G2 X438.546 Y346.265 I6.407 J6.294
X437.059 Y348.323 I21.27 J16.931
X436.087 Y350.668 I5.751 J3.759
X436.006 Y352.671 I5.91 J1.243
X436.479 Y354.619 I8.871 J-1.125
X437.19 Y355.967 I5.344 J-1.956
X438.182 Y357.125 I6.986 J-4.983
X438.403 Y357.327 I3.347 J-3.429
G3 X438.623 Y357.529 I-3.127 J3.631
X438.52 Y357.783 I-0.103 J0.106
G1 X415.257 Y357.737
G3 X409.544 Y356.35 I0 J-12.45
X405.132 Y352.464 I5.553 J-10.754
X405.277 Y352.19 I0.144 J-0.099
G1 X418.58 Y352.234
G2 X423.828 Y346.986 I0 J-5.249
G3 X423.852 Y343.812 I216.574 J0
G2 X423.007 Y340.752 I-5.664 J-0.083
G3 X423.002 Y340.14 I0.502 J-0.31
G2 X423.788 Y337.113 I-4.845 J-2.874
G3 X423.747 Y334.733 I114.615 J-3.127
G2 X422.764 Y333.293 I-1.561 J0.01
G3 X421.417 Y332.187 I1.063 J-2.669
G2 X420.977 Y331.631 I-3.13 J2.029
G3 X421.082 Y331.384 I0.105 J-0.101
G1 X439.673
G3 X439.813 Y331.65 I0 J0.17
X439.085 Y332.643 I-13.699 J-9.287
G2 X438.452 Y333.698 I3.732 J2.958
X437.871 Y335.204 I17.333 J7.553
X437.658 Y336.805 I3.982 J1.344
X437.863 Y338.078 I6.518 J-0.399
X438.236 Y339.311 I18.053 J-4.779
X438.713 Y340.27 I3.788 J-1.288
G3 X439.303 Y341.165 I-32.377 J21.979
G2 X440.617 Y342.739 I6.853 J-4.383
G3 X442.102 Y344.153 I-58.778 J63.215
X442.163 Y344.67 I-0.289 J0.296
X441.098 Y346.06 I-8.11 J-5.107
G2 X439.959 Y347.39 I17.711 J16.335
X438.693 Y349.092 I25.163 J20.03
X437.854 Y351.04 I4.396 J3.049
X437.807 Y352.541 I4.203 J0.884
X438.175 Y353.998 I7.215 J-1.049
X438.977 Y355.338 I3.913 J-1.432
X440.056 Y356.467 I16.773 J-14.947
X441.285 Y357.506 I7.821 J-8.011
G3 X442.533 Y358.522 I-8.746 J12.007
X442.467 Y358.841 I-0.127 J0.14
X440.023 Y359.552 I-8.948 J-26.188
X439.718 Y359.588 I-0.305 J-1.282
G1 X415.257 Y359.543
G3 X401.976 Y350.228 I0 J-14.124
G1 X401.969 Y350.186
X401.976 Y350.144
X401.996 Y350.106
X402.028 Y350.077
X402.067 Y350.061
X402.109 Y350.058
X402.15 Y350.069
G2 X402.846 Y350.327 I1.968 J-4.244
X403.58 Y350.428 I0.734 J-2.598
G1 X418.58
G2 X422.022 Y346.986 I0 J-3.443
G3 X422.032 Y343.604 I597.704 J0
G2 X420.423 Y340.631 I-3.516 J-0.02
G3 X420.42 Y340.308 I0.105 J-0.162
G2 X421.984 Y337.34 I-1.969 J-2.934
G3 X421.969 Y333.986 I358.334 J-3.354
G2 X421.701 Y332.713 I-3.16 J0
X421.417 Y332.187 I-3.413 J1.503
G3 X421.661 Y330.273 I1.253 J-0.813
X423.46 Y329.573 I1.799 J1.964
G1 X440.19
X441.267 Y329.665
X441.992 Y329.831
X442.374 Y330.006
X442.487 Y330.104
X442.501 Y330.131
X442.516 Y330.224
X442.486 Y330.482
X442.369 Y330.853
X441.797 Y331.952
X441.023 Y333.093
X440.289 Y334.19
G2 X440.153 Y334.439 I1.319 J0.883
G1 X439.712 Y335.451
G2 X439.596 Y335.86 I1.455 J0.634
G1 X439.523 Y336.37
G2 X439.509 Y336.692 I1.571 J0.225
G1 X439.541 Y337.215
G2 X439.623 Y337.629 I1.585 J-0.097
G1 X439.992 Y338.714
G2 X440.158 Y339.058 I1.503 J-0.511
G1 X440.866 Y340.165
X440.93 Y340.258
X441 Y340.346
X441.923 Y341.418
X442.004 Y341.505
X442.988 Y342.488
X443.002 Y342.502
X443.825 Y343.304
X444.252 Y343.821
X444.373 Y344.132
Y344.151
X444.346 Y344.313
X444.024 Y345.114
X443.38 Y346.135
X442.47 Y347.302
X441.444 Y348.503
X441.41 Y348.545
X440.497 Y349.692
X440.436 Y349.774
X440.381 Y349.859
X440.054 Y350.399
G2 X439.918 Y350.685 I1.358 J0.822
G1 X439.729 Y351.212
G2 X439.636 Y351.709 I1.494 J0.536
G1 X439.623 Y352.235
G2 X439.719 Y352.82 I1.587 J0.039
G1 X439.917 Y353.361
G2 X440.13 Y353.756 I1.491 J-0.546
G1 X440.552 Y354.329
G2 X440.721 Y354.524 I1.278 J-0.941
G1 X441.352 Y355.14
X441.451 Y355.229
X443.081 Y356.573
X444.634 Y357.985
X445.075 Y358.539
X445.254 Y358.914
X445.267 Y359.063
X445.211 Y359.216
X444.914 Y359.557
X444.263 Y360.011
X443.276 Y360.478
X442.055 Y360.895
X440.813 Y361.225
X440.301 Y361.347
X440.077 Y361.398
X415.257
G3 X415.257 Y329.573 I0 J-15.913
G1 X423.46
X423.52 Y329.579 Z-2.988 F600
X423.578 Y329.596 Z-2.976
X423.625 Y329.619 Z-2.941
X423.666 Y329.65 Z-2.907
X423.713 Y329.7 Z-2.804
X423.727 Y329.719 Z-2.683
Z5
G0 X418.014 Y332.303
G1 Z1.317 F300
X417.993 Y332.294 Z1.198
X417.932 Y332.268 Z1.097
X417.844 Y332.223 Z1.027
X417.743 Y332.162 Z1
G3 X419.309 Y329.81 Z0.845 I0.783 J-1.176
X417.743 Y332.162 Z0.69 I-0.783 J1.176
X419.309 Y329.81 Z0.535 I0.783 J-1.176
X417.743 Y332.162 Z0.38 I-0.783 J1.176
X419.309 Y329.81 Z0.225 I0.783 J-1.176
X417.743 Y332.162 Z0.07 I-0.783 J1.176
X419.309 Y329.81 Z-0.085 I0.783 J-1.176
X417.743 Y332.162 Z-0.24 I-0.783 J1.176
X419.309 Y329.81 Z-0.395 I0.783 J-1.176
X417.743 Y332.162 Z-0.55 I-0.783 J1.176
X419.309 Y329.81 Z-0.705 I0.783 J-1.176
X417.743 Y332.162 Z-0.86 I-0.783 J1.176
X419.309 Y329.81 Z-1.014 I0.783 J-1.176
X417.743 Y332.162 Z-1.169 I-0.783 J1.176
X419.309 Y329.81 Z-1.324 I0.783 J-1.176
X417.743 Y332.162 Z-1.479 I-0.783 J1.176
X419.309 Y329.81 Z-1.634 I0.783 J-1.176
X417.743 Y332.162 Z-1.789 I-0.783 J1.176
X419.309 Y329.81 Z-1.944 I0.783 J-1.176
X417.743 Y332.162 Z-2.099 I-0.783 J1.176
X419.309 Y329.81 Z-2.254 I0.783 J-1.176
X417.743 Y332.162 Z-2.409 I-0.783 J1.176
X419.309 Y329.81 Z-2.564 I0.783 J-1.176
X417.743 Y332.162 Z-2.719 I-0.783 J1.176
X419.309 Y329.81 Z-2.874 I0.783 J-1.176
X418.526 Y332.398 Z-3 I-0.783 J1.176
G1 X408.526 F1000
G2 X406.939 Y333.986 I0 J1.587
G1 Y337.486
G2 X408.526 Y339.073 I1.587 J0
G1 X418.526
G2 X420.113 Y337.486 I0 J-1.587
G1 Y333.986
G2 X418.526 Y332.398 I-1.587 J0
G1 X418.466 Y332.393 Z-2.988 F600
X418.407 Y332.376 Z-2.976
X418.361 Y332.353 Z-2.941
X418.32 Y332.322 Z-2.907
X418.273 Y332.272 Z-2.804
X418.259 Y332.253 Z-2.683
Z5
G0 X405.193 Y341.487
G1 Z1.317 F300
X405.176 Y341.503 Z1.198
X405.126 Y341.546 Z1.097
X405.048 Y341.607 Z1.027
X404.95 Y341.673 Z1
G3 X403.364 Y339.108 Z0.835 I-0.793 J-1.283
X404.95 Y341.673 Z0.669 I0.793 J1.283
X403.364 Y339.108 Z0.504 I-0.793 J-1.283
X404.95 Y341.673 Z0.338 I0.793 J1.283
X403.364 Y339.108 Z0.173 I-0.793 J-1.283
X404.95 Y341.673 Z0.007 I0.793 J1.283
X403.364 Y339.108 Z-0.158 I-0.793 J-1.283
X404.95 Y341.673 Z-0.324 I0.793 J1.283
X403.364 Y339.108 Z-0.489 I-0.793 J-1.283
X404.95 Y341.673 Z-0.655 I0.793 J1.283
X403.364 Y339.108 Z-0.82 I-0.793 J-1.283
X404.95 Y341.673 Z-0.985 I0.793 J1.283
X403.364 Y339.108 Z-1.151 I-0.793 J-1.283
X404.95 Y341.673 Z-1.316 I0.793 J1.283
X403.364 Y339.108 Z-1.482 I-0.793 J-1.283
X404.95 Y341.673 Z-1.647 I0.793 J1.283
X403.364 Y339.108 Z-1.813 I-0.793 J-1.283
X404.95 Y341.673 Z-1.978 I0.793 J1.283
X403.364 Y339.108 Z-2.144 I-0.793 J-1.283
X404.95 Y341.673 Z-2.309 I0.793 J1.283
X403.364 Y339.108 Z-2.474 I-0.793 J-1.283
X404.95 Y341.673 Z-2.64 I0.793 J1.283
X403.364 Y339.108 Z-2.805 I-0.793 J-1.283
X404.95 Y341.673 Z-2.971 I0.793 J1.283
X404.157 Y341.898 Z-3 I-0.793 J-1.283
G1 X403.58 F1000
G2 X401.992 Y343.486 I0 J1.587
G1 Y346.986
G2 X403.58 Y348.573 I1.587 J0
G1 X418.58
G2 X420.168 Y346.986 I0 J-1.587
G1 Y343.486
G2 X418.58 Y341.898 I-1.588 J0
G1 X404.157
X404.097 Y341.893 Z-2.988 F600
X404.038 Y341.876 Z-2.976
X403.992 Y341.853 Z-2.941
X403.951 Y341.822 Z-2.907
X403.904 Y341.772 Z-2.804
X403.89 Y341.753 Z-2.683
Z5
G0 Z15
G0 X0 Y0
G90
M5
M30
