(PetitePlaque2)
(T1  D=3.175 CR=0 - ZMIN=-3 - fraise deux tailles)
G90 G94
G17
G21

(Poche 2D1)
S99999 M3
G54
G0 Z15
G0 X368.639 Y301.037
Z15
Z5
G1 Z2.817 F300
X368.622 Y301.052 Z2.698
X368.573 Y301.096 Z2.597
X368.495 Y301.157 Z2.527
X368.397 Y301.223 Z2.5
G3 X366.811 Y298.658 Z2.335 I-0.793 J-1.283
X368.397 Y301.223 Z2.169 I0.793 J1.283
X366.811 Y298.658 Z2.004 I-0.793 J-1.283
X368.397 Y301.223 Z1.838 I0.793 J1.283
X366.811 Y298.658 Z1.673 I-0.793 J-1.283
X368.397 Y301.223 Z1.507 I0.793 J1.283
X366.811 Y298.658 Z1.342 I-0.793 J-1.283
X368.397 Y301.223 Z1.176 I0.793 J1.283
X366.811 Y298.658 Z1.011 I-0.793 J-1.283
X368.397 Y301.223 Z0.845 I0.793 J1.283
X366.811 Y298.658 Z0.68 I-0.793 J-1.283
X368.397 Y301.223 Z0.515 I0.793 J1.283
X366.811 Y298.658 Z0.349 I-0.793 J-1.283
X368.397 Y301.223 Z0.184 I0.793 J1.283
X366.811 Y298.658 Z0.018 I-0.793 J-1.283
X368.397 Y301.223 Z-0.147 I0.793 J1.283
X366.811 Y298.658 Z-0.313 I-0.793 J-1.283
X368.397 Y301.223 Z-0.478 I0.793 J1.283
X366.811 Y298.658 Z-0.644 I-0.793 J-1.283
X368.397 Y301.223 Z-0.809 I0.793 J1.283
X366.811 Y298.658 Z-0.974 I-0.793 J-1.283
X368.397 Y301.223 Z-1.14 I0.793 J1.283
X366.811 Y298.658 Z-1.305 I-0.793 J-1.283
X368.397 Y301.223 Z-1.471 I0.793 J1.283
X367.604 Y301.448 Z-1.5 I-0.793 J-1.283
X367.606 Y299.359 I0.001 J-1.045
G1 X386.206 F1000
X386.32 Y299.353
X386.435 Y299.342
G3 X386.735 Y299.618 I0.024 J0.276
G1 Y300.139
G3 X386.435 Y300.415 I-0.277 J0
G1 X386.32 Y300.404
X386.206 Y300.398
X367.606
X367.492 Y300.404
X367.378 Y300.415
G3 X367.077 Y300.139 I-0.024 J-0.276
G1 Y299.618
G3 X367.378 Y299.342 I0.277 J0
G1 X367.492 Y299.353
X367.606 Y299.359
G3 X367.991 Y300.946 I0 J0.84
G2 X366.619 Y301.832 I3.86 J7.481
X366.018 Y303.076 I0.987 J1.244
G1 Y321.681
G2 X367.606 Y323.268 I1.587 J0
G1 X386.206
G2 X387.793 Y321.681 I0 J-1.587
G1 Y303.076
G2 X386.206 Y301.488 I-1.587 J0
G1 X367.606
G2 X366.619 Y301.832 I0 J1.587
G1 X366.569 Y301.865 Z-1.488 F600
X366.512 Y301.888 Z-1.476
X366.462 Y301.899 Z-1.441
X366.411 Y301.901 Z-1.407
X366.343 Y301.891 Z-1.304
X366.319 Y301.884 Z-1.183
Z5
G0 X366.568 Y273.72
G1 Z2.817 F300
X366.585 Y273.705 Z2.698
X366.635 Y273.661 Z2.597
X366.713 Y273.6 Z2.527
X366.811 Y273.534 Z2.5
G3 X368.397 Y276.099 Z2.335 I0.793 J1.283
X366.811 Y273.534 Z2.169 I-0.793 J-1.283
X368.397 Y276.099 Z2.004 I0.793 J1.283
X366.811 Y273.534 Z1.838 I-0.793 J-1.283
X368.397 Y276.099 Z1.673 I0.793 J1.283
X366.811 Y273.534 Z1.507 I-0.793 J-1.283
X368.397 Y276.099 Z1.342 I0.793 J1.283
X366.811 Y273.534 Z1.176 I-0.793 J-1.283
X368.397 Y276.099 Z1.011 I0.793 J1.283
X366.811 Y273.534 Z0.845 I-0.793 J-1.283
X368.397 Y276.099 Z0.68 I0.793 J1.283
X366.811 Y273.534 Z0.515 I-0.793 J-1.283
X368.397 Y276.099 Z0.349 I0.793 J1.283
X366.811 Y273.534 Z0.184 I-0.793 J-1.283
X368.397 Y276.099 Z0.018 I0.793 J1.283
X366.811 Y273.534 Z-0.147 I-0.793 J-1.283
X368.397 Y276.099 Z-0.313 I0.793 J1.283
X366.811 Y273.534 Z-0.478 I-0.793 J-1.283
X368.397 Y276.099 Z-0.644 I0.793 J1.283
X366.811 Y273.534 Z-0.809 I-0.793 J-1.283
X368.397 Y276.099 Z-0.974 I0.793 J1.283
X366.811 Y273.534 Z-1.14 I-0.793 J-1.283
X368.397 Y276.099 Z-1.305 I0.793 J1.283
X366.811 Y273.534 Z-1.471 I-0.793 J-1.283
X367.604 Y273.309 Z-1.5 I0.793 J1.283
X367.606 Y275.398 I0.001 J1.045
G1 X367.492 Y275.404 F1000
X367.378 Y275.415
G3 X367.077 Y275.139 I-0.024 J-0.276
G1 Y274.618
G3 X367.378 Y274.342 I0.277 J0
G1 X367.492 Y274.353
X367.606 Y274.359
X386.206
X386.32 Y274.353
X386.435 Y274.342
G3 X386.735 Y274.618 I0.024 J0.276
G1 Y275.139
G3 X386.435 Y275.415 I-0.277 J0
G1 X386.32 Y275.404
X386.206 Y275.398
X367.606
G2 X366.68 Y276.149 I0 J0.946
G3 X366.244 Y277.26 I-3.524 J-0.741
G2 X366.018 Y278.076 I1.362 J0.816
G1 Y296.681
G2 X367.606 Y298.268 I1.587 J0
G1 X386.206
G2 X387.793 Y296.681 I0 J-1.587
G1 Y278.076
G2 X386.206 Y276.488 I-1.587 J0
G1 X367.606
G2 X366.244 Y277.26 I0 J1.587
G1 X366.186 Y277.366 Z-1.476 F600
X366.143 Y277.46 Z-1.407
X366.118 Y277.524 Z-1.304
X366.109 Y277.546 Z-1.183
Z5
G0 X387.242 Y251.039
G1 Z2.817 F300
X387.225 Y251.055 Z2.698
X387.175 Y251.098 Z2.597
X387.097 Y251.16 Z2.527
X386.999 Y251.226 Z2.5
G3 X385.413 Y248.66 Z2.335 I-0.793 J-1.283
X386.999 Y251.226 Z2.169 I0.793 J1.283
X385.413 Y248.66 Z2.004 I-0.793 J-1.283
X386.999 Y251.226 Z1.838 I0.793 J1.283
X385.413 Y248.66 Z1.673 I-0.793 J-1.283
X386.999 Y251.226 Z1.507 I0.793 J1.283
X385.413 Y248.66 Z1.342 I-0.793 J-1.283
X386.999 Y251.226 Z1.176 I0.793 J1.283
X385.413 Y248.66 Z1.011 I-0.793 J-1.283
X386.999 Y251.226 Z0.845 I0.793 J1.283
X385.413 Y248.66 Z0.68 I-0.793 J-1.283
X386.999 Y251.226 Z0.515 I0.793 J1.283
X385.413 Y248.66 Z0.349 I-0.793 J-1.283
X386.999 Y251.226 Z0.184 I0.793 J1.283
X385.413 Y248.66 Z0.018 I-0.793 J-1.283
X386.999 Y251.226 Z-0.147 I0.793 J1.283
X385.413 Y248.66 Z-0.313 I-0.793 J-1.283
X386.999 Y251.226 Z-0.478 I0.793 J1.283
X385.413 Y248.66 Z-0.644 I-0.793 J-1.283
X386.999 Y251.226 Z-0.809 I0.793 J1.283
X385.413 Y248.66 Z-0.974 I-0.793 J-1.283
X386.999 Y251.226 Z-1.14 I0.793 J1.283
X385.413 Y248.66 Z-1.305 I-0.793 J-1.283
X386.999 Y251.226 Z-1.471 I0.793 J1.283
X386.206 Y251.451 Z-1.5 I-0.793 J-1.283
X386.206 Y249.361 I0 J-1.045
G1 X386.32 Y249.355 F1000
X386.433 Y249.344
G3 X386.733 Y249.62 I0.023 J0.276
G1 Y250.142
G3 X386.433 Y250.418 I-0.277 J0
G1 X386.32 Y250.407
X386.206 Y250.401
X367.606
X367.492 Y250.407
X367.379 Y250.418
G3 X367.079 Y250.142 I-0.023 J-0.276
G1 Y249.881
G2 X367.064 Y249.595 I-2.673 J0
G3 X367.32 Y249.339 I0.232 J-0.025
G1 X367.463 Y249.355
X367.534 Y249.361
X367.606 Y249.363
X386.206 Y249.361
X386.266 Y249.367 Z-1.488 F600
X386.325 Y249.384 Z-1.476
X386.371 Y249.407 Z-1.441
X386.412 Y249.437 Z-1.407
X386.459 Y249.487 Z-1.304
X386.473 Y249.507 Z-1.183
Z5
G0 X387.242 Y251.082
G1 Z2.817 F300
X387.225 Y251.097 Z2.698
X387.175 Y251.141 Z2.597
X387.097 Y251.202 Z2.527
X386.999 Y251.268 Z2.5
G3 X385.413 Y248.703 Z2.335 I-0.793 J-1.283
X386.999 Y251.268 Z2.169 I0.793 J1.283
X385.413 Y248.703 Z2.004 I-0.793 J-1.283
X386.999 Y251.268 Z1.838 I0.793 J1.283
X385.413 Y248.703 Z1.673 I-0.793 J-1.283
X386.999 Y251.268 Z1.507 I0.793 J1.283
X385.413 Y248.703 Z1.342 I-0.793 J-1.283
X386.999 Y251.268 Z1.176 I0.793 J1.283
X385.413 Y248.703 Z1.011 I-0.793 J-1.283
X386.999 Y251.268 Z0.845 I0.793 J1.283
X385.413 Y248.703 Z0.68 I-0.793 J-1.283
X386.999 Y251.268 Z0.515 I0.793 J1.283
X385.413 Y248.703 Z0.349 I-0.793 J-1.283
X386.999 Y251.268 Z0.184 I0.793 J1.283
X385.413 Y248.703 Z0.018 I-0.793 J-1.283
X386.999 Y251.268 Z-0.147 I0.793 J1.283
X385.413 Y248.703 Z-0.313 I-0.793 J-1.283
X386.999 Y251.268 Z-0.478 I0.793 J1.283
X385.413 Y248.703 Z-0.644 I-0.793 J-1.283
X386.999 Y251.268 Z-0.809 I0.793 J1.283
X385.413 Y248.703 Z-0.974 I-0.793 J-1.283
X386.999 Y251.268 Z-1.14 I0.793 J1.283
X385.413 Y248.703 Z-1.305 I-0.793 J-1.283
X386.999 Y251.268 Z-1.471 I0.793 J1.283
X386.206 Y251.493 Z-1.5 I-0.793 J-1.283
G1 X367.606 F1000
G2 X366.018 Y253.081 I0 J1.587
G1 Y271.681
G2 X367.606 Y273.268 I1.587 J0
G1 X386.206
G2 X387.793 Y271.681 I0 J-1.587
G1 Y253.081
G2 X386.206 Y251.493 I-1.587 J0
G1 X386.146 Y251.488 Z-1.488 F600
X386.087 Y251.471 Z-1.476
X386.041 Y251.448 Z-1.441
X386 Y251.417 Z-1.407
X385.953 Y251.367 Z-1.304
X385.939 Y251.348 Z-1.183
Z5
G0 X363.248 Y247.717
G1 Z2.817 F300
X363.232 Y247.7 Z2.698
X363.189 Y247.65 Z2.597
X363.127 Y247.572 Z2.527
X363.061 Y247.474 Z2.5
G3 X365.627 Y245.888 Z2.335 I1.283 J-0.793
X363.061 Y247.474 Z2.169 I-1.283 J0.793
X365.627 Y245.888 Z2.004 I1.283 J-0.793
X363.061 Y247.474 Z1.838 I-1.283 J0.793
X365.627 Y245.888 Z1.673 I1.283 J-0.793
X363.061 Y247.474 Z1.507 I-1.283 J0.793
X365.627 Y245.888 Z1.342 I1.283 J-0.793
X363.061 Y247.474 Z1.176 I-1.283 J0.793
X365.627 Y245.888 Z1.011 I1.283 J-0.793
X363.061 Y247.474 Z0.845 I-1.283 J0.793
X365.627 Y245.888 Z0.68 I1.283 J-0.793
X363.061 Y247.474 Z0.515 I-1.283 J0.793
X365.627 Y245.888 Z0.349 I1.283 J-0.793
X363.061 Y247.474 Z0.184 I-1.283 J0.793
X365.627 Y245.888 Z0.018 I1.283 J-0.793
X363.061 Y247.474 Z-0.147 I-1.283 J0.793
X365.627 Y245.888 Z-0.313 I1.283 J-0.793
X363.061 Y247.474 Z-0.478 I-1.283 J0.793
X365.627 Y245.888 Z-0.644 I1.283 J-0.793
X363.061 Y247.474 Z-0.809 I-1.283 J0.793
X365.627 Y245.888 Z-0.974 I1.283 J-0.793
X363.061 Y247.474 Z-1.14 I-1.283 J0.793
X365.627 Y245.888 Z-1.305 I1.283 J-0.793
X363.061 Y247.474 Z-1.471 I-1.283 J0.793
X362.836 Y246.681 Z-1.5 I1.283 J-0.793
X364.924 Y246.681 I1.044 J0
G1 X364.926 Y246.753 F1000
X364.932 Y246.824
X364.948 Y246.967
G3 X364.692 Y247.223 I-0.232 J0.025
G2 X364.406 Y247.208 I-0.286 J2.658
G1 X364.145
G3 X363.869 Y246.908 I0 J-0.277
G1 X363.88 Y246.795
X363.886 Y246.681
Y228.081
X363.88 Y227.967
X363.869 Y227.854
G3 X364.145 Y227.554 I0.276 J-0.023
G1 X364.667
G3 X364.943 Y227.854 I0 J0.277
G1 X364.932 Y227.967
X364.926 Y228.081
X364.924 Y246.681
G2 X365.679 Y247.61 I0.95 J0
G3 X366.794 Y248.045 I-0.748 J3.567
G2 X367.606 Y248.268 I0.812 J-1.364
G1 X386.206
G2 X387.793 Y246.681 I0 J-1.587
G1 Y228.081
G2 X386.206 Y226.493 I-1.587 J0
G1 X367.606
G2 X366.018 Y228.081 I0 J1.587
G1 Y246.681
G2 X366.794 Y248.045 I1.587 J0
G1 X366.843 Y248.081 Z-1.488 F600
X366.884 Y248.126 Z-1.476
X366.912 Y248.169 Z-1.441
X366.933 Y248.216 Z-1.407
X366.947 Y248.283 Z-1.304
X366.949 Y248.307 Z-1.183
Z5
G0 X340.564 Y227.045
G1 Z2.817 F300
X340.58 Y227.062 Z2.698
X340.623 Y227.112 Z2.597
X340.685 Y227.19 Z2.527
X340.751 Y227.288 Z2.5
G3 X338.185 Y228.874 Z2.335 I-1.283 J0.793
X340.751 Y227.288 Z2.169 I1.283 J-0.793
X338.185 Y228.874 Z2.004 I-1.283 J0.793
X340.751 Y227.288 Z1.838 I1.283 J-0.793
X338.185 Y228.874 Z1.673 I-1.283 J0.793
X340.751 Y227.288 Z1.507 I1.283 J-0.793
X338.185 Y228.874 Z1.342 I-1.283 J0.793
X340.751 Y227.288 Z1.176 I1.283 J-0.793
X338.185 Y228.874 Z1.011 I-1.283 J0.793
X340.751 Y227.288 Z0.845 I1.283 J-0.793
X338.185 Y228.874 Z0.68 I-1.283 J0.793
X340.751 Y227.288 Z0.515 I1.283 J-0.793
X338.185 Y228.874 Z0.349 I-1.283 J0.793
X340.751 Y227.288 Z0.184 I1.283 J-0.793
X338.185 Y228.874 Z0.018 I-1.283 J0.793
X340.751 Y227.288 Z-0.147 I1.283 J-0.793
X338.185 Y228.874 Z-0.313 I-1.283 J0.793
X340.751 Y227.288 Z-0.478 I1.283 J-0.793
X338.185 Y228.874 Z-0.644 I-1.283 J0.793
X340.751 Y227.288 Z-0.809 I1.283 J-0.793
X338.185 Y228.874 Z-0.974 I-1.283 J0.793
X340.751 Y227.288 Z-1.14 I1.283 J-0.793
X338.185 Y228.874 Z-1.305 I-1.283 J0.793
X340.751 Y227.288 Z-1.471 I1.283 J-0.793
X340.976 Y228.081 Z-1.5 I-1.283 J0.793
X338.886 Y228.081 I-1.045 J0
G1 X338.88 Y227.967 F1000
X338.869 Y227.854
G3 X339.145 Y227.554 I0.276 J-0.023
G1 X339.667
G3 X339.943 Y227.854 I0 J0.277
G1 X339.932 Y227.967
X339.926 Y228.081
Y246.681
X339.932 Y246.795
X339.943 Y246.908
G3 X339.667 Y247.208 I-0.276 J0.023
G1 X339.145
G3 X338.869 Y246.908 I0 J-0.277
G1 X338.88 Y246.795
X338.886 Y246.681
Y228.081
G2 X338.133 Y227.153 I-0.948 J0
G3 X337.02 Y226.718 I0.744 J-3.543
G2 X336.206 Y226.493 I-0.814 J1.363
G1 X317.606
G2 X316.018 Y228.081 I0 J1.587
G1 Y246.681
G2 X317.606 Y248.268 I1.587 J0
G1 X336.206
G2 X337.793 Y246.681 I0 J-1.587
G1 Y228.081
G2 X337.02 Y226.718 I-1.587 J0
G1 X336.914 Y226.66 Z-1.476 F600
X336.82 Y226.617 Z-1.407
X336.756 Y226.592 Z-1.304
X336.733 Y226.584 Z-1.183
Z5
G0 X338.37 Y226.88
G1 Z2.817 F300
X338.387 Y226.865 Z2.698
X338.437 Y226.821 Z2.597
X338.515 Y226.76 Z2.527
X338.613 Y226.694 Z2.5
G3 X340.199 Y229.259 Z2.335 I0.793 J1.283
X338.613 Y226.694 Z2.169 I-0.793 J-1.283
X340.199 Y229.259 Z2.004 I0.793 J1.283
X338.613 Y226.694 Z1.838 I-0.793 J-1.283
X340.199 Y229.259 Z1.673 I0.793 J1.283
X338.613 Y226.694 Z1.507 I-0.793 J-1.283
X340.199 Y229.259 Z1.342 I0.793 J1.283
X338.613 Y226.694 Z1.176 I-0.793 J-1.283
X340.199 Y229.259 Z1.011 I0.793 J1.283
X338.613 Y226.694 Z0.845 I-0.793 J-1.283
X340.199 Y229.259 Z0.68 I0.793 J1.283
X338.613 Y226.694 Z0.515 I-0.793 J-1.283
X340.199 Y229.259 Z0.349 I0.793 J1.283
X338.613 Y226.694 Z0.184 I-0.793 J-1.283
X340.199 Y229.259 Z0.018 I0.793 J1.283
X338.613 Y226.694 Z-0.147 I-0.793 J-1.283
X340.199 Y229.259 Z-0.313 I0.793 J1.283
X338.613 Y226.694 Z-0.478 I-0.793 J-1.283
X340.199 Y229.259 Z-0.644 I0.793 J1.283
X338.613 Y226.694 Z-0.809 I-0.793 J-1.283
X340.199 Y229.259 Z-0.974 I0.793 J1.283
X338.613 Y226.694 Z-1.14 I-0.793 J-1.283
X340.199 Y229.259 Z-1.305 I0.793 J1.283
X338.613 Y226.694 Z-1.471 I-0.793 J-1.283
X339.406 Y226.469 Z-1.5 I0.793 J1.283
G1 X387.819 F1000
Y323.293
X365.993
Y249.881
G2 X364.406 Y248.294 I-1.587 J0
G1 X315.993
Y226.469
X339.406
X339.466 Y226.474 Z-1.488 F600
X339.525 Y226.491 Z-1.476
X339.571 Y226.514 Z-1.441
X339.612 Y226.545 Z-1.407
X339.659 Y226.595 Z-1.304
X339.673 Y226.614 Z-1.183
Z5
G0 X340.607 Y227.045
G1 Z2.817 F300
X340.622 Y227.062 Z2.698
X340.666 Y227.112 Z2.597
X340.727 Y227.19 Z2.527
X340.793 Y227.288 Z2.5
G3 X338.228 Y228.874 Z2.335 I-1.283 J0.793
X340.793 Y227.288 Z2.169 I1.283 J-0.793
X338.228 Y228.874 Z2.004 I-1.283 J0.793
X340.793 Y227.288 Z1.838 I1.283 J-0.793
X338.228 Y228.874 Z1.673 I-1.283 J0.793
X340.793 Y227.288 Z1.507 I1.283 J-0.793
X338.228 Y228.874 Z1.342 I-1.283 J0.793
X340.793 Y227.288 Z1.176 I1.283 J-0.793
X338.228 Y228.874 Z1.011 I-1.283 J0.793
X340.793 Y227.288 Z0.845 I1.283 J-0.793
X338.228 Y228.874 Z0.68 I-1.283 J0.793
X340.793 Y227.288 Z0.515 I1.283 J-0.793
X338.228 Y228.874 Z0.349 I-1.283 J0.793
X340.793 Y227.288 Z0.184 I1.283 J-0.793
X338.228 Y228.874 Z0.018 I-1.283 J0.793
X340.793 Y227.288 Z-0.147 I1.283 J-0.793
X338.228 Y228.874 Z-0.313 I-1.283 J0.793
X340.793 Y227.288 Z-0.478 I1.283 J-0.793
X338.228 Y228.874 Z-0.644 I-1.283 J0.793
X340.793 Y227.288 Z-0.809 I1.283 J-0.793
X338.228 Y228.874 Z-0.974 I-1.283 J0.793
X340.793 Y227.288 Z-1.14 I1.283 J-0.793
X338.228 Y228.874 Z-1.305 I-1.283 J0.793
X340.793 Y227.288 Z-1.471 I1.283 J-0.793
X341.018 Y228.081 Z-1.5 I-1.283 J0.793
G1 Y246.681 F1000
G2 X342.606 Y248.268 I1.587 J0
G1 X361.206
G2 X362.793 Y246.681 I0 J-1.587
G1 Y228.081
G2 X361.206 Y226.493 I-1.587 J0
G1 X342.606
G2 X341.018 Y228.081 I0 J1.587
G1 X341.013 Y228.141 Z-1.488 F600
X340.996 Y228.2 Z-1.476
X340.973 Y228.246 Z-1.441
X340.942 Y228.287 Z-1.407
X340.892 Y228.334 Z-1.304
X340.873 Y228.348 Z-1.183
Z5
G0 X340.564 Y227.045
G1 Z1.317 F300
X340.58 Y227.062 Z1.198
X340.623 Y227.112 Z1.097
X340.685 Y227.19 Z1.027
X340.751 Y227.288 Z1
G3 X338.185 Y228.874 Z0.835 I-1.283 J0.793
X340.751 Y227.288 Z0.669 I1.283 J-0.793
X338.185 Y228.874 Z0.504 I-1.283 J0.793
X340.751 Y227.288 Z0.338 I1.283 J-0.793
X338.185 Y228.874 Z0.173 I-1.283 J0.793
X340.751 Y227.288 Z0.007 I1.283 J-0.793
X338.185 Y228.874 Z-0.158 I-1.283 J0.793
X340.751 Y227.288 Z-0.324 I1.283 J-0.793
X338.185 Y228.874 Z-0.489 I-1.283 J0.793
X340.751 Y227.288 Z-0.655 I1.283 J-0.793
X338.185 Y228.874 Z-0.82 I-1.283 J0.793
X340.751 Y227.288 Z-0.985 I1.283 J-0.793
X338.185 Y228.874 Z-1.151 I-1.283 J0.793
X340.751 Y227.288 Z-1.316 I1.283 J-0.793
X338.185 Y228.874 Z-1.482 I-1.283 J0.793
X340.751 Y227.288 Z-1.647 I1.283 J-0.793
X338.185 Y228.874 Z-1.813 I-1.283 J0.793
X340.751 Y227.288 Z-1.978 I1.283 J-0.793
X338.185 Y228.874 Z-2.144 I-1.283 J0.793
X340.751 Y227.288 Z-2.309 I1.283 J-0.793
X338.185 Y228.874 Z-2.474 I-1.283 J0.793
X340.751 Y227.288 Z-2.64 I1.283 J-0.793
X338.185 Y228.874 Z-2.805 I-1.283 J0.793
X340.751 Y227.288 Z-2.971 I1.283 J-0.793
X340.976 Y228.081 Z-3 I-1.283 J0.793
X338.886 Y228.081 I-1.045 J0
G1 X338.88 Y227.967 F1000
X338.869 Y227.854
G3 X339.145 Y227.554 I0.276 J-0.023
G1 X339.667
G3 X339.943 Y227.854 I0 J0.277
G1 X339.932 Y227.967
X339.926 Y228.081
Y246.681
X339.932 Y246.795
X339.943 Y246.908
G3 X339.667 Y247.208 I-0.276 J0.023
G1 X339.145
G3 X338.869 Y246.908 I0 J-0.277
G1 X338.88 Y246.795
X338.886 Y246.681
Y228.081
G2 X338.133 Y227.153 I-0.948 J0
G3 X337.02 Y226.718 I0.744 J-3.543
G2 X336.206 Y226.493 I-0.814 J1.363
G1 X317.606
G2 X316.018 Y228.081 I0 J1.587
G1 Y246.681
G2 X317.606 Y248.268 I1.587 J0
G1 X336.206
G2 X337.793 Y246.681 I0 J-1.587
G1 Y228.081
G2 X337.02 Y226.718 I-1.587 J0
G1 X336.914 Y226.66 Z-2.976 F600
X336.82 Y226.617 Z-2.907
X336.756 Y226.592 Z-2.804
X336.733 Y226.584 Z-2.683
Z5
G0 X363.248 Y247.717
G1 Z1.317 F300
X363.232 Y247.7 Z1.198
X363.189 Y247.65 Z1.097
X363.127 Y247.572 Z1.027
X363.061 Y247.474 Z1
G3 X365.627 Y245.888 Z0.835 I1.283 J-0.793
X363.061 Y247.474 Z0.669 I-1.283 J0.793
X365.627 Y245.888 Z0.504 I1.283 J-0.793
X363.061 Y247.474 Z0.338 I-1.283 J0.793
X365.627 Y245.888 Z0.173 I1.283 J-0.793
X363.061 Y247.474 Z0.007 I-1.283 J0.793
X365.627 Y245.888 Z-0.158 I1.283 J-0.793
X363.061 Y247.474 Z-0.324 I-1.283 J0.793
X365.627 Y245.888 Z-0.489 I1.283 J-0.793
X363.061 Y247.474 Z-0.655 I-1.283 J0.793
X365.627 Y245.888 Z-0.82 I1.283 J-0.793
X363.061 Y247.474 Z-0.985 I-1.283 J0.793
X365.627 Y245.888 Z-1.151 I1.283 J-0.793
X363.061 Y247.474 Z-1.316 I-1.283 J0.793
X365.627 Y245.888 Z-1.482 I1.283 J-0.793
X363.061 Y247.474 Z-1.647 I-1.283 J0.793
X365.627 Y245.888 Z-1.813 I1.283 J-0.793
X363.061 Y247.474 Z-1.978 I-1.283 J0.793
X365.627 Y245.888 Z-2.144 I1.283 J-0.793
X363.061 Y247.474 Z-2.309 I-1.283 J0.793
X365.627 Y245.888 Z-2.474 I1.283 J-0.793
X363.061 Y247.474 Z-2.64 I-1.283 J0.793
X365.627 Y245.888 Z-2.805 I1.283 J-0.793
X363.061 Y247.474 Z-2.971 I-1.283 J0.793
X362.836 Y246.681 Z-3 I1.283 J-0.793
X364.924 Y246.681 I1.044 J0
G1 X364.926 Y246.753 F1000
X364.932 Y246.824
X364.948 Y246.967
G3 X364.692 Y247.223 I-0.232 J0.025
G2 X364.406 Y247.208 I-0.286 J2.658
G1 X364.145
G3 X363.869 Y246.908 I0 J-0.277
G1 X363.88 Y246.795
X363.886 Y246.681
Y228.081
X363.88 Y227.967
X363.869 Y227.854
G3 X364.145 Y227.554 I0.276 J-0.023
G1 X364.667
G3 X364.943 Y227.854 I0 J0.277
G1 X364.932 Y227.967
X364.926 Y228.081
X364.924 Y246.681
G3 X363.326 Y247.214 I-0.888 J0
X362.793 Y245.616 I2.13 J-1.598
G1 Y228.081
G2 X361.206 Y226.493 I-1.587 J0
G1 X342.606
G2 X341.018 Y228.081 I0 J1.587
G1 Y246.681
G2 X342.606 Y248.268 I1.587 J0
G1 X361.206
G2 X362.793 Y246.681 I0 J-1.587
G1 Y245.616
X362.799 Y245.555 Z-2.988 F600
X362.816 Y245.497 Z-2.976
X362.839 Y245.451 Z-2.941
X362.87 Y245.409 Z-2.907
X362.92 Y245.362 Z-2.804
X362.939 Y245.348 Z-2.683
Z5
G0 X387.242 Y251.039
G1 Z1.317 F300
X387.225 Y251.055 Z1.198
X387.175 Y251.098 Z1.097
X387.097 Y251.16 Z1.027
X386.999 Y251.226 Z1
G3 X385.413 Y248.66 Z0.835 I-0.793 J-1.283
X386.999 Y251.226 Z0.669 I0.793 J1.283
X385.413 Y248.66 Z0.504 I-0.793 J-1.283
X386.999 Y251.226 Z0.338 I0.793 J1.283
X385.413 Y248.66 Z0.173 I-0.793 J-1.283
X386.999 Y251.226 Z0.007 I0.793 J1.283
X385.413 Y248.66 Z-0.158 I-0.793 J-1.283
X386.999 Y251.226 Z-0.324 I0.793 J1.283
X385.413 Y248.66 Z-0.489 I-0.793 J-1.283
X386.999 Y251.226 Z-0.655 I0.793 J1.283
X385.413 Y248.66 Z-0.82 I-0.793 J-1.283
X386.999 Y251.226 Z-0.985 I0.793 J1.283
X385.413 Y248.66 Z-1.151 I-0.793 J-1.283
X386.999 Y251.226 Z-1.316 I0.793 J1.283
X385.413 Y248.66 Z-1.482 I-0.793 J-1.283
X386.999 Y251.226 Z-1.647 I0.793 J1.283
X385.413 Y248.66 Z-1.813 I-0.793 J-1.283
X386.999 Y251.226 Z-1.978 I0.793 J1.283
X385.413 Y248.66 Z-2.144 I-0.793 J-1.283
X386.999 Y251.226 Z-2.309 I0.793 J1.283
X385.413 Y248.66 Z-2.474 I-0.793 J-1.283
X386.999 Y251.226 Z-2.64 I0.793 J1.283
X385.413 Y248.66 Z-2.805 I-0.793 J-1.283
X386.999 Y251.226 Z-2.971 I0.793 J1.283
X386.206 Y251.451 Z-3 I-0.793 J-1.283
X386.206 Y249.361 I0 J-1.045
G1 X386.32 Y249.355 F1000
X386.433 Y249.344
G3 X386.733 Y249.62 I0.023 J0.276
G1 Y250.142
G3 X386.433 Y250.418 I-0.277 J0
G1 X386.32 Y250.407
X386.206 Y250.401
X367.606
X367.492 Y250.407
X367.379 Y250.418
G3 X367.079 Y250.142 I-0.023 J-0.276
G1 Y249.881
G2 X367.064 Y249.595 I-2.673 J0
G3 X367.32 Y249.339 I0.232 J-0.025
G1 X367.463 Y249.355
X367.534 Y249.361
X367.606 Y249.363
X386.206 Y249.361
G2 X387.134 Y248.608 I0 J-0.948
G3 X387.569 Y247.495 I3.543 J0.744
G2 X387.793 Y246.681 I-1.363 J-0.814
G1 Y228.081
G2 X386.206 Y226.493 I-1.587 J0
G1 X367.606
G2 X366.018 Y228.081 I0 J1.587
G1 Y246.681
G2 X367.606 Y248.268 I1.587 J0
G1 X386.206
G2 X387.569 Y247.495 I0 J-1.587
G1 X387.627 Y247.389 Z-2.976 F600
X387.67 Y247.295 Z-2.907
X387.695 Y247.231 Z-2.804
X387.703 Y247.208 Z-2.683
Z5
G0 X387.244 Y276.037
G1 Z1.317 F300
X387.227 Y276.052 Z1.198
X387.177 Y276.096 Z1.097
X387.099 Y276.157 Z1.027
X387.001 Y276.223 Z1
G3 X385.415 Y273.658 Z0.835 I-0.793 J-1.283
X387.001 Y276.223 Z0.669 I0.793 J1.283
X385.415 Y273.658 Z0.504 I-0.793 J-1.283
X387.001 Y276.223 Z0.338 I0.793 J1.283
X385.415 Y273.658 Z0.173 I-0.793 J-1.283
X387.001 Y276.223 Z0.007 I0.793 J1.283
X385.415 Y273.658 Z-0.158 I-0.793 J-1.283
X387.001 Y276.223 Z-0.324 I0.793 J1.283
X385.415 Y273.658 Z-0.489 I-0.793 J-1.283
X387.001 Y276.223 Z-0.655 I0.793 J1.283
X385.415 Y273.658 Z-0.82 I-0.793 J-1.283
X387.001 Y276.223 Z-0.985 I0.793 J1.283
X385.415 Y273.658 Z-1.151 I-0.793 J-1.283
X387.001 Y276.223 Z-1.316 I0.793 J1.283
X385.415 Y273.658 Z-1.482 I-0.793 J-1.283
X387.001 Y276.223 Z-1.647 I0.793 J1.283
X385.415 Y273.658 Z-1.813 I-0.793 J-1.283
X387.001 Y276.223 Z-1.978 I0.793 J1.283
X385.415 Y273.658 Z-2.144 I-0.793 J-1.283
X387.001 Y276.223 Z-2.309 I0.793 J1.283
X385.415 Y273.658 Z-2.474 I-0.793 J-1.283
X387.001 Y276.223 Z-2.64 I0.793 J1.283
X385.415 Y273.658 Z-2.805 I-0.793 J-1.283
X387.001 Y276.223 Z-2.971 I0.793 J1.283
X386.208 Y276.448 Z-3 I-0.793 J-1.283
X386.206 Y274.359 I-0.001 J-1.045
G1 X386.32 Y274.353 F1000
X386.435 Y274.342
G3 X386.735 Y274.618 I0.024 J0.276
G1 Y275.139
G3 X386.435 Y275.415 I-0.277 J0
G1 X386.32 Y275.404
X386.206 Y275.398
X367.606
X367.492 Y275.404
X367.378 Y275.415
G3 X367.077 Y275.139 I-0.024 J-0.276
G1 Y274.618
G3 X367.378 Y274.342 I0.277 J0
G1 X367.492 Y274.353
X367.606 Y274.359
X386.206
G2 X387.132 Y273.608 I0 J-0.946
G3 X387.568 Y272.497 I3.524 J0.741
G2 X387.793 Y271.681 I-1.362 J-0.816
G1 Y253.081
G2 X386.206 Y251.493 I-1.587 J0
G1 X367.606
G2 X366.018 Y253.081 I0 J1.587
G1 Y271.681
G2 X367.606 Y273.268 I1.587 J0
G1 X386.206
G2 X387.568 Y272.497 I0 J-1.587
G1 X387.626 Y272.391 Z-2.976 F600
X387.669 Y272.297 Z-2.907
X387.694 Y272.233 Z-2.804
X387.703 Y272.211 Z-2.683
Z5
G0 X385.173 Y298.72
G1 Z1.317 F300
X385.19 Y298.705 Z1.198
X385.239 Y298.661 Z1.097
X385.317 Y298.6 Z1.027
X385.415 Y298.534 Z1
G3 X387.001 Y301.099 Z0.835 I0.793 J1.283
X385.415 Y298.534 Z0.669 I-0.793 J-1.283
X387.001 Y301.099 Z0.504 I0.793 J1.283
X385.415 Y298.534 Z0.338 I-0.793 J-1.283
X387.001 Y301.099 Z0.173 I0.793 J1.283
X385.415 Y298.534 Z0.007 I-0.793 J-1.283
X387.001 Y301.099 Z-0.158 I0.793 J1.283
X385.415 Y298.534 Z-0.324 I-0.793 J-1.283
X387.001 Y301.099 Z-0.489 I0.793 J1.283
X385.415 Y298.534 Z-0.655 I-0.793 J-1.283
X387.001 Y301.099 Z-0.82 I0.793 J1.283
X385.415 Y298.534 Z-0.985 I-0.793 J-1.283
X387.001 Y301.099 Z-1.151 I0.793 J1.283
X385.415 Y298.534 Z-1.316 I-0.793 J-1.283
X387.001 Y301.099 Z-1.482 I0.793 J1.283
X385.415 Y298.534 Z-1.647 I-0.793 J-1.283
X387.001 Y301.099 Z-1.813 I0.793 J1.283
X385.415 Y298.534 Z-1.978 I-0.793 J-1.283
X387.001 Y301.099 Z-2.144 I0.793 J1.283
X385.415 Y298.534 Z-2.309 I-0.793 J-1.283
X387.001 Y301.099 Z-2.474 I0.793 J1.283
X385.415 Y298.534 Z-2.64 I-0.793 J-1.283
X387.001 Y301.099 Z-2.805 I0.793 J1.283
X385.415 Y298.534 Z-2.971 I-0.793 J-1.283
X386.208 Y298.309 Z-3 I0.793 J1.283
X387.252 Y299.354 I-0.001 J1.045
X386.206 Y300.398 I-1.045 J-0.001
G1 X367.606 F1000
X367.492 Y300.404
X367.378 Y300.415
G3 X367.077 Y300.139 I-0.024 J-0.276
G1 Y299.618
G3 X367.378 Y299.342 I0.277 J0
G1 X367.492 Y299.353
X367.606 Y299.359
X386.206
X386.32 Y299.353
X386.435 Y299.342
G3 X386.735 Y299.618 I0.024 J0.276
G1 Y300.139
G3 X386.435 Y300.415 I-0.277 J0
G1 X386.32 Y300.404
X386.206 Y300.398
G2 X385.388 Y300.943 I0 J0.886
G3 X384.57 Y301.488 I-0.818 J-0.341
G1 X367.606
G2 X366.018 Y303.076 I0 J1.587
G1 Y321.681
G2 X367.606 Y323.268 I1.587 J0
G1 X386.206
G2 X387.793 Y321.681 I0 J-1.587
G1 Y303.076
G2 X386.206 Y301.488 I-1.587 J0
G1 X384.57
X384.509 Y301.483 Z-2.988 F600
X384.451 Y301.466 Z-2.976
X384.405 Y301.443 Z-2.941
X384.363 Y301.412 Z-2.907
X384.316 Y301.362 Z-2.804
X384.303 Y301.343 Z-2.683
Z5
G0 X385.17 Y298.68
G1 Z1.317 F300
X385.187 Y298.665 Z1.198
X385.237 Y298.621 Z1.097
X385.315 Y298.56 Z1.027
X385.413 Y298.494 Z1
G3 X386.999 Y301.059 Z0.835 I0.793 J1.283
X385.413 Y298.494 Z0.669 I-0.793 J-1.283
X386.999 Y301.059 Z0.504 I0.793 J1.283
X385.413 Y298.494 Z0.338 I-0.793 J-1.283
X386.999 Y301.059 Z0.173 I0.793 J1.283
X385.413 Y298.494 Z0.007 I-0.793 J-1.283
X386.999 Y301.059 Z-0.158 I0.793 J1.283
X385.413 Y298.494 Z-0.324 I-0.793 J-1.283
X386.999 Y301.059 Z-0.489 I0.793 J1.283
X385.413 Y298.494 Z-0.655 I-0.793 J-1.283
X386.999 Y301.059 Z-0.82 I0.793 J1.283
X385.413 Y298.494 Z-0.985 I-0.793 J-1.283
X386.999 Y301.059 Z-1.151 I0.793 J1.283
X385.413 Y298.494 Z-1.316 I-0.793 J-1.283
X386.999 Y301.059 Z-1.482 I0.793 J1.283
X385.413 Y298.494 Z-1.647 I-0.793 J-1.283
X386.999 Y301.059 Z-1.813 I0.793 J1.283
X385.413 Y298.494 Z-1.978 I-0.793 J-1.283
X386.999 Y301.059 Z-2.144 I0.793 J1.283
X385.413 Y298.494 Z-2.309 I-0.793 J-1.283
X386.999 Y301.059 Z-2.474 I0.793 J1.283
X385.413 Y298.494 Z-2.64 I-0.793 J-1.283
X386.999 Y301.059 Z-2.805 I0.793 J1.283
X385.413 Y298.494 Z-2.971 I-0.793 J-1.283
X386.206 Y298.268 Z-3 I0.793 J1.283
G2 X387.793 Y296.681 I0 J-1.587 F1000
G1 Y278.076
G2 X386.206 Y276.488 I-1.587 J0
G1 X367.606
G2 X366.018 Y278.076 I0 J1.587
G1 Y296.681
G2 X367.606 Y298.268 I1.587 J0
G1 X386.206
X386.266 Y298.274 Z-2.988 F600
X386.325 Y298.291 Z-2.976
X386.371 Y298.314 Z-2.941
X386.412 Y298.345 Z-2.907
X386.459 Y298.395 Z-2.804
X386.473 Y298.414 Z-2.683
Z5
G0 X387.407 Y298.843
G1 Z1.317 F300
X387.422 Y298.86 Z1.198
X387.466 Y298.909 Z1.097
X387.527 Y298.988 Z1.027
X387.593 Y299.085 Z1
G3 X385.028 Y300.672 Z0.835 I-1.283 J0.793
X387.593 Y299.085 Z0.669 I1.283 J-0.793
X385.028 Y300.672 Z0.504 I-1.283 J0.793
X387.593 Y299.085 Z0.338 I1.283 J-0.793
X385.028 Y300.672 Z0.173 I-1.283 J0.793
X387.593 Y299.085 Z0.007 I1.283 J-0.793
X385.028 Y300.672 Z-0.158 I-1.283 J0.793
X387.593 Y299.085 Z-0.324 I1.283 J-0.793
X385.028 Y300.672 Z-0.489 I-1.283 J0.793
X387.593 Y299.085 Z-0.655 I1.283 J-0.793
X385.028 Y300.672 Z-0.82 I-1.283 J0.793
X387.593 Y299.085 Z-0.985 I1.283 J-0.793
X385.028 Y300.672 Z-1.151 I-1.283 J0.793
X387.593 Y299.085 Z-1.316 I1.283 J-0.793
X385.028 Y300.672 Z-1.482 I-1.283 J0.793
X387.593 Y299.085 Z-1.647 I1.283 J-0.793
X385.028 Y300.672 Z-1.813 I-1.283 J0.793
X387.593 Y299.085 Z-1.978 I1.283 J-0.793
X385.028 Y300.672 Z-2.144 I-1.283 J0.793
X387.593 Y299.085 Z-2.309 I1.283 J-0.793
X385.028 Y300.672 Z-2.474 I-1.283 J0.793
X387.593 Y299.085 Z-2.64 I1.283 J-0.793
X385.028 Y300.672 Z-2.805 I-1.283 J0.793
X387.593 Y299.085 Z-2.971 I1.283 J-0.793
X387.819 Y299.879 Z-3 I-1.283 J0.793
G1 Y323.293 F1000
X365.993
Y249.881
G2 X364.406 Y248.294 I-1.587 J0
G1 X315.993
Y226.469
X387.819
Y299.879
X387.813 Y299.939 Z-2.988 F600
X387.796 Y299.997 Z-2.976
X387.773 Y300.043 Z-2.941
X387.742 Y300.085 Z-2.907
X387.692 Y300.132 Z-2.804
X387.673 Y300.146 Z-2.683
Z5
G0 X285.251 Y274.125
G1 Z2.817 F300
X285.268 Y274.11 Z2.698
X285.317 Y274.066 Z2.597
X285.395 Y274.005 Z2.527
X285.493 Y273.939 Z2.5
G3 X287.079 Y276.504 Z2.335 I0.793 J1.283
X285.493 Y273.939 Z2.169 I-0.793 J-1.283
X287.079 Y276.504 Z2.004 I0.793 J1.283
X285.493 Y273.939 Z1.838 I-0.793 J-1.283
X287.079 Y276.504 Z1.673 I0.793 J1.283
X285.493 Y273.939 Z1.507 I-0.793 J-1.283
X287.079 Y276.504 Z1.342 I0.793 J1.283
X285.493 Y273.939 Z1.176 I-0.793 J-1.283
X287.079 Y276.504 Z1.011 I0.793 J1.283
X285.493 Y273.939 Z0.845 I-0.793 J-1.283
X287.079 Y276.504 Z0.68 I0.793 J1.283
X285.493 Y273.939 Z0.515 I-0.793 J-1.283
X287.079 Y276.504 Z0.349 I0.793 J1.283
X285.493 Y273.939 Z0.184 I-0.793 J-1.283
X287.079 Y276.504 Z0.018 I0.793 J1.283
X285.493 Y273.939 Z-0.147 I-0.793 J-1.283
X287.079 Y276.504 Z-0.313 I0.793 J1.283
X285.493 Y273.939 Z-0.478 I-0.793 J-1.283
X287.079 Y276.504 Z-0.644 I0.793 J1.283
X285.493 Y273.939 Z-0.809 I-0.793 J-1.283
X287.079 Y276.504 Z-0.974 I0.793 J1.283
X285.493 Y273.939 Z-1.14 I-0.793 J-1.283
X287.079 Y276.504 Z-1.305 I0.793 J1.283
X285.493 Y273.939 Z-1.471 I-0.793 J-1.283
X286.286 Y273.714 Z-1.5 I0.793 J1.283
X286.284 Y275.803 I-0.001 J1.045
G1 X267.684 F1000
X267.57 Y275.809
X267.456 Y275.82
G3 X267.155 Y275.544 I-0.024 J-0.276
G1 Y275.023
G3 X267.456 Y274.747 I0.277 J0
G1 X267.57 Y274.758
X267.684 Y274.764
X286.284
X286.398 Y274.758
X286.513 Y274.747
G3 X286.813 Y275.023 I0.024 J0.276
G1 Y275.544
G3 X286.513 Y275.82 I-0.277 J0
G1 X286.398 Y275.809
X286.284 Y275.803
G3 X285.899 Y274.216 I0 J-0.84
G2 X287.271 Y273.33 I-3.86 J-7.481
X287.871 Y272.086 I-0.987 J-1.244
G1 Y253.481
G2 X286.284 Y251.893 I-1.587 J0
G1 X267.684
G2 X266.096 Y253.481 I0 J1.588
G1 Y272.086
G2 X267.684 Y273.673 I1.587 J0
G1 X286.284
G2 X287.271 Y273.33 I0 J-1.587
G1 X287.321 Y273.297 Z-1.488 F600
X287.378 Y273.274 Z-1.476
X287.428 Y273.263 Z-1.441
X287.479 Y273.261 Z-1.407
X287.547 Y273.271 Z-1.304
X287.571 Y273.278 Z-1.183
Z5
G0 X287.322 Y301.442
G1 Z2.817 F300
X287.305 Y301.457 Z2.698
X287.255 Y301.501 Z2.597
X287.177 Y301.562 Z2.527
X287.079 Y301.628 Z2.5
G3 X285.493 Y299.063 Z2.335 I-0.793 J-1.283
X287.079 Y301.628 Z2.169 I0.793 J1.283
X285.493 Y299.063 Z2.004 I-0.793 J-1.283
X287.079 Y301.628 Z1.838 I0.793 J1.283
X285.493 Y299.063 Z1.673 I-0.793 J-1.283
X287.079 Y301.628 Z1.507 I0.793 J1.283
X285.493 Y299.063 Z1.342 I-0.793 J-1.283
X287.079 Y301.628 Z1.176 I0.793 J1.283
X285.493 Y299.063 Z1.011 I-0.793 J-1.283
X287.079 Y301.628 Z0.845 I0.793 J1.283
X285.493 Y299.063 Z0.68 I-0.793 J-1.283
X287.079 Y301.628 Z0.515 I0.793 J1.283
X285.493 Y299.063 Z0.349 I-0.793 J-1.283
X287.079 Y301.628 Z0.184 I0.793 J1.283
X285.493 Y299.063 Z0.018 I-0.793 J-1.283
X287.079 Y301.628 Z-0.147 I0.793 J1.283
X285.493 Y299.063 Z-0.313 I-0.793 J-1.283
X287.079 Y301.628 Z-0.478 I0.793 J1.283
X285.493 Y299.063 Z-0.644 I-0.793 J-1.283
X287.079 Y301.628 Z-0.809 I0.793 J1.283
X285.493 Y299.063 Z-0.974 I-0.793 J-1.283
X287.079 Y301.628 Z-1.14 I0.793 J1.283
X285.493 Y299.063 Z-1.305 I-0.793 J-1.283
X287.079 Y301.628 Z-1.471 I0.793 J1.283
X286.286 Y301.853 Z-1.5 I-0.793 J-1.283
X285.241 Y300.81 I-0.001 J-1.045
X286.284 Y299.764 I1.045 J-0.001
G1 X286.398 Y299.758 F1000
X286.513 Y299.747
G3 X286.813 Y300.023 I0.024 J0.276
G1 Y300.544
G3 X286.513 Y300.82 I-0.277 J0
G1 X286.398 Y300.809
X286.284 Y300.803
X267.684
X267.57 Y300.809
X267.456 Y300.82
G3 X267.155 Y300.544 I-0.024 J-0.276
G1 Y300.023
G3 X267.456 Y299.747 I0.277 J0
G1 X267.57 Y299.758
X267.684 Y299.764
X286.284
G2 X287.21 Y299.013 I0 J-0.946
G3 X287.646 Y297.902 I3.524 J0.741
G2 X287.871 Y297.086 I-1.362 J-0.816
G1 Y278.481
G2 X286.284 Y276.893 I-1.587 J0
G1 X267.684
G2 X266.096 Y278.481 I0 J1.587
G1 Y297.086
G2 X267.684 Y298.673 I1.587 J0
G1 X286.284
G2 X287.646 Y297.902 I0 J-1.587
G1 X287.704 Y297.796 Z-1.476 F600
X287.747 Y297.702 Z-1.407
X287.772 Y297.638 Z-1.304
X287.781 Y297.616 Z-1.183
Z5
G0 X266.648 Y324.123
G1 Z2.817 F300
X266.665 Y324.107 Z2.698
X266.715 Y324.064 Z2.597
X266.793 Y324.002 Z2.527
X266.891 Y323.936 Z2.5
G3 X268.477 Y326.502 Z2.335 I0.793 J1.283
X266.891 Y323.936 Z2.169 I-0.793 J-1.283
X268.477 Y326.502 Z2.004 I0.793 J1.283
X266.891 Y323.936 Z1.838 I-0.793 J-1.283
X268.477 Y326.502 Z1.673 I0.793 J1.283
X266.891 Y323.936 Z1.507 I-0.793 J-1.283
X268.477 Y326.502 Z1.342 I0.793 J1.283
X266.891 Y323.936 Z1.176 I-0.793 J-1.283
X268.477 Y326.502 Z1.011 I0.793 J1.283
X266.891 Y323.936 Z0.845 I-0.793 J-1.283
X268.477 Y326.502 Z0.68 I0.793 J1.283
X266.891 Y323.936 Z0.515 I-0.793 J-1.283
X268.477 Y326.502 Z0.349 I0.793 J1.283
X266.891 Y323.936 Z0.184 I-0.793 J-1.283
X268.477 Y326.502 Z0.018 I0.793 J1.283
X266.891 Y323.936 Z-0.147 I-0.793 J-1.283
X268.477 Y326.502 Z-0.313 I0.793 J1.283
X266.891 Y323.936 Z-0.478 I-0.793 J-1.283
X268.477 Y326.502 Z-0.644 I0.793 J1.283
X266.891 Y323.936 Z-0.809 I-0.793 J-1.283
X268.477 Y326.502 Z-0.974 I0.793 J1.283
X266.891 Y323.936 Z-1.14 I-0.793 J-1.283
X268.477 Y326.502 Z-1.305 I0.793 J1.283
X266.891 Y323.936 Z-1.471 I-0.793 J-1.283
X267.684 Y323.711 Z-1.5 I0.793 J1.283
X267.684 Y325.801 I0 J1.045
G1 X267.57 Y325.807 F1000
X267.457 Y325.818
G3 X267.157 Y325.542 I-0.023 J-0.276
G1 Y325.02
G3 X267.457 Y324.744 I0.277 J0
G1 X267.57 Y324.755
X267.684 Y324.761
X286.284
X286.398 Y324.755
X286.511 Y324.744
G3 X286.811 Y325.02 I0.023 J0.276
G1 Y325.281
G2 X286.826 Y325.567 I2.673 J0
G3 X286.57 Y325.823 I-0.232 J0.025
G1 X286.427 Y325.807
X286.356 Y325.801
X286.284 Y325.799
X267.684 Y325.801
X267.624 Y325.795 Z-1.488 F600
X267.565 Y325.778 Z-1.476
X267.519 Y325.755 Z-1.441
X267.478 Y325.725 Z-1.407
X267.431 Y325.675 Z-1.304
X267.417 Y325.655 Z-1.183
Z5
G0 X266.648 Y324.08
G1 Z2.817 F300
X266.665 Y324.065 Z2.698
X266.715 Y324.021 Z2.597
X266.793 Y323.96 Z2.527
X266.891 Y323.894 Z2.5
G3 X268.477 Y326.459 Z2.335 I0.793 J1.283
X266.891 Y323.894 Z2.169 I-0.793 J-1.283
X268.477 Y326.459 Z2.004 I0.793 J1.283
X266.891 Y323.894 Z1.838 I-0.793 J-1.283
X268.477 Y326.459 Z1.673 I0.793 J1.283
X266.891 Y323.894 Z1.507 I-0.793 J-1.283
X268.477 Y326.459 Z1.342 I0.793 J1.283
X266.891 Y323.894 Z1.176 I-0.793 J-1.283
X268.477 Y326.459 Z1.011 I0.793 J1.283
X266.891 Y323.894 Z0.845 I-0.793 J-1.283
X268.477 Y326.459 Z0.68 I0.793 J1.283
X266.891 Y323.894 Z0.515 I-0.793 J-1.283
X268.477 Y326.459 Z0.349 I0.793 J1.283
X266.891 Y323.894 Z0.184 I-0.793 J-1.283
X268.477 Y326.459 Z0.018 I0.793 J1.283
X266.891 Y323.894 Z-0.147 I-0.793 J-1.283
X268.477 Y326.459 Z-0.313 I0.793 J1.283
X266.891 Y323.894 Z-0.478 I-0.793 J-1.283
X268.477 Y326.459 Z-0.644 I0.793 J1.283
X266.891 Y323.894 Z-0.809 I-0.793 J-1.283
X268.477 Y326.459 Z-0.974 I0.793 J1.283
X266.891 Y323.894 Z-1.14 I-0.793 J-1.283
X268.477 Y326.459 Z-1.305 I0.793 J1.283
X266.891 Y323.894 Z-1.471 I-0.793 J-1.283
X267.684 Y323.668 Z-1.5 I0.793 J1.283
G1 X286.284 F1000
G2 X287.871 Y322.081 I0 J-1.587
G1 Y303.481
G2 X286.284 Y301.893 I-1.587 J0
G1 X267.684
G2 X266.096 Y303.481 I0 J1.587
G1 Y322.081
G2 X267.684 Y323.668 I1.587 J0
G1 X267.744 Y323.674 Z-1.488 F600
X267.803 Y323.691 Z-1.476
X267.849 Y323.714 Z-1.441
X267.89 Y323.745 Z-1.407
X267.937 Y323.795 Z-1.304
X267.951 Y323.814 Z-1.183
Z5
G0 X290.642 Y327.445
G1 Z2.817 F300
X290.658 Y327.462 Z2.698
X290.701 Y327.512 Z2.597
X290.763 Y327.59 Z2.527
X290.829 Y327.688 Z2.5
G3 X288.263 Y329.274 Z2.335 I-1.283 J0.793
X290.829 Y327.688 Z2.169 I1.283 J-0.793
X288.263 Y329.274 Z2.004 I-1.283 J0.793
X290.829 Y327.688 Z1.838 I1.283 J-0.793
X288.263 Y329.274 Z1.673 I-1.283 J0.793
X290.829 Y327.688 Z1.507 I1.283 J-0.793
X288.263 Y329.274 Z1.342 I-1.283 J0.793
X290.829 Y327.688 Z1.176 I1.283 J-0.793
X288.263 Y329.274 Z1.011 I-1.283 J0.793
X290.829 Y327.688 Z0.845 I1.283 J-0.793
X288.263 Y329.274 Z0.68 I-1.283 J0.793
X290.829 Y327.688 Z0.515 I1.283 J-0.793
X288.263 Y329.274 Z0.349 I-1.283 J0.793
X290.829 Y327.688 Z0.184 I1.283 J-0.793
X288.263 Y329.274 Z0.018 I-1.283 J0.793
X290.829 Y327.688 Z-0.147 I1.283 J-0.793
X288.263 Y329.274 Z-0.313 I-1.283 J0.793
X290.829 Y327.688 Z-0.478 I1.283 J-0.793
X288.263 Y329.274 Z-0.644 I-1.283 J0.793
X290.829 Y327.688 Z-0.809 I1.283 J-0.793
X288.263 Y329.274 Z-0.974 I-1.283 J0.793
X290.829 Y327.688 Z-1.14 I1.283 J-0.793
X288.263 Y329.274 Z-1.305 I-1.283 J0.793
X290.829 Y327.688 Z-1.471 I1.283 J-0.793
X291.054 Y328.481 Z-1.5 I-1.283 J0.793
X288.966 Y328.481 I-1.044 J0
G1 X288.964 Y328.409 F1000
X288.958 Y328.338
X288.942 Y328.195
G3 X289.198 Y327.939 I0.232 J-0.025
G2 X289.484 Y327.954 I0.286 J-2.658
G1 X289.745
G3 X290.021 Y328.254 I0 J0.277
G1 X290.01 Y328.367
X290.004 Y328.481
Y347.081
X290.01 Y347.195
X290.021 Y347.308
G3 X289.745 Y347.608 I-0.276 J0.023
G1 X289.223
G3 X288.947 Y347.308 I0 J-0.277
G1 X288.958 Y347.195
X288.964 Y347.081
X288.966 Y328.481
G2 X288.211 Y327.552 I-0.95 J0
G3 X287.096 Y327.117 I0.748 J-3.567
G2 X286.284 Y326.893 I-0.812 J1.364
G1 X267.684
G2 X266.096 Y328.481 I0 J1.587
G1 Y347.081
G2 X267.684 Y348.668 I1.587 J0
G1 X286.284
G2 X287.871 Y347.081 I0 J-1.587
G1 Y328.481
G2 X287.096 Y327.117 I-1.587 J0
G1 X287.047 Y327.081 Z-1.488 F600
X287.006 Y327.036 Z-1.476
X286.978 Y326.993 Z-1.441
X286.957 Y326.946 Z-1.407
X286.943 Y326.879 Z-1.304
X286.941 Y326.855 Z-1.183
Z5
G0 X315.642 Y346.045
G1 Z2.817 F300
X315.658 Y346.062 Z2.698
X315.701 Y346.112 Z2.597
X315.763 Y346.19 Z2.527
X315.829 Y346.288 Z2.5
G3 X313.263 Y347.874 Z2.335 I-1.283 J0.793
X315.829 Y346.288 Z2.169 I1.283 J-0.793
X313.263 Y347.874 Z2.004 I-1.283 J0.793
X315.829 Y346.288 Z1.838 I1.283 J-0.793
X313.263 Y347.874 Z1.673 I-1.283 J0.793
X315.829 Y346.288 Z1.507 I1.283 J-0.793
X313.263 Y347.874 Z1.342 I-1.283 J0.793
X315.829 Y346.288 Z1.176 I1.283 J-0.793
X313.263 Y347.874 Z1.011 I-1.283 J0.793
X315.829 Y346.288 Z0.845 I1.283 J-0.793
X313.263 Y347.874 Z0.68 I-1.283 J0.793
X315.829 Y346.288 Z0.515 I1.283 J-0.793
X313.263 Y347.874 Z0.349 I-1.283 J0.793
X315.829 Y346.288 Z0.184 I1.283 J-0.793
X313.263 Y347.874 Z0.018 I-1.283 J0.793
X315.829 Y346.288 Z-0.147 I1.283 J-0.793
X313.263 Y347.874 Z-0.313 I-1.283 J0.793
X315.829 Y346.288 Z-0.478 I1.283 J-0.793
X313.263 Y347.874 Z-0.644 I-1.283 J0.793
X315.829 Y346.288 Z-0.809 I1.283 J-0.793
X313.263 Y347.874 Z-0.974 I-1.283 J0.793
X315.829 Y346.288 Z-1.14 I1.283 J-0.793
X313.263 Y347.874 Z-1.305 I-1.283 J0.793
X315.829 Y346.288 Z-1.471 I1.283 J-0.793
X316.054 Y347.081 Z-1.5 I-1.283 J0.793
X313.964 Y347.081 I-1.045 J0
G1 Y328.481 F1000
X313.958 Y328.367
X313.947 Y328.254
G3 X314.223 Y327.954 I0.276 J-0.023
G1 X314.745
G3 X315.021 Y328.254 I0 J0.277
G1 X315.01 Y328.367
X315.004 Y328.481
Y347.081
X315.01 Y347.195
X315.021 Y347.308
G3 X314.745 Y347.608 I-0.276 J0.023
G1 X314.223
G3 X313.947 Y347.308 I0 J-0.277
G1 X313.958 Y347.195
X313.964 Y347.081
G2 X313.418 Y346.262 I-0.888 J0
G3 X312.871 Y345.442 I0.341 J-0.819
G1 Y328.481
G2 X311.284 Y326.893 I-1.587 J0
G1 X292.684
G2 X291.096 Y328.481 I0 J1.587
G1 Y347.081
G2 X292.684 Y348.668 I1.587 J0
G1 X311.284
G2 X312.871 Y347.081 I0 J-1.587
G1 Y345.442
X312.877 Y345.382 Z-1.488 F600
X312.894 Y345.324 Z-1.476
X312.917 Y345.278 Z-1.441
X312.948 Y345.236 Z-1.407
X312.998 Y345.189 Z-1.304
X313.017 Y345.175 Z-1.183
Z5
G0 X315.685 Y346.045
G1 Z2.817 F300
X315.701 Y346.062 Z2.698
X315.744 Y346.112 Z2.597
X315.805 Y346.19 Z2.527
X315.871 Y346.288 Z2.5
G3 X313.306 Y347.874 Z2.335 I-1.283 J0.793
X315.871 Y346.288 Z2.169 I1.283 J-0.793
X313.306 Y347.874 Z2.004 I-1.283 J0.793
X315.871 Y346.288 Z1.838 I1.283 J-0.793
X313.306 Y347.874 Z1.673 I-1.283 J0.793
X315.871 Y346.288 Z1.507 I1.283 J-0.793
X313.306 Y347.874 Z1.342 I-1.283 J0.793
X315.871 Y346.288 Z1.176 I1.283 J-0.793
X313.306 Y347.874 Z1.011 I-1.283 J0.793
X315.871 Y346.288 Z0.845 I1.283 J-0.793
X313.306 Y347.874 Z0.68 I-1.283 J0.793
X315.871 Y346.288 Z0.515 I1.283 J-0.793
X313.306 Y347.874 Z0.349 I-1.283 J0.793
X315.871 Y346.288 Z0.184 I1.283 J-0.793
X313.306 Y347.874 Z0.018 I-1.283 J0.793
X315.871 Y346.288 Z-0.147 I1.283 J-0.793
X313.306 Y347.874 Z-0.313 I-1.283 J0.793
X315.871 Y346.288 Z-0.478 I1.283 J-0.793
X313.306 Y347.874 Z-0.644 I-1.283 J0.793
X315.871 Y346.288 Z-0.809 I1.283 J-0.793
X313.306 Y347.874 Z-0.974 I-1.283 J0.793
X315.871 Y346.288 Z-1.14 I1.283 J-0.793
X313.306 Y347.874 Z-1.305 I-1.283 J0.793
X315.871 Y346.288 Z-1.471 I1.283 J-0.793
X316.096 Y347.081 Z-1.5 I-1.283 J0.793
G2 X317.684 Y348.668 I1.587 J0 F1000
G1 X336.284
G2 X337.871 Y347.081 I0 J-1.587
G1 Y328.481
G2 X336.284 Y326.893 I-1.587 J0
G1 X317.684
G2 X316.096 Y328.481 I0 J1.587
G1 Y347.081
X316.091 Y347.141 Z-1.488 F600
X316.074 Y347.2 Z-1.476
X316.051 Y347.246 Z-1.441
X316.02 Y347.287 Z-1.407
X315.97 Y347.334 Z-1.304
X315.951 Y347.348 Z-1.183
Z5
G0 X315.52 Y348.282
G1 Z2.817 F300
X315.503 Y348.297 Z2.698
X315.453 Y348.341 Z2.597
X315.375 Y348.402 Z2.527
X315.277 Y348.468 Z2.5
G3 X313.691 Y345.903 Z2.335 I-0.793 J-1.283
X315.277 Y348.468 Z2.169 I0.793 J1.283
X313.691 Y345.903 Z2.004 I-0.793 J-1.283
X315.277 Y348.468 Z1.838 I0.793 J1.283
X313.691 Y345.903 Z1.673 I-0.793 J-1.283
X315.277 Y348.468 Z1.507 I0.793 J1.283
X313.691 Y345.903 Z1.342 I-0.793 J-1.283
X315.277 Y348.468 Z1.176 I0.793 J1.283
X313.691 Y345.903 Z1.011 I-0.793 J-1.283
X315.277 Y348.468 Z0.845 I0.793 J1.283
X313.691 Y345.903 Z0.68 I-0.793 J-1.283
X315.277 Y348.468 Z0.515 I0.793 J1.283
X313.691 Y345.903 Z0.349 I-0.793 J-1.283
X315.277 Y348.468 Z0.184 I0.793 J1.283
X313.691 Y345.903 Z0.018 I-0.793 J-1.283
X315.277 Y348.468 Z-0.147 I0.793 J1.283
X313.691 Y345.903 Z-0.313 I-0.793 J-1.283
X315.277 Y348.468 Z-0.478 I0.793 J1.283
X313.691 Y345.903 Z-0.644 I-0.793 J-1.283
X315.277 Y348.468 Z-0.809 I0.793 J1.283
X313.691 Y345.903 Z-0.974 I-0.793 J-1.283
X315.277 Y348.468 Z-1.14 I0.793 J1.283
X313.691 Y345.903 Z-1.305 I-0.793 J-1.283
X315.277 Y348.468 Z-1.471 I0.793 J1.283
X314.484 Y348.694 Z-1.5 I-0.793 J-1.283
G1 X266.072 F1000
Y251.868
X287.897
Y325.281
G2 X289.484 Y326.868 I1.587 J0
G1 X337.897
Y348.694
X314.484
X314.424 Y348.688 Z-1.488 F600
X314.365 Y348.671 Z-1.476
X314.319 Y348.648 Z-1.441
X314.278 Y348.617 Z-1.407
X314.231 Y348.567 Z-1.304
X314.217 Y348.548 Z-1.183
Z5
G0 X315.642 Y346.045
G1 Z1.317 F300
X315.658 Y346.062 Z1.198
X315.701 Y346.112 Z1.097
X315.763 Y346.19 Z1.027
X315.829 Y346.288 Z1
G3 X313.263 Y347.874 Z0.835 I-1.283 J0.793
X315.829 Y346.288 Z0.669 I1.283 J-0.793
X313.263 Y347.874 Z0.504 I-1.283 J0.793
X315.829 Y346.288 Z0.338 I1.283 J-0.793
X313.263 Y347.874 Z0.173 I-1.283 J0.793
X315.829 Y346.288 Z0.007 I1.283 J-0.793
X313.263 Y347.874 Z-0.158 I-1.283 J0.793
X315.829 Y346.288 Z-0.324 I1.283 J-0.793
X313.263 Y347.874 Z-0.489 I-1.283 J0.793
X315.829 Y346.288 Z-0.655 I1.283 J-0.793
X313.263 Y347.874 Z-0.82 I-1.283 J0.793
X315.829 Y346.288 Z-0.985 I1.283 J-0.793
X313.263 Y347.874 Z-1.151 I-1.283 J0.793
X315.829 Y346.288 Z-1.316 I1.283 J-0.793
X313.263 Y347.874 Z-1.482 I-1.283 J0.793
X315.829 Y346.288 Z-1.647 I1.283 J-0.793
X313.263 Y347.874 Z-1.813 I-1.283 J0.793
X315.829 Y346.288 Z-1.978 I1.283 J-0.793
X313.263 Y347.874 Z-2.144 I-1.283 J0.793
X315.829 Y346.288 Z-2.309 I1.283 J-0.793
X313.263 Y347.874 Z-2.474 I-1.283 J0.793
X315.829 Y346.288 Z-2.64 I1.283 J-0.793
X313.263 Y347.874 Z-2.805 I-1.283 J0.793
X315.829 Y346.288 Z-2.971 I1.283 J-0.793
X316.054 Y347.081 Z-3 I-1.283 J0.793
X313.964 Y347.081 I-1.045 J0
G1 Y328.481 F1000
X313.958 Y328.367
X313.947 Y328.254
G3 X314.223 Y327.954 I0.276 J-0.023
G1 X314.745
G3 X315.021 Y328.254 I0 J0.277
G1 X315.01 Y328.367
X315.004 Y328.481
Y347.081
X315.01 Y347.195
X315.021 Y347.308
G3 X314.745 Y347.608 I-0.276 J0.023
G1 X314.223
G3 X313.947 Y347.308 I0 J-0.277
G1 X313.958 Y347.195
X313.964 Y347.081
G3 X315.553 Y346.695 I0.842 J0
G2 X316.441 Y348.069 I7.444 J-3.839
X317.684 Y348.668 I1.243 J-0.988
G1 X336.284
G2 X337.871 Y347.081 I0 J-1.587
G1 Y328.481
G2 X336.284 Y326.893 I-1.587 J0
G1 X317.684
G2 X316.096 Y328.481 I0 J1.587
G1 Y347.081
G2 X316.441 Y348.069 I1.587 J0
G1 X316.474 Y348.12 Z-2.988 F600
X316.497 Y348.176 Z-2.976
X316.508 Y348.226 Z-2.941
X316.51 Y348.278 Z-2.907
X316.5 Y348.346 Z-2.804
X316.493 Y348.369 Z-2.683
Z5
G0 X290.642 Y327.445
G1 Z1.317 F300
X290.658 Y327.462 Z1.198
X290.701 Y327.512 Z1.097
X290.763 Y327.59 Z1.027
X290.829 Y327.688 Z1
G3 X288.263 Y329.274 Z0.835 I-1.283 J0.793
X290.829 Y327.688 Z0.669 I1.283 J-0.793
X288.263 Y329.274 Z0.504 I-1.283 J0.793
X290.829 Y327.688 Z0.338 I1.283 J-0.793
X288.263 Y329.274 Z0.173 I-1.283 J0.793
X290.829 Y327.688 Z0.007 I1.283 J-0.793
X288.263 Y329.274 Z-0.158 I-1.283 J0.793
X290.829 Y327.688 Z-0.324 I1.283 J-0.793
X288.263 Y329.274 Z-0.489 I-1.283 J0.793
X290.829 Y327.688 Z-0.655 I1.283 J-0.793
X288.263 Y329.274 Z-0.82 I-1.283 J0.793
X290.829 Y327.688 Z-0.985 I1.283 J-0.793
X288.263 Y329.274 Z-1.151 I-1.283 J0.793
X290.829 Y327.688 Z-1.316 I1.283 J-0.793
X288.263 Y329.274 Z-1.482 I-1.283 J0.793
X290.829 Y327.688 Z-1.647 I1.283 J-0.793
X288.263 Y329.274 Z-1.813 I-1.283 J0.793
X290.829 Y327.688 Z-1.978 I1.283 J-0.793
X288.263 Y329.274 Z-2.144 I-1.283 J0.793
X290.829 Y327.688 Z-2.309 I1.283 J-0.793
X288.263 Y329.274 Z-2.474 I-1.283 J0.793
X290.829 Y327.688 Z-2.64 I1.283 J-0.793
X288.263 Y329.274 Z-2.805 I-1.283 J0.793
X290.829 Y327.688 Z-2.971 I1.283 J-0.793
X291.054 Y328.481 Z-3 I-1.283 J0.793
X288.966 Y328.481 I-1.044 J0
G1 X288.964 Y328.409 F1000
X288.958 Y328.338
X288.942 Y328.195
G3 X289.198 Y327.939 I0.232 J-0.025
G2 X289.484 Y327.954 I0.286 J-2.658
G1 X289.745
G3 X290.021 Y328.254 I0 J0.277
G1 X290.01 Y328.367
X290.004 Y328.481
Y347.081
X290.01 Y347.195
X290.021 Y347.308
G3 X289.745 Y347.608 I-0.276 J0.023
G1 X289.223
G3 X288.947 Y347.308 I0 J-0.277
G1 X288.958 Y347.195
X288.964 Y347.081
X288.966 Y328.481
G3 X290.564 Y327.948 I0.888 J0
X291.096 Y329.546 I-2.13 J1.598
G1 Y347.081
G2 X292.684 Y348.668 I1.587 J0
G1 X311.284
G2 X312.871 Y347.081 I0 J-1.587
G1 Y328.481
G2 X311.284 Y326.893 I-1.587 J0
G1 X292.684
G2 X291.096 Y328.481 I0 J1.587
G1 Y329.546
X291.091 Y329.607 Z-2.988 F600
X291.074 Y329.665 Z-2.976
X291.051 Y329.711 Z-2.941
X291.02 Y329.753 Z-2.907
X290.97 Y329.8 Z-2.804
X290.951 Y329.814 Z-2.683
Z5
G0 X266.648 Y324.123
G1 Z1.317 F300
X266.665 Y324.107 Z1.198
X266.715 Y324.064 Z1.097
X266.793 Y324.002 Z1.027
X266.891 Y323.936 Z1
G3 X268.477 Y326.502 Z0.835 I0.793 J1.283
X266.891 Y323.936 Z0.669 I-0.793 J-1.283
X268.477 Y326.502 Z0.504 I0.793 J1.283
X266.891 Y323.936 Z0.338 I-0.793 J-1.283
X268.477 Y326.502 Z0.173 I0.793 J1.283
X266.891 Y323.936 Z0.007 I-0.793 J-1.283
X268.477 Y326.502 Z-0.158 I0.793 J1.283
X266.891 Y323.936 Z-0.324 I-0.793 J-1.283
X268.477 Y326.502 Z-0.489 I0.793 J1.283
X266.891 Y323.936 Z-0.655 I-0.793 J-1.283
X268.477 Y326.502 Z-0.82 I0.793 J1.283
X266.891 Y323.936 Z-0.985 I-0.793 J-1.283
X268.477 Y326.502 Z-1.151 I0.793 J1.283
X266.891 Y323.936 Z-1.316 I-0.793 J-1.283
X268.477 Y326.502 Z-1.482 I0.793 J1.283
X266.891 Y323.936 Z-1.647 I-0.793 J-1.283
X268.477 Y326.502 Z-1.813 I0.793 J1.283
X266.891 Y323.936 Z-1.978 I-0.793 J-1.283
X268.477 Y326.502 Z-2.144 I0.793 J1.283
X266.891 Y323.936 Z-2.309 I-0.793 J-1.283
X268.477 Y326.502 Z-2.474 I0.793 J1.283
X266.891 Y323.936 Z-2.64 I-0.793 J-1.283
X268.477 Y326.502 Z-2.805 I0.793 J1.283
X266.891 Y323.936 Z-2.971 I-0.793 J-1.283
X267.684 Y323.711 Z-3 I0.793 J1.283
X267.684 Y325.801 I0 J1.045
G1 X267.57 Y325.807 F1000
X267.457 Y325.818
G3 X267.157 Y325.542 I-0.023 J-0.276
G1 Y325.02
G3 X267.457 Y324.744 I0.277 J0
G1 X267.57 Y324.755
X267.684 Y324.761
X286.284
X286.398 Y324.755
X286.511 Y324.744
G3 X286.811 Y325.02 I0.023 J0.276
G1 Y325.281
G2 X286.826 Y325.567 I2.673 J0
G3 X286.57 Y325.823 I-0.232 J0.025
G1 X286.427 Y325.807
X286.356 Y325.801
X286.284 Y325.799
X267.684 Y325.801
G2 X266.756 Y326.554 I0 J0.948
G3 X266.321 Y327.667 I-3.543 J-0.744
G2 X266.096 Y328.481 I1.363 J0.814
G1 Y347.081
G2 X267.684 Y348.668 I1.587 J0
G1 X286.284
G2 X287.871 Y347.081 I0 J-1.587
G1 Y328.481
G2 X286.284 Y326.893 I-1.587 J0
G1 X267.684
G2 X266.321 Y327.667 I0 J1.587
G1 X266.263 Y327.773 Z-2.976 F600
X266.22 Y327.867 Z-2.907
X266.195 Y327.931 Z-2.804
X266.187 Y327.954 Z-2.683
Z5
G0 X268.717 Y301.442
G1 Z1.317 F300
X268.7 Y301.457 Z1.198
X268.651 Y301.501 Z1.097
X268.573 Y301.562 Z1.027
X268.475 Y301.628 Z1
G3 X266.889 Y299.063 Z0.835 I-0.793 J-1.283
X268.475 Y301.628 Z0.669 I0.793 J1.283
X266.889 Y299.063 Z0.504 I-0.793 J-1.283
X268.475 Y301.628 Z0.338 I0.793 J1.283
X266.889 Y299.063 Z0.173 I-0.793 J-1.283
X268.475 Y301.628 Z0.007 I0.793 J1.283
X266.889 Y299.063 Z-0.158 I-0.793 J-1.283
X268.475 Y301.628 Z-0.324 I0.793 J1.283
X266.889 Y299.063 Z-0.489 I-0.793 J-1.283
X268.475 Y301.628 Z-0.655 I0.793 J1.283
X266.889 Y299.063 Z-0.82 I-0.793 J-1.283
X268.475 Y301.628 Z-0.985 I0.793 J1.283
X266.889 Y299.063 Z-1.151 I-0.793 J-1.283
X268.475 Y301.628 Z-1.316 I0.793 J1.283
X266.889 Y299.063 Z-1.482 I-0.793 J-1.283
X268.475 Y301.628 Z-1.647 I0.793 J1.283
X266.889 Y299.063 Z-1.813 I-0.793 J-1.283
X268.475 Y301.628 Z-1.978 I0.793 J1.283
X266.889 Y299.063 Z-2.144 I-0.793 J-1.283
X268.475 Y301.628 Z-2.309 I0.793 J1.283
X266.889 Y299.063 Z-2.474 I-0.793 J-1.283
X268.475 Y301.628 Z-2.64 I0.793 J1.283
X266.889 Y299.063 Z-2.805 I-0.793 J-1.283
X268.475 Y301.628 Z-2.971 I0.793 J1.283
X267.682 Y301.853 Z-3 I-0.793 J-1.283
X267.684 Y299.764 I0.001 J-1.045
G1 X286.284 F1000
X286.398 Y299.758
X286.513 Y299.747
G3 X286.813 Y300.023 I0.024 J0.276
G1 Y300.544
G3 X286.513 Y300.82 I-0.277 J0
G1 X286.398 Y300.809
X286.284 Y300.803
X267.684
X267.57 Y300.809
X267.456 Y300.82
G3 X267.155 Y300.544 I-0.024 J-0.276
G1 Y300.023
G3 X267.456 Y299.747 I0.277 J0
G1 X267.57 Y299.758
X267.684 Y299.764
G3 X268.069 Y301.351 I0 J0.84
G2 X266.697 Y302.237 I3.86 J7.481
X266.096 Y303.481 I0.987 J1.244
G1 Y322.081
G2 X267.684 Y323.668 I1.587 J0
G1 X286.284
G2 X287.871 Y322.081 I0 J-1.587
G1 Y303.481
G2 X286.284 Y301.893 I-1.587 J0
G1 X267.684
G2 X266.697 Y302.237 I0 J1.587
G1 X266.647 Y302.27 Z-2.988 F600
X266.59 Y302.293 Z-2.976
X266.54 Y302.304 Z-2.941
X266.489 Y302.306 Z-2.907
X266.421 Y302.296 Z-2.804
X266.397 Y302.289 Z-2.683
Z5
G0 X266.646 Y274.125
G1 Z1.317 F300
X266.663 Y274.11 Z1.198
X266.713 Y274.066 Z1.097
X266.791 Y274.005 Z1.027
X266.889 Y273.939 Z1
G3 X268.475 Y276.504 Z0.835 I0.793 J1.283
X266.889 Y273.939 Z0.669 I-0.793 J-1.283
X268.475 Y276.504 Z0.504 I0.793 J1.283
X266.889 Y273.939 Z0.338 I-0.793 J-1.283
X268.475 Y276.504 Z0.173 I0.793 J1.283
X266.889 Y273.939 Z0.007 I-0.793 J-1.283
X268.475 Y276.504 Z-0.158 I0.793 J1.283
X266.889 Y273.939 Z-0.324 I-0.793 J-1.283
X268.475 Y276.504 Z-0.489 I0.793 J1.283
X266.889 Y273.939 Z-0.655 I-0.793 J-1.283
X268.475 Y276.504 Z-0.82 I0.793 J1.283
X266.889 Y273.939 Z-0.985 I-0.793 J-1.283
X268.475 Y276.504 Z-1.151 I0.793 J1.283
X266.889 Y273.939 Z-1.316 I-0.793 J-1.283
X268.475 Y276.504 Z-1.482 I0.793 J1.283
X266.889 Y273.939 Z-1.647 I-0.793 J-1.283
X268.475 Y276.504 Z-1.813 I0.793 J1.283
X266.889 Y273.939 Z-1.978 I-0.793 J-1.283
X268.475 Y276.504 Z-2.144 I0.793 J1.283
X266.889 Y273.939 Z-2.309 I-0.793 J-1.283
X268.475 Y276.504 Z-2.474 I0.793 J1.283
X266.889 Y273.939 Z-2.64 I-0.793 J-1.283
X268.475 Y276.504 Z-2.805 I0.793 J1.283
X266.889 Y273.939 Z-2.971 I-0.793 J-1.283
X267.682 Y273.714 Z-3 I0.793 J1.283
X267.684 Y275.803 I0.001 J1.045
G1 X267.57 Y275.809 F1000
X267.456 Y275.82
G3 X267.155 Y275.544 I-0.024 J-0.276
G1 Y275.023
G3 X267.456 Y274.747 I0.277 J0
G1 X267.57 Y274.758
X267.684 Y274.764
X286.284
X286.398 Y274.758
X286.513 Y274.747
G3 X286.813 Y275.023 I0.024 J0.276
G1 Y275.544
G3 X286.513 Y275.82 I-0.277 J0
G1 X286.398 Y275.809
X286.284 Y275.803
X267.684
G3 X266.711 Y275.733 I0 J-6.882
X266.072 Y274.996 I0.105 J-0.737
G1 Y251.868
X287.897
Y325.281
G2 X289.484 Y326.868 I1.587 J0
G1 X337.897
Y348.694
X266.072
Y274.996
X266.077 Y274.936 Z-2.988 F600
X266.094 Y274.878 Z-2.976
X266.117 Y274.832 Z-2.941
X266.148 Y274.79 Z-2.907
X266.198 Y274.743 Z-2.804
X266.217 Y274.729 Z-2.683
Z5
G0 X266.648 Y274.085
G1 Z1.317 F300
X266.665 Y274.07 Z1.198
X266.715 Y274.026 Z1.097
X266.793 Y273.965 Z1.027
X266.891 Y273.899 Z1
G3 X268.477 Y276.464 Z0.835 I0.793 J1.283
X266.891 Y273.899 Z0.669 I-0.793 J-1.283
X268.477 Y276.464 Z0.504 I0.793 J1.283
X266.891 Y273.899 Z0.338 I-0.793 J-1.283
X268.477 Y276.464 Z0.173 I0.793 J1.283
X266.891 Y273.899 Z0.007 I-0.793 J-1.283
X268.477 Y276.464 Z-0.158 I0.793 J1.283
X266.891 Y273.899 Z-0.324 I-0.793 J-1.283
X268.477 Y276.464 Z-0.489 I0.793 J1.283
X266.891 Y273.899 Z-0.655 I-0.793 J-1.283
X268.477 Y276.464 Z-0.82 I0.793 J1.283
X266.891 Y273.899 Z-0.985 I-0.793 J-1.283
X268.477 Y276.464 Z-1.151 I0.793 J1.283
X266.891 Y273.899 Z-1.316 I-0.793 J-1.283
X268.477 Y276.464 Z-1.482 I0.793 J1.283
X266.891 Y273.899 Z-1.647 I-0.793 J-1.283
X268.477 Y276.464 Z-1.813 I0.793 J1.283
X266.891 Y273.899 Z-1.978 I-0.793 J-1.283
X268.477 Y276.464 Z-2.144 I0.793 J1.283
X266.891 Y273.899 Z-2.309 I-0.793 J-1.283
X268.477 Y276.464 Z-2.474 I0.793 J1.283
X266.891 Y273.899 Z-2.64 I-0.793 J-1.283
X268.477 Y276.464 Z-2.805 I0.793 J1.283
X266.891 Y273.899 Z-2.971 I-0.793 J-1.283
X267.684 Y273.673 Z-3 I0.793 J1.283
G1 X286.284 F1000
G2 X287.871 Y272.086 I0 J-1.587
G1 Y253.481
G2 X286.284 Y251.893 I-1.587 J0
G1 X267.684
G2 X266.096 Y253.481 I0 J1.588
G1 Y272.086
G2 X267.684 Y273.673 I1.587 J0
G1 X267.744 Y273.679 Z-2.988 F600
X267.803 Y273.696 Z-2.976
X267.849 Y273.719 Z-2.941
X267.89 Y273.75 Z-2.907
X267.937 Y273.8 Z-2.804
X267.951 Y273.819 Z-2.683
Z5
G0 X268.72 Y276.482
G1 Z1.317 F300
X268.703 Y276.497 Z1.198
X268.653 Y276.541 Z1.097
X268.575 Y276.602 Z1.027
X268.477 Y276.668 Z1
G3 X266.891 Y274.103 Z0.835 I-0.793 J-1.283
X268.477 Y276.668 Z0.669 I0.793 J1.283
X266.891 Y274.103 Z0.504 I-0.793 J-1.283
X268.477 Y276.668 Z0.338 I0.793 J1.283
X266.891 Y274.103 Z0.173 I-0.793 J-1.283
X268.477 Y276.668 Z0.007 I0.793 J1.283
X266.891 Y274.103 Z-0.158 I-0.793 J-1.283
X268.477 Y276.668 Z-0.324 I0.793 J1.283
X266.891 Y274.103 Z-0.489 I-0.793 J-1.283
X268.477 Y276.668 Z-0.655 I0.793 J1.283
X266.891 Y274.103 Z-0.82 I-0.793 J-1.283
X268.477 Y276.668 Z-0.985 I0.793 J1.283
X266.891 Y274.103 Z-1.151 I-0.793 J-1.283
X268.477 Y276.668 Z-1.316 I0.793 J1.283
X266.891 Y274.103 Z-1.482 I-0.793 J-1.283
X268.477 Y276.668 Z-1.647 I0.793 J1.283
X266.891 Y274.103 Z-1.813 I-0.793 J-1.283
X268.477 Y276.668 Z-1.978 I0.793 J1.283
X266.891 Y274.103 Z-2.144 I-0.793 J-1.283
X268.477 Y276.668 Z-2.309 I0.793 J1.283
X266.891 Y274.103 Z-2.474 I-0.793 J-1.283
X268.477 Y276.668 Z-2.64 I0.793 J1.283
X266.891 Y274.103 Z-2.805 I-0.793 J-1.283
X268.477 Y276.668 Z-2.971 I0.793 J1.283
X267.684 Y276.893 Z-3 I-0.793 J-1.283
G2 X266.096 Y278.481 I0 J1.587 F1000
G1 Y297.086
G2 X267.684 Y298.673 I1.587 J0
G1 X286.284
G2 X287.871 Y297.086 I0 J-1.587
G1 Y278.481
G2 X286.284 Y276.893 I-1.587 J0
G1 X267.684
X267.624 Y276.888 Z-2.988 F600
X267.565 Y276.871 Z-2.976
X267.519 Y276.848 Z-2.941
X267.478 Y276.817 Z-2.907
X267.431 Y276.767 Z-2.804
X267.417 Y276.748 Z-2.683
Z5
G0 Z15
G0 X0 Y0
G90
M5
M30
