(PetitePlaque2)
(T1  D=3.175 CR=0 - ZMIN=-3 - fraise deux tailles)
G90 G94
G17
G21

(Poche 2D2 3)
S99999 M3
G54
G0 Z15
G0 X383.703 Y521.868
Z15
Z5
G1 Z2.817 F300
X383.686 Y521.883 Z2.698
X383.637 Y521.927 Z2.597
X383.559 Y521.988 Z2.527
X383.461 Y522.054 Z2.5
G3 X381.875 Y519.489 Z2.335 I-0.793 J-1.283
X383.461 Y522.054 Z2.169 I0.793 J1.283
X381.875 Y519.489 Z2.004 I-0.793 J-1.283
X383.461 Y522.054 Z1.838 I0.793 J1.283
X381.875 Y519.489 Z1.673 I-0.793 J-1.283
X383.461 Y522.054 Z1.507 I0.793 J1.283
X381.875 Y519.489 Z1.342 I-0.793 J-1.283
X383.461 Y522.054 Z1.176 I0.793 J1.283
X381.875 Y519.489 Z1.011 I-0.793 J-1.283
X383.461 Y522.054 Z0.845 I0.793 J1.283
X381.875 Y519.489 Z0.68 I-0.793 J-1.283
X383.461 Y522.054 Z0.515 I0.793 J1.283
X381.875 Y519.489 Z0.349 I-0.793 J-1.283
X383.461 Y522.054 Z0.184 I0.793 J1.283
X381.875 Y519.489 Z0.018 I-0.793 J-1.283
X383.461 Y522.054 Z-0.147 I0.793 J1.283
X381.875 Y519.489 Z-0.313 I-0.793 J-1.283
X383.461 Y522.054 Z-0.478 I0.793 J1.283
X381.875 Y519.489 Z-0.644 I-0.793 J-1.283
X383.461 Y522.054 Z-0.809 I0.793 J1.283
X381.875 Y519.489 Z-0.974 I-0.793 J-1.283
X383.461 Y522.054 Z-1.14 I0.793 J1.283
X381.875 Y519.489 Z-1.305 I-0.793 J-1.283
X383.461 Y522.054 Z-1.471 I0.793 J1.283
X382.668 Y522.279 Z-1.5 I-0.793 J-1.283
X381.624 Y521.234 I0.001 J-1.045
X382.67 Y520.19 I1.045 J0.001
G1 X401.27 F1000
X401.384 Y520.184
X401.499 Y520.173
G3 X401.799 Y520.449 I0.024 J0.276
G1 Y520.97
G3 X401.499 Y521.246 I-0.277 J0
G1 X401.384 Y521.235
X401.27 Y521.229
X382.67
X382.556 Y521.235
X382.441 Y521.246
G3 X382.141 Y520.97 I-0.024 J-0.276
G1 Y520.449
G3 X382.441 Y520.173 I0.277 J0
G1 X382.556 Y520.184
X382.67 Y520.19
G3 X383.055 Y521.777 I0 J0.84
G2 X381.683 Y522.663 I3.86 J7.481
X381.082 Y523.907 I0.987 J1.244
G1 Y542.512
G2 X382.67 Y544.099 I1.588 J0
G1 X401.27
G2 X402.858 Y542.512 I0 J-1.587
G1 Y523.907
G2 X401.27 Y522.32 I-1.588 J0
G1 X382.67
G2 X381.683 Y522.663 I0 J1.587
G1 X381.633 Y522.696 Z-1.488 F600
X381.576 Y522.719 Z-1.476
X381.526 Y522.73 Z-1.441
X381.475 Y522.732 Z-1.407
X381.407 Y522.722 Z-1.304
X381.383 Y522.715 Z-1.183
Z5
G0 X383.703 Y496.868
G1 Z2.817 F300
X383.686 Y496.883 Z2.698
X383.637 Y496.927 Z2.597
X383.559 Y496.988 Z2.527
X383.461 Y497.054 Z2.5
G3 X381.875 Y494.489 Z2.335 I-0.793 J-1.283
X383.461 Y497.054 Z2.169 I0.793 J1.283
X381.875 Y494.489 Z2.004 I-0.793 J-1.283
X383.461 Y497.054 Z1.838 I0.793 J1.283
X381.875 Y494.489 Z1.673 I-0.793 J-1.283
X383.461 Y497.054 Z1.507 I0.793 J1.283
X381.875 Y494.489 Z1.342 I-0.793 J-1.283
X383.461 Y497.054 Z1.176 I0.793 J1.283
X381.875 Y494.489 Z1.011 I-0.793 J-1.283
X383.461 Y497.054 Z0.845 I0.793 J1.283
X381.875 Y494.489 Z0.68 I-0.793 J-1.283
X383.461 Y497.054 Z0.515 I0.793 J1.283
X381.875 Y494.489 Z0.349 I-0.793 J-1.283
X383.461 Y497.054 Z0.184 I0.793 J1.283
X381.875 Y494.489 Z0.018 I-0.793 J-1.283
X383.461 Y497.054 Z-0.147 I0.793 J1.283
X381.875 Y494.489 Z-0.313 I-0.793 J-1.283
X383.461 Y497.054 Z-0.478 I0.793 J1.283
X381.875 Y494.489 Z-0.644 I-0.793 J-1.283
X383.461 Y497.054 Z-0.809 I0.793 J1.283
X381.875 Y494.489 Z-0.974 I-0.793 J-1.283
X383.461 Y497.054 Z-1.14 I0.793 J1.283
X381.875 Y494.488 Z-1.305 I-0.793 J-1.283
X383.461 Y497.054 Z-1.471 I0.793 J1.283
X382.668 Y497.279 Z-1.5 I-0.793 J-1.283
X381.624 Y496.234 I0.001 J-1.045
X382.67 Y495.19 I1.045 J0.001
G1 X401.27 F1000
X401.384 Y495.184
X401.499 Y495.173
G3 X401.799 Y495.449 I0.024 J0.276
G1 Y495.97
G3 X401.499 Y496.246 I-0.277 J0
G1 X401.384 Y496.235
X401.27 Y496.229
X382.67
X382.556 Y496.235
X382.441 Y496.246
G3 X382.141 Y495.97 I-0.024 J-0.276
G1 Y495.449
G3 X382.441 Y495.173 I0.277 J0
G1 X382.556 Y495.184
X382.67 Y495.19
G3 X383.055 Y496.777 I0 J0.84
G2 X381.683 Y497.663 I3.86 J7.481
X381.082 Y498.907 I0.987 J1.244
G1 Y517.512
G2 X382.67 Y519.099 I1.588 J0
G1 X401.27
G2 X402.858 Y517.512 I0 J-1.587
G1 Y498.907
G2 X401.27 Y497.319 I-1.588 J0
G1 X382.67
G2 X381.683 Y497.663 I0 J1.588
G1 X381.633 Y497.696 Z-1.488 F600
X381.576 Y497.719 Z-1.476
X381.526 Y497.73 Z-1.441
X381.475 Y497.732 Z-1.407
X381.407 Y497.722 Z-1.304
X381.383 Y497.715 Z-1.183
Z5
G0 X402.306 Y471.87
G1 Z2.817 F300
X402.289 Y471.886 Z2.698
X402.239 Y471.929 Z2.597
X402.161 Y471.991 Z2.527
X402.063 Y472.057 Z2.5
G3 X400.477 Y469.491 Z2.335 I-0.793 J-1.283
X402.063 Y472.057 Z2.169 I0.793 J1.283
X400.477 Y469.491 Z2.004 I-0.793 J-1.283
X402.063 Y472.057 Z1.838 I0.793 J1.283
X400.477 Y469.491 Z1.673 I-0.793 J-1.283
X402.063 Y472.057 Z1.507 I0.793 J1.283
X400.477 Y469.491 Z1.342 I-0.793 J-1.283
X402.063 Y472.057 Z1.176 I0.793 J1.283
X400.477 Y469.491 Z1.011 I-0.793 J-1.283
X402.063 Y472.057 Z0.845 I0.793 J1.283
X400.477 Y469.491 Z0.68 I-0.793 J-1.283
X402.063 Y472.057 Z0.515 I0.793 J1.283
X400.477 Y469.491 Z0.349 I-0.793 J-1.283
X402.063 Y472.057 Z0.184 I0.793 J1.283
X400.477 Y469.491 Z0.018 I-0.793 J-1.283
X402.063 Y472.057 Z-0.147 I0.793 J1.283
X400.477 Y469.491 Z-0.313 I-0.793 J-1.283
X402.063 Y472.057 Z-0.478 I0.793 J1.283
X400.477 Y469.491 Z-0.644 I-0.793 J-1.283
X402.063 Y472.057 Z-0.809 I0.793 J1.283
X400.477 Y469.491 Z-0.974 I-0.793 J-1.283
X402.063 Y472.057 Z-1.14 I0.793 J1.283
X400.477 Y469.491 Z-1.305 I-0.793 J-1.283
X402.063 Y472.057 Z-1.471 I0.793 J1.283
X401.27 Y472.282 Z-1.5 I-0.793 J-1.283
X401.27 Y470.192 I0 J-1.045
G1 X401.384 Y470.186 F1000
X401.497 Y470.175
G3 X401.797 Y470.451 I0.023 J0.276
G1 Y470.973
G3 X401.497 Y471.249 I-0.277 J0
G1 X401.384 Y471.238
X401.27 Y471.232
X382.67
X382.556 Y471.238
X382.443 Y471.249
G3 X382.143 Y470.973 I-0.023 J-0.276
G1 Y470.712
G2 X382.128 Y470.426 I-2.673 J0
G3 X382.384 Y470.17 I0.232 J-0.025
G1 X382.527 Y470.186
X382.598 Y470.192
X382.67 Y470.194
X401.27 Y470.192
X401.33 Y470.198 Z-1.488 F600
X401.389 Y470.215 Z-1.476
X401.435 Y470.238 Z-1.441
X401.476 Y470.268 Z-1.407
X401.523 Y470.318 Z-1.304
X401.537 Y470.338 Z-1.183
Z5
G0 X402.306 Y471.913
G1 Z2.817 F300
X402.289 Y471.928 Z2.698
X402.239 Y471.972 Z2.597
X402.161 Y472.033 Z2.527
X402.063 Y472.099 Z2.5
G3 X400.477 Y469.534 Z2.335 I-0.793 J-1.283
X402.063 Y472.099 Z2.169 I0.793 J1.283
X400.477 Y469.534 Z2.004 I-0.793 J-1.283
X402.063 Y472.099 Z1.838 I0.793 J1.283
X400.477 Y469.534 Z1.673 I-0.793 J-1.283
X402.063 Y472.099 Z1.507 I0.793 J1.283
X400.477 Y469.534 Z1.342 I-0.793 J-1.283
X402.063 Y472.099 Z1.176 I0.793 J1.283
X400.477 Y469.534 Z1.011 I-0.793 J-1.283
X402.063 Y472.099 Z0.845 I0.793 J1.283
X400.477 Y469.534 Z0.68 I-0.793 J-1.283
X402.063 Y472.099 Z0.515 I0.793 J1.283
X400.477 Y469.534 Z0.349 I-0.793 J-1.283
X402.063 Y472.099 Z0.184 I0.793 J1.283
X400.477 Y469.534 Z0.018 I-0.793 J-1.283
X402.063 Y472.099 Z-0.147 I0.793 J1.283
X400.477 Y469.534 Z-0.313 I-0.793 J-1.283
X402.063 Y472.099 Z-0.478 I0.793 J1.283
X400.477 Y469.534 Z-0.644 I-0.793 J-1.283
X402.063 Y472.099 Z-0.809 I0.793 J1.283
X400.477 Y469.534 Z-0.974 I-0.793 J-1.283
X402.063 Y472.099 Z-1.14 I0.793 J1.283
X400.477 Y469.534 Z-1.305 I-0.793 J-1.283
X402.063 Y472.099 Z-1.471 I0.793 J1.283
X401.27 Y472.324 Z-1.5 I-0.793 J-1.283
G1 X382.67 F1000
G2 X381.082 Y473.912 I0 J1.587
G1 Y492.512
G2 X382.67 Y494.099 I1.588 J0
G1 X401.27
G2 X402.858 Y492.512 I0 J-1.587
G1 Y473.912
G2 X401.27 Y472.324 I-1.588 J0
G1 X401.21 Y472.319 Z-1.488 F600
X401.151 Y472.302 Z-1.476
X401.105 Y472.279 Z-1.441
X401.064 Y472.248 Z-1.407
X401.017 Y472.198 Z-1.304
X401.003 Y472.179 Z-1.183
Z5
G0 X378.312 Y468.548
G1 Z2.817 F300
X378.296 Y468.531 Z2.698
X378.253 Y468.481 Z2.597
X378.191 Y468.403 Z2.527
X378.125 Y468.305 Z2.5
G3 X380.691 Y466.719 Z2.335 I1.283 J-0.793
X378.125 Y468.305 Z2.169 I-1.283 J0.793
X380.691 Y466.719 Z2.004 I1.283 J-0.793
X378.125 Y468.305 Z1.838 I-1.283 J0.793
X380.691 Y466.719 Z1.673 I1.283 J-0.793
X378.125 Y468.305 Z1.507 I-1.283 J0.793
X380.691 Y466.719 Z1.342 I1.283 J-0.793
X378.125 Y468.305 Z1.176 I-1.283 J0.793
X380.691 Y466.719 Z1.011 I1.283 J-0.793
X378.125 Y468.305 Z0.845 I-1.283 J0.793
X380.691 Y466.719 Z0.68 I1.283 J-0.793
X378.125 Y468.305 Z0.515 I-1.283 J0.793
X380.691 Y466.719 Z0.349 I1.283 J-0.793
X378.125 Y468.305 Z0.184 I-1.283 J0.793
X380.691 Y466.719 Z0.018 I1.283 J-0.793
X378.125 Y468.305 Z-0.147 I-1.283 J0.793
X380.691 Y466.719 Z-0.313 I1.283 J-0.793
X378.125 Y468.305 Z-0.478 I-1.283 J0.793
X380.691 Y466.719 Z-0.644 I1.283 J-0.793
X378.125 Y468.305 Z-0.809 I-1.283 J0.793
X380.691 Y466.719 Z-0.974 I1.283 J-0.793
X378.125 Y468.305 Z-1.14 I-1.283 J0.793
X380.691 Y466.719 Z-1.305 I1.283 J-0.793
X378.125 Y468.305 Z-1.471 I-1.283 J0.793
X377.9 Y467.512 Z-1.5 I1.283 J-0.793
X379.988 Y467.512 I1.044 J0
G1 X379.99 Y467.584 F1000
X379.996 Y467.655
X380.012 Y467.798
G3 X379.756 Y468.054 I-0.232 J0.025
G2 X379.47 Y468.039 I-0.286 J2.658
G1 X379.209
G3 X378.933 Y467.739 I0 J-0.277
G1 X378.944 Y467.626
X378.95 Y467.512
Y448.912
X378.944 Y448.798
X378.933 Y448.685
G3 X379.209 Y448.385 I0.276 J-0.023
G1 X379.731
G3 X380.007 Y448.685 I0 J0.277
G1 X379.996 Y448.798
X379.99 Y448.912
X379.988 Y467.512
G2 X380.743 Y468.441 I0.95 J0
G3 X381.858 Y468.876 I-0.748 J3.567
G2 X382.67 Y469.099 I0.812 J-1.364
G1 X401.27
G2 X402.858 Y467.512 I0 J-1.587
G1 Y448.912
G2 X401.27 Y447.324 I-1.588 J0
G1 X382.67
G2 X381.082 Y448.912 I0 J1.587
G1 Y467.512
G2 X381.858 Y468.876 I1.588 J0
G1 X381.907 Y468.912 Z-1.488 F600
X381.948 Y468.957 Z-1.476
X381.976 Y469 Z-1.441
X381.997 Y469.047 Z-1.407
X382.011 Y469.114 Z-1.304
X382.013 Y469.138 Z-1.183
Z5
G0 X355.628 Y447.876
G1 Z2.817 F300
X355.644 Y447.893 Z2.698
X355.687 Y447.943 Z2.597
X355.749 Y448.021 Z2.527
X355.815 Y448.119 Z2.5
G3 X353.249 Y449.705 Z2.335 I-1.283 J0.793
X355.815 Y448.119 Z2.169 I1.283 J-0.793
X353.249 Y449.705 Z2.004 I-1.283 J0.793
X355.815 Y448.119 Z1.838 I1.283 J-0.793
X353.249 Y449.705 Z1.673 I-1.283 J0.793
X355.815 Y448.119 Z1.507 I1.283 J-0.793
X353.249 Y449.705 Z1.342 I-1.283 J0.793
X355.815 Y448.119 Z1.176 I1.283 J-0.793
X353.249 Y449.705 Z1.011 I-1.283 J0.793
X355.815 Y448.119 Z0.845 I1.283 J-0.793
X353.249 Y449.705 Z0.68 I-1.283 J0.793
X355.815 Y448.119 Z0.515 I1.283 J-0.793
X353.249 Y449.705 Z0.349 I-1.283 J0.793
X355.815 Y448.119 Z0.184 I1.283 J-0.793
X353.249 Y449.705 Z0.018 I-1.283 J0.793
X355.815 Y448.119 Z-0.147 I1.283 J-0.793
X353.249 Y449.705 Z-0.313 I-1.283 J0.793
X355.815 Y448.119 Z-0.478 I1.283 J-0.793
X353.249 Y449.705 Z-0.644 I-1.283 J0.793
X355.815 Y448.119 Z-0.809 I1.283 J-0.793
X353.249 Y449.705 Z-0.974 I-1.283 J0.793
X355.815 Y448.119 Z-1.14 I1.283 J-0.793
X353.249 Y449.705 Z-1.305 I-1.283 J0.793
X355.815 Y448.119 Z-1.471 I1.283 J-0.793
X356.04 Y448.912 Z-1.5 I-1.283 J0.793
X353.95 Y448.912 I-1.045 J0
G1 X353.944 Y448.798 F1000
X353.933 Y448.685
G3 X354.209 Y448.385 I0.276 J-0.023
G1 X354.731
G3 X355.007 Y448.685 I0 J0.277
G1 X354.996 Y448.798
X354.99 Y448.912
Y467.512
X354.996 Y467.626
X355.007 Y467.739
G3 X354.731 Y468.039 I-0.276 J0.023
G1 X354.209
G3 X353.933 Y467.739 I0 J-0.277
G1 X353.944 Y467.626
X353.95 Y467.512
Y448.912
G2 X353.197 Y447.984 I-0.948 J0
G3 X352.084 Y447.549 I0.744 J-3.543
G2 X351.27 Y447.324 I-0.814 J1.363
G1 X332.67
G2 X331.082 Y448.912 I0 J1.587
G1 Y467.512
G2 X332.67 Y469.099 I1.588 J0
G1 X351.27
G2 X352.858 Y467.512 I0 J-1.587
G1 Y448.912
G2 X352.084 Y447.549 I-1.588 J0
G1 X351.978 Y447.491 Z-1.476 F600
X351.884 Y447.448 Z-1.407
X351.82 Y447.423 Z-1.304
X351.797 Y447.415 Z-1.183
Z5
G0 X353.434 Y447.711
G1 Z2.817 F300
X353.451 Y447.696 Z2.698
X353.501 Y447.652 Z2.597
X353.579 Y447.591 Z2.527
X353.677 Y447.525 Z2.5
G3 X355.263 Y450.09 Z2.335 I0.793 J1.283
X353.677 Y447.525 Z2.169 I-0.793 J-1.283
X355.263 Y450.09 Z2.004 I0.793 J1.283
X353.677 Y447.525 Z1.838 I-0.793 J-1.283
X355.263 Y450.09 Z1.673 I0.793 J1.283
X353.677 Y447.525 Z1.507 I-0.793 J-1.283
X355.263 Y450.09 Z1.342 I0.793 J1.283
X353.677 Y447.525 Z1.176 I-0.793 J-1.283
X355.263 Y450.09 Z1.011 I0.793 J1.283
X353.677 Y447.525 Z0.845 I-0.793 J-1.283
X355.263 Y450.09 Z0.68 I0.793 J1.283
X353.677 Y447.525 Z0.515 I-0.793 J-1.283
X355.263 Y450.09 Z0.349 I0.793 J1.283
X353.677 Y447.525 Z0.184 I-0.793 J-1.283
X355.263 Y450.09 Z0.018 I0.793 J1.283
X353.677 Y447.525 Z-0.147 I-0.793 J-1.283
X355.263 Y450.09 Z-0.313 I0.793 J1.283
X353.677 Y447.525 Z-0.478 I-0.793 J-1.283
X355.263 Y450.09 Z-0.644 I0.793 J1.283
X353.677 Y447.525 Z-0.809 I-0.793 J-1.283
X355.263 Y450.09 Z-0.974 I0.793 J1.283
X353.677 Y447.525 Z-1.14 I-0.793 J-1.283
X355.263 Y450.09 Z-1.305 I0.793 J1.283
X353.677 Y447.525 Z-1.471 I-0.793 J-1.283
X354.47 Y447.299 Z-1.5 I0.793 J1.283
G1 X402.883 F1000
Y544.125
X381.057
Y470.712
G2 X379.47 Y469.125 I-1.587 J0
G1 X331.057
Y447.299
X354.47
X354.53 Y447.305 Z-1.488 F600
X354.589 Y447.322 Z-1.476
X354.635 Y447.345 Z-1.441
X354.676 Y447.376 Z-1.407
X354.723 Y447.426 Z-1.304
X354.737 Y447.445 Z-1.183
Z5
G0 X355.671 Y447.876
G1 Z2.817 F300
X355.686 Y447.893 Z2.698
X355.73 Y447.943 Z2.597
X355.791 Y448.021 Z2.527
X355.857 Y448.119 Z2.5
G3 X353.292 Y449.705 Z2.335 I-1.283 J0.793
X355.857 Y448.119 Z2.169 I1.283 J-0.793
X353.292 Y449.705 Z2.004 I-1.283 J0.793
X355.857 Y448.119 Z1.838 I1.283 J-0.793
X353.292 Y449.705 Z1.673 I-1.283 J0.793
X355.857 Y448.119 Z1.507 I1.283 J-0.793
X353.292 Y449.705 Z1.342 I-1.283 J0.793
X355.857 Y448.119 Z1.176 I1.283 J-0.793
X353.292 Y449.705 Z1.011 I-1.283 J0.793
X355.857 Y448.119 Z0.845 I1.283 J-0.793
X353.292 Y449.705 Z0.68 I-1.283 J0.793
X355.857 Y448.119 Z0.515 I1.283 J-0.793
X353.292 Y449.705 Z0.349 I-1.283 J0.793
X355.857 Y448.119 Z0.184 I1.283 J-0.793
X353.292 Y449.705 Z0.018 I-1.283 J0.793
X355.857 Y448.119 Z-0.147 I1.283 J-0.793
X353.292 Y449.705 Z-0.313 I-1.283 J0.793
X355.857 Y448.119 Z-0.478 I1.283 J-0.793
X353.292 Y449.705 Z-0.644 I-1.283 J0.793
X355.857 Y448.119 Z-0.809 I1.283 J-0.793
X353.292 Y449.705 Z-0.974 I-1.283 J0.793
X355.857 Y448.119 Z-1.14 I1.283 J-0.793
X353.292 Y449.705 Z-1.305 I-1.283 J0.793
X355.857 Y448.119 Z-1.471 I1.283 J-0.793
X356.082 Y448.912 Z-1.5 I-1.283 J0.793
G1 Y467.512 F1000
G2 X357.67 Y469.099 I1.588 J0
G1 X376.27
G2 X377.858 Y467.512 I0 J-1.587
G1 Y448.912
G2 X376.27 Y447.324 I-1.588 J0
G1 X357.67
G2 X356.082 Y448.912 I0 J1.587
G1 X356.077 Y448.972 Z-1.488 F600
X356.06 Y449.031 Z-1.476
X356.037 Y449.077 Z-1.441
X356.006 Y449.118 Z-1.407
X355.956 Y449.165 Z-1.304
X355.937 Y449.179 Z-1.183
Z5
G0 X355.628 Y447.876
G1 Z1.317 F300
X355.644 Y447.893 Z1.198
X355.687 Y447.943 Z1.097
X355.749 Y448.021 Z1.027
X355.815 Y448.119 Z1
G3 X353.249 Y449.705 Z0.835 I-1.283 J0.793
X355.815 Y448.119 Z0.669 I1.283 J-0.793
X353.249 Y449.705 Z0.504 I-1.283 J0.793
X355.815 Y448.119 Z0.338 I1.283 J-0.793
X353.249 Y449.705 Z0.173 I-1.283 J0.793
X355.815 Y448.119 Z0.007 I1.283 J-0.793
X353.249 Y449.705 Z-0.158 I-1.283 J0.793
X355.815 Y448.119 Z-0.324 I1.283 J-0.793
X353.249 Y449.705 Z-0.489 I-1.283 J0.793
X355.815 Y448.119 Z-0.655 I1.283 J-0.793
X353.249 Y449.705 Z-0.82 I-1.283 J0.793
X355.815 Y448.119 Z-0.985 I1.283 J-0.793
X353.249 Y449.705 Z-1.151 I-1.283 J0.793
X355.815 Y448.119 Z-1.316 I1.283 J-0.793
X353.249 Y449.705 Z-1.482 I-1.283 J0.793
X355.815 Y448.119 Z-1.647 I1.283 J-0.793
X353.249 Y449.705 Z-1.813 I-1.283 J0.793
X355.815 Y448.119 Z-1.978 I1.283 J-0.793
X353.249 Y449.705 Z-2.144 I-1.283 J0.793
X355.815 Y448.119 Z-2.309 I1.283 J-0.793
X353.249 Y449.705 Z-2.474 I-1.283 J0.793
X355.815 Y448.119 Z-2.64 I1.283 J-0.793
X353.249 Y449.705 Z-2.805 I-1.283 J0.793
X355.815 Y448.119 Z-2.971 I1.283 J-0.793
X356.04 Y448.912 Z-3 I-1.283 J0.793
X353.95 Y448.912 I-1.045 J0
G1 X353.944 Y448.798 F1000
X353.933 Y448.685
G3 X354.209 Y448.385 I0.276 J-0.023
G1 X354.731
G3 X355.007 Y448.685 I0 J0.277
G1 X354.996 Y448.798
X354.99 Y448.912
Y467.512
X354.996 Y467.626
X355.007 Y467.739
G3 X354.731 Y468.039 I-0.276 J0.023
G1 X354.209
G3 X353.933 Y467.739 I0 J-0.277
G1 X353.944 Y467.626
X353.95 Y467.512
Y448.912
G2 X353.197 Y447.984 I-0.948 J0
G3 X352.084 Y447.549 I0.744 J-3.543
G2 X351.27 Y447.324 I-0.814 J1.363
G1 X332.67
G2 X331.082 Y448.912 I0 J1.587
G1 Y467.512
G2 X332.67 Y469.099 I1.588 J0
G1 X351.27
G2 X352.858 Y467.512 I0 J-1.587
G1 Y448.912
G2 X352.084 Y447.549 I-1.588 J0
G1 X351.978 Y447.491 Z-2.976 F600
X351.884 Y447.448 Z-2.907
X351.82 Y447.423 Z-2.804
X351.797 Y447.415 Z-2.683
Z5
G0 X378.312 Y468.548
G1 Z1.317 F300
X378.296 Y468.531 Z1.198
X378.253 Y468.481 Z1.097
X378.191 Y468.403 Z1.027
X378.125 Y468.305 Z1
G3 X380.691 Y466.719 Z0.835 I1.283 J-0.793
X378.125 Y468.305 Z0.669 I-1.283 J0.793
X380.691 Y466.719 Z0.504 I1.283 J-0.793
X378.125 Y468.305 Z0.338 I-1.283 J0.793
X380.691 Y466.719 Z0.173 I1.283 J-0.793
X378.125 Y468.305 Z0.007 I-1.283 J0.793
X380.691 Y466.719 Z-0.158 I1.283 J-0.793
X378.125 Y468.305 Z-0.324 I-1.283 J0.793
X380.691 Y466.719 Z-0.489 I1.283 J-0.793
X378.125 Y468.305 Z-0.655 I-1.283 J0.793
X380.691 Y466.719 Z-0.82 I1.283 J-0.793
X378.125 Y468.305 Z-0.985 I-1.283 J0.793
X380.691 Y466.719 Z-1.151 I1.283 J-0.793
X378.125 Y468.305 Z-1.316 I-1.283 J0.793
X380.691 Y466.719 Z-1.482 I1.283 J-0.793
X378.125 Y468.305 Z-1.647 I-1.283 J0.793
X380.691 Y466.719 Z-1.813 I1.283 J-0.793
X378.125 Y468.305 Z-1.978 I-1.283 J0.793
X380.691 Y466.719 Z-2.144 I1.283 J-0.793
X378.125 Y468.305 Z-2.309 I-1.283 J0.793
X380.691 Y466.719 Z-2.474 I1.283 J-0.793
X378.125 Y468.305 Z-2.64 I-1.283 J0.793
X380.691 Y466.719 Z-2.805 I1.283 J-0.793
X378.125 Y468.305 Z-2.971 I-1.283 J0.793
X377.9 Y467.512 Z-3 I1.283 J-0.793
X379.988 Y467.512 I1.044 J0
G1 X379.99 Y467.584 F1000
X379.996 Y467.655
X380.012 Y467.798
G3 X379.756 Y468.054 I-0.232 J0.025
G2 X379.47 Y468.039 I-0.286 J2.658
G1 X379.209
G3 X378.933 Y467.739 I0 J-0.277
G1 X378.944 Y467.626
X378.95 Y467.512
Y448.912
X378.944 Y448.798
X378.933 Y448.685
G3 X379.209 Y448.385 I0.276 J-0.023
G1 X379.731
G3 X380.007 Y448.685 I0 J0.277
G1 X379.996 Y448.798
X379.99 Y448.912
X379.988 Y467.512
G3 X378.39 Y468.045 I-0.888 J0
X377.858 Y466.447 I2.13 J-1.598
G1 Y448.912
G2 X376.27 Y447.324 I-1.588 J0
G1 X357.67
G2 X356.082 Y448.912 I0 J1.587
G1 Y467.512
G2 X357.67 Y469.099 I1.588 J0
G1 X376.27
G2 X377.858 Y467.512 I0 J-1.587
G1 Y466.447
X377.863 Y466.386 Z-2.988 F600
X377.88 Y466.328 Z-2.976
X377.903 Y466.282 Z-2.941
X377.934 Y466.24 Z-2.907
X377.984 Y466.193 Z-2.804
X378.003 Y466.179 Z-2.683
Z5
G0 X402.306 Y471.87
G1 Z1.317 F300
X402.289 Y471.886 Z1.198
X402.239 Y471.929 Z1.097
X402.161 Y471.991 Z1.027
X402.063 Y472.057 Z1
G3 X400.477 Y469.491 Z0.835 I-0.793 J-1.283
X402.063 Y472.057 Z0.669 I0.793 J1.283
X400.477 Y469.491 Z0.504 I-0.793 J-1.283
X402.063 Y472.057 Z0.338 I0.793 J1.283
X400.477 Y469.491 Z0.173 I-0.793 J-1.283
X402.063 Y472.057 Z0.007 I0.793 J1.283
X400.477 Y469.491 Z-0.158 I-0.793 J-1.283
X402.063 Y472.057 Z-0.324 I0.793 J1.283
X400.477 Y469.491 Z-0.489 I-0.793 J-1.283
X402.063 Y472.057 Z-0.655 I0.793 J1.283
X400.477 Y469.491 Z-0.82 I-0.793 J-1.283
X402.063 Y472.057 Z-0.985 I0.793 J1.283
X400.477 Y469.491 Z-1.151 I-0.793 J-1.283
X402.063 Y472.057 Z-1.316 I0.793 J1.283
X400.477 Y469.491 Z-1.482 I-0.793 J-1.283
X402.063 Y472.057 Z-1.647 I0.793 J1.283
X400.477 Y469.491 Z-1.813 I-0.793 J-1.283
X402.063 Y472.057 Z-1.978 I0.793 J1.283
X400.477 Y469.491 Z-2.144 I-0.793 J-1.283
X402.063 Y472.057 Z-2.309 I0.793 J1.283
X400.477 Y469.491 Z-2.474 I-0.793 J-1.283
X402.063 Y472.057 Z-2.64 I0.793 J1.283
X400.477 Y469.491 Z-2.805 I-0.793 J-1.283
X402.063 Y472.057 Z-2.971 I0.793 J1.283
X401.27 Y472.282 Z-3 I-0.793 J-1.283
X401.27 Y470.192 I0 J-1.045
G1 X401.384 Y470.186 F1000
X401.497 Y470.175
G3 X401.797 Y470.451 I0.023 J0.276
G1 Y470.973
G3 X401.497 Y471.249 I-0.277 J0
G1 X401.384 Y471.238
X401.27 Y471.232
X382.67
X382.556 Y471.238
X382.443 Y471.249
G3 X382.143 Y470.973 I-0.023 J-0.276
G1 Y470.712
G2 X382.128 Y470.426 I-2.673 J0
G3 X382.384 Y470.17 I0.232 J-0.025
G1 X382.527 Y470.186
X382.598 Y470.192
X382.67 Y470.194
X401.27 Y470.192
G2 X402.198 Y469.439 I0 J-0.948
G3 X402.633 Y468.326 I3.543 J0.744
G2 X402.858 Y467.512 I-1.363 J-0.814
G1 Y448.912
G2 X401.27 Y447.324 I-1.588 J0
G1 X382.67
G2 X381.082 Y448.912 I0 J1.587
G1 Y467.512
G2 X382.67 Y469.099 I1.588 J0
G1 X401.27
G2 X402.633 Y468.326 I0 J-1.587
G1 X402.691 Y468.22 Z-2.976 F600
X402.734 Y468.126 Z-2.907
X402.759 Y468.062 Z-2.804
X402.767 Y468.039 Z-2.683
Z5
G0 X402.308 Y496.868
G1 Z1.317 F300
X402.291 Y496.883 Z1.198
X402.241 Y496.927 Z1.097
X402.163 Y496.988 Z1.027
X402.065 Y497.054 Z1
G3 X400.479 Y494.489 Z0.835 I-0.793 J-1.283
X402.065 Y497.054 Z0.669 I0.793 J1.283
X400.479 Y494.489 Z0.504 I-0.793 J-1.283
X402.065 Y497.054 Z0.338 I0.793 J1.283
X400.479 Y494.489 Z0.173 I-0.793 J-1.283
X402.065 Y497.054 Z0.007 I0.793 J1.283
X400.479 Y494.489 Z-0.158 I-0.793 J-1.283
X402.065 Y497.054 Z-0.324 I0.793 J1.283
X400.479 Y494.489 Z-0.489 I-0.793 J-1.283
X402.065 Y497.054 Z-0.655 I0.793 J1.283
X400.479 Y494.489 Z-0.82 I-0.793 J-1.283
X402.065 Y497.054 Z-0.985 I0.793 J1.283
X400.479 Y494.489 Z-1.151 I-0.793 J-1.283
X402.065 Y497.054 Z-1.316 I0.793 J1.283
X400.479 Y494.489 Z-1.482 I-0.793 J-1.283
X402.065 Y497.054 Z-1.647 I0.793 J1.283
X400.479 Y494.489 Z-1.813 I-0.793 J-1.283
X402.065 Y497.054 Z-1.978 I0.793 J1.283
X400.479 Y494.489 Z-2.144 I-0.793 J-1.283
X402.065 Y497.054 Z-2.309 I0.793 J1.283
X400.479 Y494.489 Z-2.474 I-0.793 J-1.283
X402.065 Y497.054 Z-2.64 I0.793 J1.283
X400.479 Y494.489 Z-2.805 I-0.793 J-1.283
X402.065 Y497.054 Z-2.971 I0.793 J1.283
X401.272 Y497.279 Z-3 I-0.793 J-1.283
X401.27 Y495.19 I-0.001 J-1.045
G1 X401.384 Y495.184 F1000
X401.499 Y495.173
G3 X401.799 Y495.449 I0.024 J0.276
G1 Y495.97
G3 X401.499 Y496.246 I-0.277 J0
G1 X401.384 Y496.235
X401.27 Y496.229
X382.67
X382.556 Y496.235
X382.441 Y496.246
G3 X382.141 Y495.97 I-0.024 J-0.276
G1 Y495.449
G3 X382.441 Y495.173 I0.277 J0
G1 X382.556 Y495.184
X382.67 Y495.19
X401.27
G2 X402.196 Y494.439 I0 J-0.946
G3 X402.632 Y493.328 I3.524 J0.741
G2 X402.858 Y492.512 I-1.362 J-0.816
G1 Y473.912
G2 X401.27 Y472.324 I-1.588 J0
G1 X382.67
G2 X381.082 Y473.912 I0 J1.587
G1 Y492.512
G2 X382.67 Y494.099 I1.588 J0
G1 X401.27
G2 X402.632 Y493.328 I0 J-1.587
G1 X402.69 Y493.222 Z-2.976 F600
X402.733 Y493.128 Z-2.907
X402.758 Y493.064 Z-2.804
X402.767 Y493.042 Z-2.683
Z5
G0 X400.237 Y519.551
G1 Z1.317 F300
X400.254 Y519.536 Z1.198
X400.303 Y519.492 Z1.097
X400.381 Y519.431 Z1.027
X400.479 Y519.365 Z1
G3 X402.065 Y521.93 Z0.835 I0.793 J1.283
X400.479 Y519.365 Z0.669 I-0.793 J-1.283
X402.065 Y521.93 Z0.504 I0.793 J1.283
X400.479 Y519.365 Z0.338 I-0.793 J-1.283
X402.065 Y521.93 Z0.173 I0.793 J1.283
X400.479 Y519.365 Z0.007 I-0.793 J-1.283
X402.065 Y521.93 Z-0.158 I0.793 J1.283
X400.479 Y519.365 Z-0.324 I-0.793 J-1.283
X402.065 Y521.93 Z-0.489 I0.793 J1.283
X400.479 Y519.365 Z-0.655 I-0.793 J-1.283
X402.065 Y521.93 Z-0.82 I0.793 J1.283
X400.479 Y519.365 Z-0.985 I-0.793 J-1.283
X402.065 Y521.93 Z-1.151 I0.793 J1.283
X400.479 Y519.365 Z-1.316 I-0.793 J-1.283
X402.065 Y521.93 Z-1.482 I0.793 J1.283
X400.479 Y519.365 Z-1.647 I-0.793 J-1.283
X402.065 Y521.93 Z-1.813 I0.793 J1.283
X400.479 Y519.365 Z-1.978 I-0.793 J-1.283
X402.065 Y521.93 Z-2.144 I0.793 J1.283
X400.479 Y519.365 Z-2.309 I-0.793 J-1.283
X402.065 Y521.93 Z-2.474 I0.793 J1.283
X400.479 Y519.365 Z-2.64 I-0.793 J-1.283
X402.065 Y521.93 Z-2.805 I0.793 J1.283
X400.479 Y519.365 Z-2.971 I-0.793 J-1.283
X401.272 Y519.14 Z-3 I0.793 J1.283
X402.316 Y520.185 I-0.001 J1.044
X401.27 Y521.229 I-1.045 J-0.001
G1 X382.67 F1000
X382.556 Y521.235
X382.441 Y521.246
G3 X382.141 Y520.97 I-0.024 J-0.276
G1 Y520.449
G3 X382.441 Y520.173 I0.277 J0
G1 X382.556 Y520.184
X382.67 Y520.19
X401.27
X401.384 Y520.184
X401.499 Y520.173
G3 X401.799 Y520.449 I0.024 J0.276
G1 Y520.97
G3 X401.499 Y521.246 I-0.277 J0
G1 X401.384 Y521.235
X401.27 Y521.229
G2 X400.452 Y521.774 I0 J0.886
G3 X399.634 Y522.32 I-0.818 J-0.341
G1 X382.67
G2 X381.082 Y523.907 I0 J1.587
G1 Y542.512
G2 X382.67 Y544.099 I1.588 J0
G1 X401.27
G2 X402.858 Y542.512 I0 J-1.587
G1 Y523.907
G2 X401.27 Y522.32 I-1.588 J0
G1 X399.634
X399.573 Y522.314 Z-2.988 F600
X399.515 Y522.297 Z-2.976
X399.469 Y522.274 Z-2.941
X399.427 Y522.243 Z-2.907
X399.38 Y522.193 Z-2.804
X399.367 Y522.174 Z-2.683
Z5
G0 X400.234 Y519.511
G1 Z1.317 F300
X400.251 Y519.495 Z1.198
X400.301 Y519.452 Z1.097
X400.379 Y519.391 Z1.027
X400.477 Y519.325 Z1
G3 X402.063 Y521.89 Z0.835 I0.793 J1.283
X400.477 Y519.325 Z0.669 I-0.793 J-1.283
X402.063 Y521.89 Z0.504 I0.793 J1.283
X400.477 Y519.325 Z0.338 I-0.793 J-1.283
X402.063 Y521.89 Z0.173 I0.793 J1.283
X400.477 Y519.325 Z0.007 I-0.793 J-1.283
X402.063 Y521.89 Z-0.158 I0.793 J1.283
X400.477 Y519.325 Z-0.324 I-0.793 J-1.283
X402.063 Y521.89 Z-0.489 I0.793 J1.283
X400.477 Y519.325 Z-0.655 I-0.793 J-1.283
X402.063 Y521.89 Z-0.82 I0.793 J1.283
X400.477 Y519.325 Z-0.985 I-0.793 J-1.283
X402.063 Y521.89 Z-1.151 I0.793 J1.283
X400.477 Y519.325 Z-1.316 I-0.793 J-1.283
X402.063 Y521.89 Z-1.482 I0.793 J1.283
X400.477 Y519.325 Z-1.647 I-0.793 J-1.283
X402.063 Y521.89 Z-1.813 I0.793 J1.283
X400.477 Y519.325 Z-1.978 I-0.793 J-1.283
X402.063 Y521.89 Z-2.144 I0.793 J1.283
X400.477 Y519.325 Z-2.309 I-0.793 J-1.283
X402.063 Y521.89 Z-2.474 I0.793 J1.283
X400.477 Y519.325 Z-2.64 I-0.793 J-1.283
X402.063 Y521.89 Z-2.805 I0.793 J1.283
X400.477 Y519.325 Z-2.971 I-0.793 J-1.283
X401.27 Y519.099 Z-3 I0.793 J1.283
G2 X402.858 Y517.512 I0 J-1.587 F1000
G1 Y498.907
G2 X401.27 Y497.319 I-1.588 J0
G1 X382.67
G2 X381.082 Y498.907 I0 J1.588
G1 Y517.512
G2 X382.67 Y519.099 I1.588 J0
G1 X401.27
X401.33 Y519.105 Z-2.988 F600
X401.389 Y519.122 Z-2.976
X401.435 Y519.145 Z-2.941
X401.476 Y519.176 Z-2.907
X401.523 Y519.226 Z-2.804
X401.537 Y519.245 Z-2.683
Z5
G0 X402.471 Y519.674
G1 Z1.317 F300
X402.486 Y519.691 Z1.198
X402.53 Y519.74 Z1.097
X402.591 Y519.819 Z1.027
X402.657 Y519.916 Z1
G3 X400.092 Y521.503 Z0.835 I-1.283 J0.793
X402.657 Y519.916 Z0.669 I1.283 J-0.793
X400.092 Y521.503 Z0.504 I-1.283 J0.793
X402.657 Y519.916 Z0.338 I1.283 J-0.793
X400.092 Y521.503 Z0.173 I-1.283 J0.793
X402.657 Y519.916 Z0.007 I1.283 J-0.793
X400.092 Y521.503 Z-0.158 I-1.283 J0.793
X402.657 Y519.916 Z-0.324 I1.283 J-0.793
X400.092 Y521.503 Z-0.489 I-1.283 J0.793
X402.657 Y519.916 Z-0.655 I1.283 J-0.793
X400.092 Y521.503 Z-0.82 I-1.283 J0.793
X402.657 Y519.916 Z-0.985 I1.283 J-0.793
X400.092 Y521.503 Z-1.151 I-1.283 J0.793
X402.657 Y519.916 Z-1.316 I1.283 J-0.793
X400.092 Y521.503 Z-1.482 I-1.283 J0.793
X402.657 Y519.916 Z-1.647 I1.283 J-0.793
X400.092 Y521.503 Z-1.813 I-1.283 J0.793
X402.657 Y519.916 Z-1.978 I1.283 J-0.793
X400.092 Y521.503 Z-2.144 I-1.283 J0.793
X402.657 Y519.916 Z-2.309 I1.283 J-0.793
X400.092 Y521.503 Z-2.474 I-1.283 J0.793
X402.657 Y519.916 Z-2.64 I1.283 J-0.793
X400.092 Y521.503 Z-2.805 I-1.283 J0.793
X402.657 Y519.916 Z-2.971 I1.283 J-0.793
X402.883 Y520.709 Z-3 I-1.283 J0.793
G1 Y544.125 F1000
X381.057
Y470.712
G2 X379.47 Y469.125 I-1.587 J0
G1 X331.057
Y447.299
X402.883
Y520.709
X402.877 Y520.77 Z-2.988 F600
X402.86 Y520.828 Z-2.976
X402.837 Y520.874 Z-2.941
X402.806 Y520.916 Z-2.907
X402.756 Y520.963 Z-2.804
X402.737 Y520.977 Z-2.683
Z5
G0 X302.386 Y497.273
G1 Z2.817 F300
X302.369 Y497.289 Z2.698
X302.32 Y497.332 Z2.597
X302.242 Y497.394 Z2.527
X302.144 Y497.46 Z2.5
G3 X300.558 Y494.894 Z2.335 I-0.793 J-1.283
X302.144 Y497.46 Z2.169 I0.793 J1.283
X300.558 Y494.894 Z2.004 I-0.793 J-1.283
X302.144 Y497.46 Z1.838 I0.793 J1.283
X300.558 Y494.894 Z1.673 I-0.793 J-1.283
X302.144 Y497.46 Z1.507 I0.793 J1.283
X300.558 Y494.894 Z1.342 I-0.793 J-1.283
X302.144 Y497.46 Z1.176 I0.793 J1.283
X300.558 Y494.894 Z1.011 I-0.793 J-1.283
X302.144 Y497.46 Z0.845 I0.793 J1.283
X300.558 Y494.894 Z0.68 I-0.793 J-1.283
X302.144 Y497.46 Z0.515 I0.793 J1.283
X300.558 Y494.894 Z0.349 I-0.793 J-1.283
X302.144 Y497.46 Z0.184 I0.793 J1.283
X300.558 Y494.894 Z0.018 I-0.793 J-1.283
X302.144 Y497.46 Z-0.147 I0.793 J1.283
X300.558 Y494.894 Z-0.313 I-0.793 J-1.283
X302.144 Y497.46 Z-0.478 I0.793 J1.283
X300.558 Y494.894 Z-0.644 I-0.793 J-1.283
X302.144 Y497.46 Z-0.809 I0.793 J1.283
X300.558 Y494.894 Z-0.974 I-0.793 J-1.283
X302.144 Y497.46 Z-1.14 I0.793 J1.283
X300.558 Y494.894 Z-1.305 I-0.793 J-1.283
X302.144 Y497.46 Z-1.471 I0.793 J1.283
X301.351 Y497.685 Z-1.5 I-0.793 J-1.283
X301.348 Y495.596 I-0.001 J-1.044
G1 X301.463 Y495.59 F1000
X301.577 Y495.579
G3 X301.877 Y495.855 I0.024 J0.276
G1 Y496.375
G3 X301.577 Y496.651 I-0.277 J0
G1 X301.463 Y496.64
X301.348 Y496.634
X282.748
X282.633 Y496.64
X282.519 Y496.651
G3 X282.219 Y496.375 I-0.024 J-0.276
G1 Y495.855
G3 X282.519 Y495.579 I0.277 J0
G1 X282.633 Y495.59
X282.748 Y495.596
X301.348
G2 X302.274 Y494.845 I0 J-0.946
G3 X302.709 Y493.735 I3.52 J0.74
G2 X302.935 Y492.918 I-1.361 J-0.817
G1 Y474.312
G2 X301.348 Y472.724 I-1.587 J0
G1 X282.748
G2 X281.16 Y474.312 I0 J1.588
G1 Y492.918
G2 X282.748 Y494.505 I1.587 J0
G1 X301.348
G2 X302.709 Y493.735 I0 J-1.587
G1 X302.768 Y493.628 Z-1.476 F600
X302.811 Y493.535 Z-1.407
X302.836 Y493.471 Z-1.304
X302.844 Y493.448 Z-1.183
Z5
G0 X302.386 Y522.273
G1 Z2.817 F300
X302.369 Y522.289 Z2.698
X302.32 Y522.332 Z2.597
X302.242 Y522.394 Z2.527
X302.144 Y522.46 Z2.5
G3 X300.558 Y519.894 Z2.335 I-0.793 J-1.283
X302.144 Y522.46 Z2.169 I0.793 J1.283
X300.558 Y519.894 Z2.004 I-0.793 J-1.283
X302.144 Y522.46 Z1.838 I0.793 J1.283
X300.558 Y519.894 Z1.673 I-0.793 J-1.283
X302.144 Y522.46 Z1.507 I0.793 J1.283
X300.558 Y519.894 Z1.342 I-0.793 J-1.283
X302.144 Y522.46 Z1.176 I0.793 J1.283
X300.558 Y519.894 Z1.011 I-0.793 J-1.283
X302.144 Y522.46 Z0.845 I0.793 J1.283
X300.558 Y519.894 Z0.68 I-0.793 J-1.283
X302.144 Y522.46 Z0.515 I0.793 J1.283
X300.558 Y519.894 Z0.349 I-0.793 J-1.283
X302.144 Y522.46 Z0.184 I0.793 J1.283
X300.558 Y519.894 Z0.018 I-0.793 J-1.283
X302.144 Y522.46 Z-0.147 I0.793 J1.283
X300.558 Y519.894 Z-0.313 I-0.793 J-1.283
X302.144 Y522.46 Z-0.478 I0.793 J1.283
X300.558 Y519.894 Z-0.644 I-0.793 J-1.283
X302.144 Y522.46 Z-0.809 I0.793 J1.283
X300.558 Y519.894 Z-0.974 I-0.793 J-1.283
X302.144 Y522.46 Z-1.14 I0.793 J1.283
X300.558 Y519.894 Z-1.305 I-0.793 J-1.283
X302.144 Y522.46 Z-1.471 I0.793 J1.283
X301.351 Y522.685 Z-1.5 I-0.793 J-1.283
X300.305 Y521.642 I-0.001 J-1.044
X301.348 Y520.596 I1.044 J-0.001
G1 X301.463 Y520.59 F1000
X301.577 Y520.579
G3 X301.877 Y520.855 I0.024 J0.276
G1 Y521.375
G3 X301.577 Y521.651 I-0.277 J0
G1 X301.463 Y521.64
X301.348 Y521.634
X282.748
X282.633 Y521.64
X282.519 Y521.651
G3 X282.219 Y521.375 I-0.024 J-0.276
G1 Y520.855
G3 X282.519 Y520.579 I0.277 J0
G1 X282.633 Y520.59
X282.748 Y520.596
X301.348
G2 X302.274 Y519.845 I0 J-0.946
G3 X302.709 Y518.735 I3.52 J0.74
G2 X302.935 Y517.918 I-1.361 J-0.817
G1 Y499.312
G2 X301.348 Y497.724 I-1.587 J0
G1 X282.748
G2 X281.16 Y499.312 I0 J1.588
G1 Y517.918
G2 X282.748 Y519.505 I1.587 J0
G1 X301.348
G2 X302.709 Y518.735 I0 J-1.587
G1 X302.768 Y518.628 Z-1.476 F600
X302.811 Y518.535 Z-1.407
X302.836 Y518.471 Z-1.304
X302.844 Y518.448 Z-1.183
Z5
G0 X281.712 Y544.954
G1 Z2.817 F300
X281.729 Y544.938 Z2.698
X281.779 Y544.895 Z2.597
X281.857 Y544.833 Z2.527
X281.955 Y544.767 Z2.5
G3 X283.541 Y547.333 Z2.335 I0.793 J1.283
X281.955 Y544.767 Z2.169 I-0.793 J-1.283
X283.541 Y547.333 Z2.004 I0.793 J1.283
X281.955 Y544.767 Z1.838 I-0.793 J-1.283
X283.541 Y547.333 Z1.673 I0.793 J1.283
X281.955 Y544.767 Z1.507 I-0.793 J-1.283
X283.541 Y547.333 Z1.342 I0.793 J1.283
X281.955 Y544.767 Z1.176 I-0.793 J-1.283
X283.541 Y547.333 Z1.011 I0.793 J1.283
X281.955 Y544.767 Z0.845 I-0.793 J-1.283
X283.541 Y547.333 Z0.68 I0.793 J1.283
X281.955 Y544.767 Z0.515 I-0.793 J-1.283
X283.541 Y547.333 Z0.349 I0.793 J1.283
X281.955 Y544.767 Z0.184 I-0.793 J-1.283
X283.541 Y547.333 Z0.018 I0.793 J1.283
X281.955 Y544.767 Z-0.147 I-0.793 J-1.283
X283.541 Y547.333 Z-0.313 I0.793 J1.283
X281.955 Y544.767 Z-0.478 I-0.793 J-1.283
X283.541 Y547.333 Z-0.644 I0.793 J1.283
X281.955 Y544.767 Z-0.809 I-0.793 J-1.283
X283.541 Y547.333 Z-0.974 I0.793 J1.283
X281.955 Y544.767 Z-1.14 I-0.793 J-1.283
X283.541 Y547.333 Z-1.305 I0.793 J1.283
X281.955 Y544.767 Z-1.471 I-0.793 J-1.283
X282.748 Y544.542 Z-1.5 I0.793 J1.283
X282.748 Y546.632 I0 J1.045
G1 X282.634 Y546.638 F1000
X282.521 Y546.649
G3 X282.221 Y546.373 I-0.023 J-0.276
G1 Y545.851
G3 X282.521 Y545.575 I0.277 J0
G1 X282.634 Y545.586
X282.748 Y545.592
X301.348
X301.462 Y545.586
X301.575 Y545.575
G3 X301.875 Y545.851 I0.023 J0.276
G1 Y546.112
G2 X301.89 Y546.398 I2.673 J0
G3 X301.634 Y546.654 I-0.232 J0.025
G1 X301.491 Y546.638
X301.42 Y546.632
X301.348 Y546.63
X282.748 Y546.632
X282.688 Y546.626 Z-1.488 F600
X282.629 Y546.609 Z-1.476
X282.583 Y546.586 Z-1.441
X282.542 Y546.556 Z-1.407
X282.495 Y546.506 Z-1.304
X282.481 Y546.486 Z-1.183
Z5
G0 X281.712 Y544.911
G1 Z2.817 F300
X281.729 Y544.896 Z2.698
X281.779 Y544.852 Z2.597
X281.857 Y544.791 Z2.527
X281.955 Y544.725 Z2.5
G3 X283.541 Y547.29 Z2.335 I0.793 J1.283
X281.955 Y544.725 Z2.169 I-0.793 J-1.283
X283.541 Y547.29 Z2.004 I0.793 J1.283
X281.955 Y544.725 Z1.838 I-0.793 J-1.283
X283.541 Y547.29 Z1.673 I0.793 J1.283
X281.955 Y544.725 Z1.507 I-0.793 J-1.283
X283.541 Y547.29 Z1.342 I0.793 J1.283
X281.955 Y544.725 Z1.176 I-0.793 J-1.283
X283.541 Y547.29 Z1.011 I0.793 J1.283
X281.955 Y544.725 Z0.845 I-0.793 J-1.283
X283.541 Y547.29 Z0.68 I0.793 J1.283
X281.955 Y544.725 Z0.515 I-0.793 J-1.283
X283.541 Y547.29 Z0.349 I0.793 J1.283
X281.955 Y544.725 Z0.184 I-0.793 J-1.283
X283.541 Y547.29 Z0.018 I0.793 J1.283
X281.955 Y544.725 Z-0.147 I-0.793 J-1.283
X283.541 Y547.29 Z-0.313 I0.793 J1.283
X281.955 Y544.725 Z-0.478 I-0.793 J-1.283
X283.541 Y547.29 Z-0.644 I0.793 J1.283
X281.955 Y544.725 Z-0.809 I-0.793 J-1.283
X283.541 Y547.29 Z-0.974 I0.793 J1.283
X281.955 Y544.725 Z-1.14 I-0.793 J-1.283
X283.541 Y547.29 Z-1.305 I0.793 J1.283
X281.955 Y544.725 Z-1.471 I-0.793 J-1.283
X282.748 Y544.5 Z-1.5 I0.793 J1.283
G1 X301.348 F1000
G2 X302.935 Y542.912 I0 J-1.588
G1 Y524.312
G2 X301.348 Y522.724 I-1.587 J0
G1 X282.748
G2 X281.16 Y524.312 I0 J1.588
G1 Y542.912
G2 X282.748 Y544.5 I1.587 J0
G1 X282.808 Y544.505 Z-1.488 F600
X282.867 Y544.522 Z-1.476
X282.913 Y544.545 Z-1.441
X282.954 Y544.576 Z-1.407
X283.001 Y544.626 Z-1.304
X283.015 Y544.645 Z-1.183
Z5
G0 X305.706 Y548.276
G1 Z2.817 F300
X305.722 Y548.293 Z2.698
X305.765 Y548.343 Z2.597
X305.827 Y548.421 Z2.527
X305.893 Y548.519 Z2.5
G3 X303.327 Y550.105 Z2.335 I-1.283 J0.793
X305.893 Y548.519 Z2.169 I1.283 J-0.793
X303.327 Y550.105 Z2.004 I-1.283 J0.793
X305.893 Y548.519 Z1.838 I1.283 J-0.793
X303.327 Y550.105 Z1.673 I-1.283 J0.793
X305.893 Y548.519 Z1.507 I1.283 J-0.793
X303.327 Y550.105 Z1.342 I-1.283 J0.793
X305.893 Y548.519 Z1.176 I1.283 J-0.793
X303.327 Y550.105 Z1.011 I-1.283 J0.793
X305.893 Y548.519 Z0.845 I1.283 J-0.793
X303.327 Y550.105 Z0.68 I-1.283 J0.793
X305.893 Y548.519 Z0.515 I1.283 J-0.793
X303.327 Y550.105 Z0.349 I-1.283 J0.793
X305.893 Y548.519 Z0.184 I1.283 J-0.793
X303.327 Y550.105 Z0.018 I-1.283 J0.793
X305.893 Y548.519 Z-0.147 I1.283 J-0.793
X303.327 Y550.105 Z-0.313 I-1.283 J0.793
X305.893 Y548.519 Z-0.478 I1.283 J-0.793
X303.327 Y550.105 Z-0.644 I-1.283 J0.793
X305.893 Y548.519 Z-0.809 I1.283 J-0.793
X303.327 Y550.105 Z-0.974 I-1.283 J0.793
X305.893 Y548.519 Z-1.14 I1.283 J-0.793
X303.327 Y550.105 Z-1.305 I-1.283 J0.793
X305.893 Y548.519 Z-1.471 I1.283 J-0.793
X306.118 Y549.312 Z-1.5 I-1.283 J0.793
X304.03 Y549.312 I-1.044 J0
G1 X304.028 Y549.24 F1000
X304.022 Y549.169
X304.006 Y549.026
G3 X304.262 Y548.77 I0.232 J-0.025
G2 X304.548 Y548.785 I0.286 J-2.658
G1 X304.809
G3 X305.085 Y549.085 I0 J0.277
G1 X305.074 Y549.198
X305.068 Y549.312
Y567.912
X305.074 Y568.026
X305.085 Y568.139
G3 X304.809 Y568.439 I-0.276 J0.023
G1 X304.287
G3 X304.011 Y568.139 I0 J-0.277
G1 X304.022 Y568.026
X304.028 Y567.912
X304.03 Y549.312
G2 X303.275 Y548.383 I-0.95 J0
G3 X302.16 Y547.948 I0.748 J-3.567
G2 X301.348 Y547.724 I-0.812 J1.364
G1 X282.748
G2 X281.16 Y549.312 I0 J1.588
G1 Y567.912
G2 X282.748 Y569.5 I1.587 J0
G1 X301.348
G2 X302.935 Y567.912 I0 J-1.588
G1 Y549.312
G2 X302.16 Y547.948 I-1.587 J0
G1 X302.111 Y547.912 Z-1.488 F600
X302.07 Y547.867 Z-1.476
X302.042 Y547.824 Z-1.441
X302.021 Y547.777 Z-1.407
X302.007 Y547.71 Z-1.304
X302.005 Y547.686 Z-1.183
Z5
G0 X328.39 Y568.948
G1 Z2.817 F300
X328.374 Y568.931 Z2.698
X328.331 Y568.881 Z2.597
X328.269 Y568.803 Z2.527
X328.203 Y568.705 Z2.5
G3 X330.769 Y567.119 Z2.335 I1.283 J-0.793
X328.203 Y568.705 Z2.169 I-1.283 J0.793
X330.769 Y567.119 Z2.004 I1.283 J-0.793
X328.203 Y568.705 Z1.838 I-1.283 J0.793
X330.769 Y567.119 Z1.673 I1.283 J-0.793
X328.203 Y568.705 Z1.507 I-1.283 J0.793
X330.769 Y567.119 Z1.342 I1.283 J-0.793
X328.203 Y568.705 Z1.176 I-1.283 J0.793
X330.769 Y567.119 Z1.011 I1.283 J-0.793
X328.203 Y568.705 Z0.845 I-1.283 J0.793
X330.769 Y567.119 Z0.68 I1.283 J-0.793
X328.203 Y568.705 Z0.515 I-1.283 J0.793
X330.769 Y567.119 Z0.349 I1.283 J-0.793
X328.203 Y568.705 Z0.184 I-1.283 J0.793
X330.769 Y567.119 Z0.018 I1.283 J-0.793
X328.203 Y568.705 Z-0.147 I-1.283 J0.793
X330.769 Y567.119 Z-0.313 I1.283 J-0.793
X328.203 Y568.705 Z-0.478 I-1.283 J0.793
X330.769 Y567.119 Z-0.644 I1.283 J-0.793
X328.203 Y568.705 Z-0.809 I-1.283 J0.793
X330.769 Y567.119 Z-0.974 I1.283 J-0.793
X328.203 Y568.705 Z-1.14 I-1.283 J0.793
X330.769 Y567.119 Z-1.305 I1.283 J-0.793
X328.203 Y568.705 Z-1.471 I-1.283 J0.793
X327.978 Y567.912 Z-1.5 I1.283 J-0.793
X330.068 Y567.912 I1.045 J0
G1 X330.074 Y568.026 F1000
X330.085 Y568.139
G3 X329.809 Y568.439 I-0.276 J0.023
G1 X329.287
G3 X329.011 Y568.139 I0 J-0.277
G1 X329.022 Y568.026
X329.028 Y567.912
Y549.312
X329.022 Y549.198
X329.011 Y549.085
G3 X329.287 Y548.785 I0.276 J-0.023
G1 X329.809
G3 X330.085 Y549.085 I0 J0.277
G1 X330.074 Y549.198
X330.068 Y549.312
Y567.912
G2 X330.821 Y568.84 I0.948 J0
G3 X331.934 Y569.275 I-0.744 J3.543
G2 X332.748 Y569.5 I0.814 J-1.363
G1 X351.348
G2 X352.935 Y567.912 I0 J-1.588
G1 Y549.312
G2 X351.348 Y547.724 I-1.587 J0
G1 X332.748
G2 X331.16 Y549.312 I0 J1.588
G1 Y567.912
G2 X331.934 Y569.275 I1.587 J0
G1 X332.04 Y569.333 Z-1.476 F600
X332.134 Y569.376 Z-1.407
X332.198 Y569.401 Z-1.304
X332.221 Y569.409 Z-1.183
Z5
G0 X330.584 Y569.113
G1 Z2.817 F300
X330.567 Y569.128 Z2.698
X330.517 Y569.172 Z2.597
X330.439 Y569.233 Z2.527
X330.341 Y569.299 Z2.5
G3 X328.755 Y566.734 Z2.335 I-0.793 J-1.283
X330.341 Y569.299 Z2.169 I0.793 J1.283
X328.755 Y566.734 Z2.004 I-0.793 J-1.283
X330.341 Y569.299 Z1.838 I0.793 J1.283
X328.755 Y566.734 Z1.673 I-0.793 J-1.283
X330.341 Y569.299 Z1.507 I0.793 J1.283
X328.755 Y566.734 Z1.342 I-0.793 J-1.283
X330.341 Y569.299 Z1.176 I0.793 J1.283
X328.755 Y566.734 Z1.011 I-0.793 J-1.283
X330.341 Y569.299 Z0.845 I0.793 J1.283
X328.755 Y566.734 Z0.68 I-0.793 J-1.283
X330.341 Y569.299 Z0.515 I0.793 J1.283
X328.755 Y566.734 Z0.349 I-0.793 J-1.283
X330.341 Y569.299 Z0.184 I0.793 J1.283
X328.755 Y566.734 Z0.018 I-0.793 J-1.283
X330.341 Y569.299 Z-0.147 I0.793 J1.283
X328.755 Y566.734 Z-0.313 I-0.793 J-1.283
X330.341 Y569.299 Z-0.478 I0.793 J1.283
X328.755 Y566.734 Z-0.644 I-0.793 J-1.283
X330.341 Y569.299 Z-0.809 I0.793 J1.283
X328.755 Y566.734 Z-0.974 I-0.793 J-1.283
X330.341 Y569.299 Z-1.14 I0.793 J1.283
X328.755 Y566.734 Z-1.305 I-0.793 J-1.283
X330.341 Y569.299 Z-1.471 I0.793 J1.283
X329.548 Y569.524 Z-1.5 I-0.793 J-1.283
G1 X281.135 F1000
Y472.699
X302.961
Y546.112
G2 X304.548 Y547.7 I1.587 J0
G1 X352.961
Y569.524
X329.548
X329.488 Y569.519 Z-1.488 F600
X329.429 Y569.502 Z-1.476
X329.383 Y569.479 Z-1.441
X329.342 Y569.448 Z-1.407
X329.295 Y569.398 Z-1.304
X329.281 Y569.379 Z-1.183
Z5
G0 X328.347 Y568.948
G1 Z2.817 F300
X328.332 Y568.931 Z2.698
X328.288 Y568.881 Z2.597
X328.227 Y568.803 Z2.527
X328.161 Y568.705 Z2.5
G3 X330.726 Y567.119 Z2.335 I1.283 J-0.793
X328.161 Y568.705 Z2.169 I-1.283 J0.793
X330.726 Y567.119 Z2.004 I1.283 J-0.793
X328.161 Y568.705 Z1.838 I-1.283 J0.793
X330.726 Y567.119 Z1.673 I1.283 J-0.793
X328.161 Y568.705 Z1.507 I-1.283 J0.793
X330.726 Y567.119 Z1.342 I1.283 J-0.793
X328.161 Y568.705 Z1.176 I-1.283 J0.793
X330.726 Y567.119 Z1.011 I1.283 J-0.793
X328.161 Y568.705 Z0.845 I-1.283 J0.793
X330.726 Y567.119 Z0.68 I1.283 J-0.793
X328.161 Y568.705 Z0.515 I-1.283 J0.793
X330.726 Y567.119 Z0.349 I1.283 J-0.793
X328.161 Y568.705 Z0.184 I-1.283 J0.793
X330.726 Y567.119 Z0.018 I1.283 J-0.793
X328.161 Y568.705 Z-0.147 I-1.283 J0.793
X330.726 Y567.119 Z-0.313 I1.283 J-0.793
X328.161 Y568.705 Z-0.478 I-1.283 J0.793
X330.726 Y567.119 Z-0.644 I1.283 J-0.793
X328.161 Y568.705 Z-0.809 I-1.283 J0.793
X330.726 Y567.119 Z-0.974 I1.283 J-0.793
X328.161 Y568.705 Z-1.14 I-1.283 J0.793
X330.726 Y567.119 Z-1.305 I1.283 J-0.793
X328.161 Y568.705 Z-1.471 I-1.283 J0.793
X327.935 Y567.912 Z-1.5 I1.283 J-0.793
G1 Y549.312 F1000
G2 X326.348 Y547.724 I-1.587 J0
G1 X307.748
G2 X306.16 Y549.312 I0 J1.588
G1 Y567.912
G2 X307.748 Y569.5 I1.587 J0
G1 X326.348
G2 X327.935 Y567.912 I0 J-1.588
G1 X327.941 Y567.852 Z-1.488 F600
X327.958 Y567.793 Z-1.476
X327.981 Y567.747 Z-1.441
X328.012 Y567.706 Z-1.407
X328.062 Y567.659 Z-1.304
X328.081 Y567.645 Z-1.183
Z5
G0 X328.39 Y568.948
G1 Z1.317 F300
X328.374 Y568.931 Z1.198
X328.331 Y568.881 Z1.097
X328.269 Y568.803 Z1.027
X328.203 Y568.705 Z1
G3 X330.769 Y567.119 Z0.835 I1.283 J-0.793
X328.203 Y568.705 Z0.669 I-1.283 J0.793
X330.769 Y567.119 Z0.504 I1.283 J-0.793
X328.203 Y568.705 Z0.338 I-1.283 J0.793
X330.769 Y567.119 Z0.173 I1.283 J-0.793
X328.203 Y568.705 Z0.007 I-1.283 J0.793
X330.769 Y567.119 Z-0.158 I1.283 J-0.793
X328.203 Y568.705 Z-0.324 I-1.283 J0.793
X330.769 Y567.119 Z-0.489 I1.283 J-0.793
X328.203 Y568.705 Z-0.655 I-1.283 J0.793
X330.769 Y567.119 Z-0.82 I1.283 J-0.793
X328.203 Y568.705 Z-0.985 I-1.283 J0.793
X330.769 Y567.119 Z-1.151 I1.283 J-0.793
X328.203 Y568.705 Z-1.316 I-1.283 J0.793
X330.769 Y567.119 Z-1.482 I1.283 J-0.793
X328.203 Y568.705 Z-1.647 I-1.283 J0.793
X330.769 Y567.119 Z-1.813 I1.283 J-0.793
X328.203 Y568.705 Z-1.978 I-1.283 J0.793
X330.769 Y567.119 Z-2.144 I1.283 J-0.793
X328.203 Y568.705 Z-2.309 I-1.283 J0.793
X330.769 Y567.119 Z-2.474 I1.283 J-0.793
X328.203 Y568.705 Z-2.64 I-1.283 J0.793
X330.769 Y567.119 Z-2.805 I1.283 J-0.793
X328.203 Y568.705 Z-2.971 I-1.283 J0.793
X327.978 Y567.912 Z-3 I1.283 J-0.793
X330.068 Y567.912 I1.045 J0
G1 X330.074 Y568.026 F1000
X330.085 Y568.139
G3 X329.809 Y568.439 I-0.276 J0.023
G1 X329.287
G3 X329.011 Y568.139 I0 J-0.277
G1 X329.022 Y568.026
X329.028 Y567.912
Y549.312
X329.022 Y549.198
X329.011 Y549.085
G3 X329.287 Y548.785 I0.276 J-0.023
G1 X329.809
G3 X330.085 Y549.085 I0 J0.277
G1 X330.074 Y549.198
X330.068 Y549.312
Y567.912
G2 X330.821 Y568.84 I0.948 J0
G3 X331.934 Y569.275 I-0.744 J3.543
G2 X332.748 Y569.5 I0.814 J-1.363
G1 X351.348
G2 X352.935 Y567.912 I0 J-1.588
G1 Y549.312
G2 X351.348 Y547.724 I-1.587 J0
G1 X332.748
G2 X331.16 Y549.312 I0 J1.588
G1 Y567.912
G2 X331.934 Y569.275 I1.587 J0
G1 X332.04 Y569.333 Z-2.976 F600
X332.134 Y569.376 Z-2.907
X332.198 Y569.401 Z-2.804
X332.221 Y569.409 Z-2.683
Z5
G0 X305.706 Y548.276
G1 Z1.317 F300
X305.722 Y548.293 Z1.198
X305.765 Y548.343 Z1.097
X305.827 Y548.421 Z1.027
X305.893 Y548.519 Z1
G3 X303.327 Y550.105 Z0.835 I-1.283 J0.793
X305.893 Y548.519 Z0.669 I1.283 J-0.793
X303.327 Y550.105 Z0.504 I-1.283 J0.793
X305.893 Y548.519 Z0.338 I1.283 J-0.793
X303.327 Y550.105 Z0.173 I-1.283 J0.793
X305.893 Y548.519 Z0.007 I1.283 J-0.793
X303.327 Y550.105 Z-0.158 I-1.283 J0.793
X305.893 Y548.519 Z-0.324 I1.283 J-0.793
X303.327 Y550.105 Z-0.489 I-1.283 J0.793
X305.893 Y548.519 Z-0.655 I1.283 J-0.793
X303.327 Y550.105 Z-0.82 I-1.283 J0.793
X305.893 Y548.519 Z-0.985 I1.283 J-0.793
X303.327 Y550.105 Z-1.151 I-1.283 J0.793
X305.893 Y548.519 Z-1.316 I1.283 J-0.793
X303.327 Y550.105 Z-1.482 I-1.283 J0.793
X305.893 Y548.519 Z-1.647 I1.283 J-0.793
X303.327 Y550.105 Z-1.813 I-1.283 J0.793
X305.893 Y548.519 Z-1.978 I1.283 J-0.793
X303.327 Y550.105 Z-2.144 I-1.283 J0.793
X305.893 Y548.519 Z-2.309 I1.283 J-0.793
X303.327 Y550.105 Z-2.474 I-1.283 J0.793
X305.893 Y548.519 Z-2.64 I1.283 J-0.793
X303.327 Y550.105 Z-2.805 I-1.283 J0.793
X305.893 Y548.519 Z-2.971 I1.283 J-0.793
X306.118 Y549.312 Z-3 I-1.283 J0.793
X304.03 Y549.312 I-1.044 J0
G1 X304.028 Y549.24 F1000
X304.022 Y549.169
X304.006 Y549.026
G3 X304.262 Y548.77 I0.232 J-0.025
G2 X304.548 Y548.785 I0.286 J-2.658
G1 X304.809
G3 X305.085 Y549.085 I0 J0.277
G1 X305.074 Y549.198
X305.068 Y549.312
Y567.912
X305.074 Y568.026
X305.085 Y568.139
G3 X304.809 Y568.439 I-0.276 J0.023
G1 X304.287
G3 X304.011 Y568.139 I0 J-0.277
G1 X304.022 Y568.026
X304.028 Y567.912
X304.03 Y549.312
G3 X305.628 Y548.779 I0.888 J0
X306.16 Y550.377 I-2.13 J1.598
G1 Y567.912
G2 X307.748 Y569.5 I1.587 J0
G1 X326.348
G2 X327.935 Y567.912 I0 J-1.588
G1 Y549.312
G2 X326.348 Y547.724 I-1.587 J0
G1 X307.748
G2 X306.16 Y549.312 I0 J1.588
G1 Y550.377
X306.155 Y550.438 Z-2.988 F600
X306.138 Y550.496 Z-2.976
X306.115 Y550.542 Z-2.941
X306.084 Y550.584 Z-2.907
X306.034 Y550.631 Z-2.804
X306.015 Y550.645 Z-2.683
Z5
G0 X281.712 Y544.954
G1 Z1.317 F300
X281.729 Y544.938 Z1.198
X281.779 Y544.895 Z1.097
X281.857 Y544.833 Z1.027
X281.955 Y544.767 Z1
G3 X283.541 Y547.333 Z0.835 I0.793 J1.283
X281.955 Y544.767 Z0.669 I-0.793 J-1.283
X283.541 Y547.333 Z0.504 I0.793 J1.283
X281.955 Y544.767 Z0.338 I-0.793 J-1.283
X283.541 Y547.333 Z0.173 I0.793 J1.283
X281.955 Y544.767 Z0.007 I-0.793 J-1.283
X283.541 Y547.333 Z-0.158 I0.793 J1.283
X281.955 Y544.767 Z-0.324 I-0.793 J-1.283
X283.541 Y547.333 Z-0.489 I0.793 J1.283
X281.955 Y544.767 Z-0.655 I-0.793 J-1.283
X283.541 Y547.333 Z-0.82 I0.793 J1.283
X281.955 Y544.767 Z-0.985 I-0.793 J-1.283
X283.541 Y547.333 Z-1.151 I0.793 J1.283
X281.955 Y544.767 Z-1.316 I-0.793 J-1.283
X283.541 Y547.333 Z-1.482 I0.793 J1.283
X281.955 Y544.767 Z-1.647 I-0.793 J-1.283
X283.541 Y547.333 Z-1.813 I0.793 J1.283
X281.955 Y544.767 Z-1.978 I-0.793 J-1.283
X283.541 Y547.333 Z-2.144 I0.793 J1.283
X281.955 Y544.767 Z-2.309 I-0.793 J-1.283
X283.541 Y547.333 Z-2.474 I0.793 J1.283
X281.955 Y544.767 Z-2.64 I-0.793 J-1.283
X283.541 Y547.333 Z-2.805 I0.793 J1.283
X281.955 Y544.767 Z-2.971 I-0.793 J-1.283
X282.748 Y544.542 Z-3 I0.793 J1.283
X282.748 Y546.632 I0 J1.045
G1 X282.634 Y546.638 F1000
X282.521 Y546.649
G3 X282.221 Y546.373 I-0.023 J-0.276
G1 Y545.851
G3 X282.521 Y545.575 I0.277 J0
G1 X282.634 Y545.586
X282.748 Y545.592
X301.348
X301.462 Y545.586
X301.575 Y545.575
G3 X301.875 Y545.851 I0.023 J0.276
G1 Y546.112
G2 X301.89 Y546.398 I2.673 J0
G3 X301.634 Y546.654 I-0.232 J0.025
G1 X301.491 Y546.638
X301.42 Y546.632
X301.348 Y546.63
X282.748 Y546.632
G2 X281.82 Y547.385 I0 J0.948
G3 X281.385 Y548.498 I-3.543 J-0.744
G2 X281.16 Y549.312 I1.363 J0.814
G1 Y567.912
G2 X282.748 Y569.5 I1.587 J0
G1 X301.348
G2 X302.935 Y567.912 I0 J-1.588
G1 Y549.312
G2 X301.348 Y547.724 I-1.587 J0
G1 X282.748
G2 X281.385 Y548.498 I0 J1.588
G1 X281.327 Y548.604 Z-2.976 F600
X281.284 Y548.698 Z-2.907
X281.259 Y548.762 Z-2.804
X281.251 Y548.785 Z-2.683
Z5
G0 X281.71 Y519.957
G1 Z1.317 F300
X281.727 Y519.941 Z1.198
X281.776 Y519.898 Z1.097
X281.854 Y519.836 Z1.027
X281.952 Y519.77 Z1
G3 X283.538 Y522.336 Z0.835 I0.793 J1.283
X281.952 Y519.77 Z0.669 I-0.793 J-1.283
X283.538 Y522.336 Z0.504 I0.793 J1.283
X281.952 Y519.77 Z0.338 I-0.793 J-1.283
X283.538 Y522.336 Z0.173 I0.793 J1.283
X281.952 Y519.77 Z0.007 I-0.793 J-1.283
X283.538 Y522.336 Z-0.158 I0.793 J1.283
X281.952 Y519.77 Z-0.324 I-0.793 J-1.283
X283.538 Y522.336 Z-0.489 I0.793 J1.283
X281.952 Y519.77 Z-0.655 I-0.793 J-1.283
X283.538 Y522.336 Z-0.82 I0.793 J1.283
X281.952 Y519.77 Z-0.985 I-0.793 J-1.283
X283.538 Y522.336 Z-1.151 I0.793 J1.283
X281.952 Y519.77 Z-1.316 I-0.793 J-1.283
X283.538 Y522.336 Z-1.482 I0.793 J1.283
X281.952 Y519.77 Z-1.647 I-0.793 J-1.283
X283.538 Y522.336 Z-1.813 I0.793 J1.283
X281.952 Y519.77 Z-1.978 I-0.793 J-1.283
X283.538 Y522.336 Z-2.144 I0.793 J1.283
X281.952 Y519.77 Z-2.309 I-0.793 J-1.283
X283.538 Y522.336 Z-2.474 I0.793 J1.283
X281.952 Y519.77 Z-2.64 I-0.793 J-1.283
X283.538 Y522.336 Z-2.805 I0.793 J1.283
X281.952 Y519.77 Z-2.971 I-0.793 J-1.283
X282.745 Y519.545 Z-3 I0.793 J1.283
X282.748 Y521.634 I0.001 J1.044
G1 X282.633 Y521.64 F1000
X282.519 Y521.651
G3 X282.219 Y521.375 I-0.024 J-0.276
G1 Y520.855
G3 X282.519 Y520.579 I0.277 J0
G1 X282.633 Y520.59
X282.748 Y520.596
X301.348
X301.463 Y520.59
X301.577 Y520.579
G3 X301.877 Y520.855 I0.024 J0.276
G1 Y521.375
G3 X301.577 Y521.651 I-0.277 J0
G1 X301.463 Y521.64
X301.348 Y521.634
X282.748
G2 X281.822 Y522.385 I0 J0.946
G3 X281.387 Y523.495 I-3.52 J-0.74
G2 X281.16 Y524.312 I1.361 J0.817
G1 Y542.912
G2 X282.748 Y544.5 I1.587 J0
G1 X301.348
G2 X302.935 Y542.912 I0 J-1.588
G1 Y524.312
G2 X301.348 Y522.724 I-1.587 J0
G1 X282.748
G2 X281.387 Y523.495 I0 J1.588
G1 X281.328 Y523.602 Z-2.976 F600
X281.285 Y523.695 Z-2.907
X281.26 Y523.759 Z-2.804
X281.252 Y523.782 Z-2.683
Z5
G0 X281.71 Y494.957
G1 Z1.317 F300
X281.727 Y494.941 Z1.198
X281.776 Y494.898 Z1.097
X281.854 Y494.836 Z1.027
X281.952 Y494.77 Z1
G3 X283.538 Y497.336 Z0.835 I0.793 J1.283
X281.952 Y494.77 Z0.669 I-0.793 J-1.283
X283.538 Y497.336 Z0.504 I0.793 J1.283
X281.952 Y494.77 Z0.338 I-0.793 J-1.283
X283.538 Y497.336 Z0.173 I0.793 J1.283
X281.952 Y494.77 Z0.007 I-0.793 J-1.283
X283.538 Y497.336 Z-0.158 I0.793 J1.283
X281.952 Y494.77 Z-0.324 I-0.793 J-1.283
X283.538 Y497.336 Z-0.489 I0.793 J1.283
X281.952 Y494.77 Z-0.655 I-0.793 J-1.283
X283.538 Y497.336 Z-0.82 I0.793 J1.283
X281.952 Y494.77 Z-0.985 I-0.793 J-1.283
X283.538 Y497.336 Z-1.151 I0.793 J1.283
X281.952 Y494.77 Z-1.316 I-0.793 J-1.283
X283.538 Y497.336 Z-1.482 I0.793 J1.283
X281.952 Y494.77 Z-1.647 I-0.793 J-1.283
X283.538 Y497.336 Z-1.813 I0.793 J1.283
X281.952 Y494.77 Z-1.978 I-0.793 J-1.283
X283.538 Y497.336 Z-2.144 I0.793 J1.283
X281.952 Y494.77 Z-2.309 I-0.793 J-1.283
X283.538 Y497.336 Z-2.474 I0.793 J1.283
X281.952 Y494.77 Z-2.64 I-0.793 J-1.283
X283.538 Y497.336 Z-2.805 I0.793 J1.283
X281.952 Y494.77 Z-2.971 I-0.793 J-1.283
X282.745 Y494.545 Z-3 I0.793 J1.283
X282.748 Y496.634 I0.001 J1.044
G1 X282.633 Y496.64 F1000
X282.519 Y496.651
G3 X282.219 Y496.375 I-0.024 J-0.276
G1 Y495.855
G3 X282.519 Y495.579 I0.277 J0
G1 X282.633 Y495.59
X282.748 Y495.596
X301.348
X301.463 Y495.59
X301.577 Y495.579
G3 X301.877 Y495.855 I0.024 J0.276
G1 Y496.375
G3 X301.577 Y496.651 I-0.277 J0
G1 X301.463 Y496.64
X301.348 Y496.634
X282.748
G3 X281.775 Y496.565 I0 J-6.882
X281.135 Y495.828 I0.105 J-0.737
G1 Y472.699
X302.961
Y546.112
G2 X304.548 Y547.7 I1.587 J0
G1 X352.961
Y569.524
X281.135
Y495.828
X281.141 Y495.767 Z-2.988 F600
X281.158 Y495.709 Z-2.976
X281.181 Y495.663 Z-2.941
X281.212 Y495.621 Z-2.907
X281.262 Y495.574 Z-2.804
X281.281 Y495.561 Z-2.683
Z5
G0 X281.712 Y494.917
G1 Z1.317 F300
X281.729 Y494.902 Z1.198
X281.779 Y494.858 Z1.097
X281.857 Y494.797 Z1.027
X281.955 Y494.731 Z1
G3 X283.541 Y497.296 Z0.835 I0.793 J1.283
X281.955 Y494.731 Z0.669 I-0.793 J-1.283
X283.541 Y497.296 Z0.504 I0.793 J1.283
X281.955 Y494.731 Z0.338 I-0.793 J-1.283
X283.541 Y497.296 Z0.173 I0.793 J1.283
X281.955 Y494.731 Z0.007 I-0.793 J-1.283
X283.541 Y497.296 Z-0.158 I0.793 J1.283
X281.955 Y494.731 Z-0.324 I-0.793 J-1.283
X283.541 Y497.296 Z-0.489 I0.793 J1.283
X281.955 Y494.731 Z-0.655 I-0.793 J-1.283
X283.541 Y497.296 Z-0.82 I0.793 J1.283
X281.955 Y494.731 Z-0.985 I-0.793 J-1.283
X283.541 Y497.296 Z-1.151 I0.793 J1.283
X281.955 Y494.731 Z-1.316 I-0.793 J-1.283
X283.541 Y497.296 Z-1.482 I0.793 J1.283
X281.955 Y494.731 Z-1.647 I-0.793 J-1.283
X283.541 Y497.296 Z-1.813 I0.793 J1.283
X281.955 Y494.731 Z-1.978 I-0.793 J-1.283
X283.541 Y497.296 Z-2.144 I0.793 J1.283
X281.955 Y494.731 Z-2.309 I-0.793 J-1.283
X283.541 Y497.296 Z-2.474 I0.793 J1.283
X281.955 Y494.731 Z-2.64 I-0.793 J-1.283
X283.541 Y497.296 Z-2.805 I0.793 J1.283
X281.955 Y494.731 Z-2.971 I-0.793 J-1.283
X282.748 Y494.505 Z-3 I0.793 J1.283
G1 X301.348 F1000
G2 X302.935 Y492.918 I0 J-1.587
G1 Y474.312
G2 X301.348 Y472.724 I-1.587 J0
G1 X282.748
G2 X281.16 Y474.312 I0 J1.588
G1 Y492.918
G2 X282.748 Y494.505 I1.587 J0
G1 X282.808 Y494.511 Z-2.988 F600
X282.867 Y494.528 Z-2.976
X282.913 Y494.551 Z-2.941
X282.954 Y494.582 Z-2.907
X283.001 Y494.632 Z-2.804
X283.015 Y494.651 Z-2.683
Z5
G0 X283.784 Y497.313
G1 Z1.317 F300
X283.767 Y497.328 Z1.198
X283.717 Y497.372 Z1.097
X283.639 Y497.433 Z1.027
X283.541 Y497.499 Z1
G3 X281.955 Y494.934 Z0.835 I-0.793 J-1.283
X283.541 Y497.499 Z0.669 I0.793 J1.283
X281.955 Y494.934 Z0.504 I-0.793 J-1.283
X283.541 Y497.499 Z0.338 I0.793 J1.283
X281.955 Y494.934 Z0.173 I-0.793 J-1.283
X283.541 Y497.499 Z0.007 I0.793 J1.283
X281.955 Y494.934 Z-0.158 I-0.793 J-1.283
X283.541 Y497.499 Z-0.324 I0.793 J1.283
X281.955 Y494.934 Z-0.489 I-0.793 J-1.283
X283.541 Y497.499 Z-0.655 I0.793 J1.283
X281.955 Y494.934 Z-0.82 I-0.793 J-1.283
X283.541 Y497.499 Z-0.985 I0.793 J1.283
X281.955 Y494.934 Z-1.151 I-0.793 J-1.283
X283.541 Y497.499 Z-1.316 I0.793 J1.283
X281.955 Y494.934 Z-1.482 I-0.793 J-1.283
X283.541 Y497.499 Z-1.647 I0.793 J1.283
X281.955 Y494.934 Z-1.813 I-0.793 J-1.283
X283.541 Y497.499 Z-1.978 I0.793 J1.283
X281.955 Y494.934 Z-2.144 I-0.793 J-1.283
X283.541 Y497.499 Z-2.309 I0.793 J1.283
X281.955 Y494.934 Z-2.474 I-0.793 J-1.283
X283.541 Y497.499 Z-2.64 I0.793 J1.283
X281.955 Y494.934 Z-2.805 I-0.793 J-1.283
X283.541 Y497.499 Z-2.971 I0.793 J1.283
X282.748 Y497.724 Z-3 I-0.793 J-1.283
G2 X281.16 Y499.312 I0 J1.588 F1000
G1 Y517.918
G2 X282.748 Y519.505 I1.587 J0
G1 X301.348
G2 X302.935 Y517.918 I0 J-1.587
G1 Y499.312
G2 X301.348 Y497.724 I-1.587 J0
G1 X282.748
X282.688 Y497.719 Z-2.988 F600
X282.629 Y497.702 Z-2.976
X282.583 Y497.679 Z-2.941
X282.542 Y497.648 Z-2.907
X282.495 Y497.598 Z-2.804
X282.481 Y497.579 Z-2.683
Z5
G0 Z15
G0 X0 Y0
G90
M5
M30
