(PetitePlaque2)
(T1  D=3.175 CR=0 - ZMIN=-3 - fraise deux tailles)
G90 G94
G17
G21

(Poche 2D2 4)
S99999 M3
G54
G0 Z15
G0 X237.982 Y444.546
Z15
Z5
G1 Z2.817 F300
X237.999 Y444.53 Z2.698
X238.049 Y444.487 Z2.597
X238.127 Y444.426 Z2.527
X238.225 Y444.36 Z2.5
G3 X239.811 Y446.925 Z2.335 I0.793 J1.283
X238.225 Y444.36 Z2.169 I-0.793 J-1.283
X239.811 Y446.925 Z2.004 I0.793 J1.283
X238.225 Y444.36 Z1.838 I-0.793 J-1.283
X239.811 Y446.925 Z1.673 I0.793 J1.283
X238.225 Y444.36 Z1.507 I-0.793 J-1.283
X239.811 Y446.925 Z1.342 I0.793 J1.283
X238.225 Y444.36 Z1.176 I-0.793 J-1.283
X239.811 Y446.925 Z1.011 I0.793 J1.283
X238.225 Y444.36 Z0.845 I-0.793 J-1.283
X239.811 Y446.925 Z0.68 I0.793 J1.283
X238.225 Y444.36 Z0.515 I-0.793 J-1.283
X239.811 Y446.925 Z0.349 I0.793 J1.283
X238.225 Y444.36 Z0.184 I-0.793 J-1.283
X239.811 Y446.925 Z0.018 I0.793 J1.283
X238.225 Y444.36 Z-0.147 I-0.793 J-1.283
X239.811 Y446.925 Z-0.313 I0.793 J1.283
X238.225 Y444.36 Z-0.478 I-0.793 J-1.283
X239.811 Y446.925 Z-0.644 I0.793 J1.283
X238.225 Y444.36 Z-0.809 I-0.793 J-1.283
X239.811 Y446.925 Z-0.974 I0.793 J1.283
X238.225 Y444.36 Z-1.14 I-0.793 J-1.283
X239.811 Y446.925 Z-1.305 I0.793 J1.283
X238.225 Y444.36 Z-1.471 I-0.793 J-1.283
X239.018 Y444.134 Z-1.5 I0.793 J1.283
X243.923 Y445.594 I0 J8.972 F1000
X247.202 Y449.522 I-4.782 J7.325
G1 X247.21 Y449.557
X247.204 Y449.593
X247.185 Y449.624
X247.156 Y449.646
X247.121 Y449.656
X247.086 Y449.652
X247.054 Y449.635
X247.03 Y449.608
G3 X246.771 Y449.125 I7.587 J-4.38
G2 X246.513 Y448.643 I-7.845 J3.898
X231.523 Y448.643 I-7.495 J4.327
X231.265 Y449.125 I7.587 J4.38
G3 X231.006 Y449.608 I-7.845 J-3.898
G1 X230.982 Y449.635
X230.95 Y449.652
X230.915 Y449.656
X230.88 Y449.646
X230.851 Y449.624
X230.832 Y449.593
X230.826 Y449.557
X230.834 Y449.522
G3 X234.113 Y445.594 I8.061 J3.396
X239.018 Y444.134 I4.905 J7.513
G2 X240.178 Y443.398 I0 J-1.282
G3 X241.415 Y442.8 I0.987 J0.464
X249.081 Y455.944 I-2.397 J10.205
G1 X249.062 Y455.983
X249.031 Y456.014
X248.992 Y456.033
X248.949 Y456.038
X248.907 Y456.028
X248.87 Y456.006
X248.843 Y455.973
X245.126 Y449.444
G2 X232.91 Y449.444 I-6.108 J3.526
X231.052 Y452.708 I271.57 J156.785
G3 X229.193 Y455.973 I-273.428 J-153.521
G1 X229.166 Y456.006
X229.129 Y456.028
X229.087 Y456.038
X229.044 Y456.033
X229.005 Y456.014
X228.974 Y455.983
X228.955 Y455.944
G3 X239.018 Y442.522 I10.029 J-2.965
X241.415 Y442.8 I0 J10.483
G2 X242.871 Y442.291 I0.328 J-1.398
G3 X244.374 Y441.946 I0.966 J0.763
X249.253 Y459.788 I-5.356 J11.053
X248.956 Y459.778 I-0.146 J-0.097
G1 X243.563 Y450.346
G2 X234.473 Y450.346 I-4.545 J2.624
G1 X229.08 Y459.778
G3 X228.783 Y459.788 I-0.152 J-0.088
X239.018 Y440.717 I10.211 J-6.802
X244.374 Y441.946 I0 J12.282
G2 X245.916 Y441.763 I0.628 J-1.296
G3 X247.469 Y441.729 I0.798 J0.972
X249.023 Y462.91 I-8.451 J11.267
X248.652 Y462.862 I-0.167 J-0.166
G1 X241.999 Y451.249
G2 X236.037 Y451.249 I-2.981 J1.721
G1 X229.384 Y462.862
G3 X229.013 Y462.91 I-0.204 J-0.118
X239.018 Y438.912 I9.986 J-9.921
X247.469 Y441.729 I0 J14.084
G2 X249.063 Y441.845 I0.888 J-1.183
G3 X250.64 Y442.101 I0.624 J1.148
X248.309 Y465.889 I-11.622 J10.869
G1 X240.393 Y452.176
G2 X237.643 Y452.176 I-1.375 J0.794
G1 X229.727 Y465.889
G3 X227.067 Y442.463 I9.291 J-12.919
X250.64 Y442.101 I11.951 J10.507
G1 X250.677 Y442.149 Z-1.488 F600
X250.705 Y442.203 Z-1.476
X250.719 Y442.252 Z-1.441
X250.726 Y442.303 Z-1.407
X250.721 Y442.372 Z-1.304
X250.716 Y442.395 Z-1.183
Z5
G0 X237.982 Y444.546
G1 Z1.317 F300
X237.999 Y444.53 Z1.198
X238.049 Y444.487 Z1.097
X238.127 Y444.426 Z1.027
X238.225 Y444.36 Z1
G3 X239.811 Y446.925 Z0.835 I0.793 J1.283
X238.225 Y444.36 Z0.669 I-0.793 J-1.283
X239.811 Y446.925 Z0.504 I0.793 J1.283
X238.225 Y444.36 Z0.338 I-0.793 J-1.283
X239.811 Y446.925 Z0.173 I0.793 J1.283
X238.225 Y444.36 Z0.007 I-0.793 J-1.283
X239.811 Y446.925 Z-0.158 I0.793 J1.283
X238.225 Y444.36 Z-0.324 I-0.793 J-1.283
X239.811 Y446.925 Z-0.489 I0.793 J1.283
X238.225 Y444.36 Z-0.655 I-0.793 J-1.283
X239.811 Y446.925 Z-0.82 I0.793 J1.283
X238.225 Y444.36 Z-0.985 I-0.793 J-1.283
X239.811 Y446.925 Z-1.151 I0.793 J1.283
X238.225 Y444.36 Z-1.316 I-0.793 J-1.283
X239.811 Y446.925 Z-1.482 I0.793 J1.283
X238.225 Y444.36 Z-1.647 I-0.793 J-1.283
X239.811 Y446.925 Z-1.813 I0.793 J1.283
X238.225 Y444.36 Z-1.978 I-0.793 J-1.283
X239.811 Y446.925 Z-2.144 I0.793 J1.283
X238.225 Y444.36 Z-2.309 I-0.793 J-1.283
X239.811 Y446.925 Z-2.474 I0.793 J1.283
X238.225 Y444.36 Z-2.64 I-0.793 J-1.283
X239.811 Y446.925 Z-2.805 I0.793 J1.283
X238.225 Y444.36 Z-2.971 I-0.793 J-1.283
X239.018 Y444.134 Z-3 I0.793 J1.283
X243.923 Y445.594 I0 J8.972 F1000
X247.202 Y449.522 I-4.782 J7.325
G1 X247.21 Y449.557
X247.204 Y449.593
X247.185 Y449.624
X247.156 Y449.646
X247.121 Y449.656
X247.086 Y449.652
X247.054 Y449.635
X247.03 Y449.608
G3 X246.771 Y449.125 I7.587 J-4.38
G2 X246.513 Y448.643 I-7.845 J3.898
X231.523 Y448.643 I-7.495 J4.327
X231.265 Y449.125 I7.587 J4.38
G3 X231.006 Y449.608 I-7.845 J-3.898
G1 X230.982 Y449.635
X230.95 Y449.652
X230.915 Y449.656
X230.88 Y449.646
X230.851 Y449.624
X230.832 Y449.593
X230.826 Y449.557
X230.834 Y449.522
G3 X234.113 Y445.594 I8.061 J3.396
X239.018 Y444.134 I4.905 J7.513
G2 X240.178 Y443.398 I0 J-1.282
G3 X241.415 Y442.8 I0.987 J0.464
X249.081 Y455.944 I-2.397 J10.205
G1 X249.062 Y455.983
X249.031 Y456.014
X248.992 Y456.033
X248.949 Y456.038
X248.907 Y456.028
X248.87 Y456.006
X248.843 Y455.973
X245.126 Y449.444
G2 X232.91 Y449.444 I-6.108 J3.526
X231.052 Y452.708 I271.57 J156.785
G3 X229.193 Y455.973 I-273.428 J-153.521
G1 X229.166 Y456.006
X229.129 Y456.028
X229.087 Y456.038
X229.044 Y456.033
X229.005 Y456.014
X228.974 Y455.983
X228.955 Y455.944
G3 X239.018 Y442.522 I10.029 J-2.965
X241.415 Y442.8 I0 J10.483
G2 X242.871 Y442.291 I0.328 J-1.398
G3 X244.374 Y441.946 I0.966 J0.763
X249.253 Y459.788 I-5.356 J11.053
X248.956 Y459.778 I-0.146 J-0.097
G1 X243.563 Y450.346
G2 X234.473 Y450.346 I-4.545 J2.624
G1 X229.08 Y459.778
G3 X228.783 Y459.788 I-0.152 J-0.088
X239.018 Y440.717 I10.211 J-6.802
X244.374 Y441.946 I0 J12.282
G2 X245.916 Y441.763 I0.628 J-1.296
G3 X247.469 Y441.729 I0.798 J0.972
X249.023 Y462.91 I-8.451 J11.267
X248.652 Y462.862 I-0.167 J-0.166
G1 X241.999 Y451.249
G2 X236.037 Y451.249 I-2.981 J1.721
G1 X229.384 Y462.862
G3 X229.013 Y462.91 I-0.204 J-0.118
X239.018 Y438.912 I9.986 J-9.921
X247.469 Y441.729 I0 J14.084
G2 X249.063 Y441.845 I0.888 J-1.183
G3 X250.64 Y442.101 I0.624 J1.148
X248.309 Y465.889 I-11.622 J10.869
G1 X240.393 Y452.176
G2 X237.643 Y452.176 I-1.375 J0.794
G1 X229.727 Y465.889
G3 X227.067 Y442.463 I9.291 J-12.919
X250.64 Y442.101 I11.951 J10.507
G1 X250.677 Y442.149 Z-2.988 F600
X250.705 Y442.203 Z-2.976
X250.719 Y442.252 Z-2.941
X250.726 Y442.303 Z-2.907
X250.721 Y442.372 Z-2.804
X250.716 Y442.395 Z-2.683
Z5
G0 Z15
X249.596 Y569.495
Z5
G1 Z2.817 F300
X249.58 Y569.478 Z2.698
X249.536 Y569.43 Z2.597
X249.473 Y569.353 Z2.527
X249.405 Y569.256 Z2.5
G3 X251.938 Y567.618 Z2.335 I1.266 J-0.819
X249.405 Y569.256 Z2.169 I-1.266 J0.819
X251.938 Y567.618 Z2.004 I1.266 J-0.819
X249.405 Y569.256 Z1.838 I-1.266 J0.819
X251.938 Y567.618 Z1.673 I1.266 J-0.819
X249.405 Y569.256 Z1.507 I-1.266 J0.819
X251.938 Y567.618 Z1.342 I1.266 J-0.819
X249.405 Y569.256 Z1.176 I-1.266 J0.819
X251.938 Y567.618 Z1.011 I1.266 J-0.819
X249.405 Y569.256 Z0.845 I-1.266 J0.819
X251.938 Y567.618 Z0.68 I1.266 J-0.819
X249.405 Y569.256 Z0.515 I-1.266 J0.819
X251.938 Y567.618 Z0.349 I1.266 J-0.819
X249.405 Y569.256 Z0.184 I-1.266 J0.819
X251.938 Y567.618 Z0.018 I1.266 J-0.819
X249.405 Y569.256 Z-0.147 I-1.266 J0.819
X251.938 Y567.618 Z-0.313 I1.266 J-0.819
X249.405 Y569.256 Z-0.478 I-1.266 J0.819
X251.938 Y567.618 Z-0.644 I1.266 J-0.819
X249.405 Y569.256 Z-0.809 I-1.266 J0.819
X251.938 Y567.618 Z-0.974 I1.266 J-0.819
X249.405 Y569.256 Z-1.14 I-1.266 J0.819
X251.938 Y567.618 Z-1.305 I1.266 J-0.819
X249.405 Y569.256 Z-1.471 I-1.266 J0.819
X249.163 Y568.468 Z-1.5 I1.266 J-0.819
X249.144 Y566.529 I95.387 J-1.939 F1000
G1 X249.15 Y566.491
X249.169 Y566.457
X249.198 Y566.431
X249.234 Y566.417
X249.273 Y566.416
X249.31 Y566.428
X249.341 Y566.451
X249.362 Y566.484
G2 X249.757 Y567.302 I9.918 J-4.286
X250.207 Y568.092 I15.531 J-8.326
G3 X250.206 Y568.678 I-0.483 J0.292
G2 X249.317 Y570.454 I10.062 J6.146
G1 X249.297 Y570.486
X249.267 Y570.509
X249.232 Y570.52
X249.194 Y570.518
X249.16 Y570.504
X249.132 Y570.478
X249.116 Y570.444
X249.112 Y570.407
G2 X249.163 Y568.468 I-20.641 J-1.518
X248.586 Y567.623 I-0.935 J0.019
G3 X248.018 Y566.772 I0.352 J-0.851
G1 Y566.042
G2 X247.663 Y563.405 I-9.988 J0
X246.666 Y560.939 I-10.985 J3.007
G3 X246.83 Y560.661 I0.164 J-0.09
G1 X249.042
G3 X249.366 Y560.978 I0 J0.324
G2 X249.405 Y562.231 I63.729 J-1.352
X249.56 Y563.474 I7.531 J-0.308
X251.072 Y567.314 I12.086 J-2.542
X251.32 Y567.7 I6.837 J-4.133
G3 X251.574 Y568.082 I-12.345 J8.465
X251.574 Y568.709 I-0.489 J0.314
G1 X251.445 Y568.897
X251.316 Y569.085
G2 X250.126 Y571.497 I10.158 J6.512
X249.436 Y574.097 I14.463 J5.226
G3 X249.049 Y574.422 I-0.387 J-0.067
G1 X248.192
G3 X247.821 Y574.099 I0 J-0.375
G2 X247.584 Y572.893 I-10.521 J1.443
G3 X247.588 Y572.373 I0.976 J-0.251
G2 X248.018 Y569.21 I-11.434 J-3.162
G1 Y566.772
G2 X247.079 Y565.369 I-1.519 J0
G3 X245.986 Y564.081 I0.705 J-1.706
G2 X245.296 Y562.171 I-8.42 J1.961
X242.776 Y559.093 I-8.08 J4.047
G3 X242.857 Y558.856 I0.081 J-0.104
G1 X251.069
G3 X251.315 Y559.152 I0 J0.251
G2 X251.52 Y563.75 I10.05 J1.856
X253.614 Y567.848 I11.114 J-3.095
G1 X253.703 Y567.952
X253.791 Y568.056
G3 X253.805 Y568.594 I-0.349 J0.278
G2 X252.717 Y570.216 I26.734 J19.102
X251.878 Y571.981 I7.08 J4.448
X251.37 Y573.641 I27.41 J9.288
X251.086 Y575.354 I8.236 J2.25
X251.077 Y575.635 I4.467 J0.282
G3 X251.068 Y575.916 I-5.183 J-0.023
X250.737 Y576.228 I-0.331 J-0.019
G1 X246.427
G3 X246.114 Y575.915 I0 J-0.313
G1 X246.12 Y575.728
X246.126 Y575.542
G2 X246.037 Y574.336 I-8.246 J0
X245.785 Y573.154 I-9.379 J1.386
G3 X245.794 Y572.079 I1.851 J-0.521
G2 X246.224 Y569.076 I-9.721 J-2.922
G3 X246.212 Y566.042 I378.84 J-3.034
G2 X245.986 Y564.081 I-8.645 J0
X244.668 Y562.924 I-1.468 J0.342
G3 X243.156 Y562.032 I0.207 J-2.078
G2 X237.353 Y558.989 I-5.803 J4.01
G1 X228.309 Y559.034
X228.268 Y559.027
X228.231 Y559.008
X228.202 Y558.978
X228.184 Y558.941
X228.179 Y558.9
X228.186 Y558.859
X228.207 Y558.823
X228.237 Y558.795
G3 X231.008 Y557.519 I5.514 J8.325
X234.03 Y557.096 I3.022 J10.58
G1 X253.608 Y557.05
G3 X253.791 Y557.333 I0 J0.201
G2 X253.159 Y559.082 I11.08 J4.991
X252.932 Y560.927 I6.1 J1.689
X253.546 Y564.187 I10.316 J-0.255
X254.166 Y565.526 I7.751 J-2.78
X254.998 Y566.745 I8.557 J-4.943
X255.562 Y567.423 I16.574 J-13.218
G3 X256.137 Y568.092 I-72.002 J62.498
X256.135 Y568.599 I-0.297 J0.253
X255.564 Y569.236 I-15.555 J-13.381
G2 X255.039 Y569.911 I3.437 J3.215
X254.233 Y571.192 I79.409 J50.905
X253.588 Y572.56 I5.673 J3.51
X253.094 Y574.249 I19.561 J6.628
X252.827 Y575.989 I9.587 J2.361
X252.855 Y576.861 I4.608 J0.291
X252.973 Y577.725 I48.323 J-6.13
G3 X252.705 Y578.034 I-0.267 J0.039
G1 X244.628
G3 X244.309 Y577.714 I0 J-0.319
X244.331 Y576.628 I26.224 J0
G2 X244.354 Y575.542 I-26.201 J-1.086
X244.213 Y574.262 I-5.922 J0
X243.842 Y573.029 I-8.453 J1.872
G3 X243.85 Y572.17 I1.092 J-0.42
G2 X244.424 Y569.133 I-7.292 J-2.95
G3 X244.406 Y566.042 I278.815 J-3.091
G2 X243.156 Y562.032 I-7.053 J0
X241.443 Y561.446 I-1.253 J0.866
G3 X239.637 Y561.317 I-0.74 J-2.334
G2 X237.353 Y560.794 I-2.284 J4.725
G1 X224.05 Y560.839
G3 X223.905 Y560.564 I0 J-0.175
X228.317 Y556.678 I9.965 J6.868
X234.03 Y555.291 I5.713 J11.062
G1 X257.292 Y555.245
G3 X257.396 Y555.499 I0 J0.148
X256.868 Y555.99 I-10.345 J-10.581
G2 X256.382 Y556.522 I2.288 J2.58
X255.195 Y558.565 I8.662 J6.394
X254.736 Y560.883 I4.943 J2.184
X255.245 Y563.578 I8.511 J-0.21
X256.152 Y565.257 I5.968 J-2.14
X257.323 Y566.766 I57.217 J-43.192
X257.943 Y567.463 I6.863 J-5.474
G3 X258.559 Y568.164 I-5.68 J5.615
X258.528 Y568.658 I-0.294 J0.23
G2 X257.483 Y569.719 I67.324 J67.393
X256.558 Y570.885 I5.346 J5.187
G1 X255.849 Y571.992
G2 X255.297 Y573.14 I4.419 J2.832
X254.746 Y575.126 I17.452 J5.914
X254.673 Y577.187 I5.643 J1.231
X254.851 Y578.122 I10.584 J-1.536
X255.152 Y579.025 I5.24 J-1.244
X255.277 Y579.288 I4.272 J-1.858
G3 X255.401 Y579.551 I-4.148 J2.121
X255.213 Y579.839 I-0.188 J0.082
G1 X242.758
G3 X242.48 Y579.533 I0 J-0.279
G2 X242.562 Y577.538 I-18.485 J-1.752
G3 X242.548 Y575.542 I152.75 J-1.996
G2 X242.341 Y574.162 I-4.682 J0
X241.775 Y572.887 I-5.654 J1.744
G3 X241.781 Y572.276 I0.508 J-0.301
G2 X242.625 Y569.216 I-4.821 J-2.977
G3 X242.602 Y566.042 I216.081 J-3.174
G2 X239.637 Y561.317 I-5.249 J0
X237.843 Y561.763 I-0.629 J1.301
G3 X236.194 Y562.599 I-1.649 J-1.208
G1 X222.353
G2 X221.619 Y562.701 I0 J2.7
X220.923 Y562.959 I1.273 J4.501
G1 X220.882 Y562.97
X220.84 Y562.967
X220.801 Y562.951
X220.769 Y562.922
X220.749 Y562.884
X220.742 Y562.842
X220.749 Y562.8
G3 X234.03 Y553.484 I13.218 J4.719
G1 X258.493 Y553.44
G3 X258.796 Y553.476 I0 J1.318
X260.026 Y553.802 I-5.388 J22.826
X261.24 Y554.187 I-8.286 J28.168
X261.305 Y554.506 I-0.061 J0.179
X259.739 Y555.827 I-18.808 J-20.699
G2 X258.197 Y557.178 I11.504 J14.693
X257.34 Y558.293 I3.495 J3.574
X256.75 Y559.57 I7.501 J4.238
X256.501 Y561.006 I3.846 J1.407
X256.756 Y562.441 I4.341 J-0.03
X257.632 Y564.176 I7.436 J-2.667
X258.806 Y565.725 I14.092 J-9.456
X259.918 Y567.003 I60.344 J-51.408
G3 X260.936 Y568.357 I-7.699 J6.849
X260.875 Y568.874 I-0.35 J0.221
X259.392 Y570.288 I-59.802 J-61.257
G2 X258.079 Y571.86 I5.569 J5.984
G3 X257.487 Y572.757 I-33.395 J-21.408
G2 X257.008 Y573.719 I3.297 J2.242
X256.544 Y575.291 I19.402 J6.575
X256.46 Y576.927 I4.092 J1.031
X256.826 Y578.459 I8.644 J-1.254
X257.521 Y579.871 I5.632 J-1.895
X258.054 Y580.625 I15.07 J-10.097
G3 X258.587 Y581.378 I-18.532 J13.677
X258.446 Y581.644 I-0.141 J0.096
G1 X239.856
G3 X239.751 Y581.397 I0 J-0.146
G2 X240.475 Y580.315 I-2.689 J-2.584
X240.742 Y579.042 I-2.892 J-1.273
G3 X240.758 Y575.687 I359.66 J0
G2 X239.193 Y572.72 I-3.533 J-0.033
G3 X239.196 Y572.397 I0.108 J-0.16
G2 X240.805 Y569.423 I-1.907 J-2.954
G3 X240.796 Y566.042 I593.957 J-3.381
G2 X237.353 Y562.599 I-3.443 J0
G1 X236.194
X236.134 Y562.594 Z-1.488 F600
X236.076 Y562.577 Z-1.476
X236.03 Y562.554 Z-1.441
X235.988 Y562.523 Z-1.407
X235.941 Y562.473 Z-1.304
X235.927 Y562.454 Z-1.183
Z5
G0 X221.863 Y573.455
G1 Z2.817 F300
X221.879 Y573.438 Z2.698
X221.927 Y573.393 Z2.597
X222.002 Y573.328 Z2.527
X222.097 Y573.258 Z2.5
G3 X223.798 Y575.748 Z2.335 I0.851 J1.245
X222.097 Y573.258 Z2.169 I-0.851 J-1.245
X223.798 Y575.748 Z2.004 I0.851 J1.245
X222.097 Y573.258 Z1.838 I-0.851 J-1.245
X223.798 Y575.748 Z1.673 I0.851 J1.245
X222.097 Y573.258 Z1.507 I-0.851 J-1.245
X223.798 Y575.748 Z1.342 I0.851 J1.245
X222.097 Y573.258 Z1.176 I-0.851 J-1.245
X223.798 Y575.748 Z1.011 I0.851 J1.245
X222.097 Y573.258 Z0.845 I-0.851 J-1.245
X223.798 Y575.748 Z0.68 I0.851 J1.245
X222.097 Y573.258 Z0.515 I-0.851 J-1.245
X223.798 Y575.748 Z0.349 I0.851 J1.245
X222.097 Y573.258 Z0.184 I-0.851 J-1.245
X223.798 Y575.748 Z0.018 I0.851 J1.245
X222.097 Y573.258 Z-0.147 I-0.851 J-1.245
X223.798 Y575.748 Z-0.313 I0.851 J1.245
X222.097 Y573.258 Z-0.478 I-0.851 J-1.245
X223.798 Y575.748 Z-0.644 I0.851 J1.245
X222.097 Y573.258 Z-0.809 I-0.851 J-1.245
X223.798 Y575.748 Z-0.974 I0.851 J1.245
X222.097 Y573.258 Z-1.14 I-0.851 J-1.245
X223.798 Y575.748 Z-1.305 I0.851 J1.245
X222.097 Y573.258 Z-1.471 I-0.851 J-1.245
X222.878 Y572.996 Z-1.5 I0.851 J1.245
G1 X222.934 Y572.993 F1000
G3 X224.744 Y572.94 I1.811 J30.915
X224.849 Y573.187 I0 J0.146
G2 X224.125 Y574.269 I2.689 J2.584
X223.857 Y575.542 I2.892 J1.273
X223.88 Y576.288 I12.623 J0
G3 X223.902 Y577.034 I-12.601 J0.746
G1 X223.894 Y577.076
X223.873 Y577.114
X223.84 Y577.143
X223.8 Y577.159
X223.756 Y577.16
X223.715 Y577.147
X223.68 Y577.12
G3 X220.98 Y572.885 I10.35 J-9.578
G1 X220.971 Y572.844
X220.975 Y572.802
X220.993 Y572.764
X221.023 Y572.734
X221.06 Y572.715
X221.102 Y572.71
X221.143 Y572.718
G2 X222.878 Y572.996 I1.538 J-4.037
X224.227 Y572.047 I-0.07 J-1.532
G3 X225.596 Y571.13 I1.369 J0.563
G1 X237.353
G2 X238.941 Y569.542 I0 J-1.588
G1 Y566.042
G2 X237.353 Y564.455 I-1.588 J0
G1 X222.353
G2 X220.766 Y566.042 I0 J1.587
G1 Y569.542
G2 X222.353 Y571.13 I1.587 J0
G1 X225.596
X225.657 Y571.135 Z-1.488 F600
X225.715 Y571.152 Z-1.476
X225.761 Y571.175 Z-1.441
X225.802 Y571.206 Z-1.407
X225.85 Y571.256 Z-1.304
X225.863 Y571.275 Z-1.183
Z5
G0 X225.715 Y573.943
G1 Z2.817 F300
X225.725 Y573.964 Z2.698
X225.751 Y574.024 Z2.597
X225.785 Y574.117 Z2.527
X225.818 Y574.231 Z2.5
G3 X222.89 Y574.953 Z2.335 I-1.464 J0.361
X225.818 Y574.231 Z2.169 I1.464 J-0.361
X222.89 Y574.953 Z2.004 I-1.464 J0.361
X225.818 Y574.231 Z1.838 I1.464 J-0.361
X222.89 Y574.953 Z1.673 I-1.464 J0.361
X225.818 Y574.231 Z1.507 I1.464 J-0.361
X222.89 Y574.953 Z1.342 I-1.464 J0.361
X225.818 Y574.231 Z1.176 I1.464 J-0.361
X222.89 Y574.953 Z1.011 I-1.464 J0.361
X225.818 Y574.231 Z0.845 I1.464 J-0.361
X222.89 Y574.953 Z0.68 I-1.464 J0.361
X225.818 Y574.231 Z0.515 I1.464 J-0.361
X222.89 Y574.953 Z0.349 I-1.464 J0.361
X225.818 Y574.231 Z0.184 I1.464 J-0.361
X222.89 Y574.953 Z0.018 I-1.464 J0.361
X225.818 Y574.231 Z-0.147 I1.464 J-0.361
X222.89 Y574.953 Z-0.313 I-1.464 J0.361
X225.818 Y574.231 Z-0.478 I1.464 J-0.361
X222.89 Y574.953 Z-0.644 I-1.464 J0.361
X225.818 Y574.231 Z-0.809 I1.464 J-0.361
X222.89 Y574.953 Z-0.974 I-1.464 J0.361
X225.818 Y574.231 Z-1.14 I1.464 J-0.361
X222.89 Y574.953 Z-1.305 I-1.464 J0.361
X225.818 Y574.231 Z-1.471 I1.464 J-0.361
X225.789 Y575.055 Z-1.5 I-1.464 J0.361
G2 X225.712 Y575.542 I1.511 J0.487 F1000
G1 Y579.042
G2 X227.3 Y580.63 I1.588 J0
G1 X237.3
G2 X238.887 Y579.042 I0 J-1.588
G1 Y575.542
G2 X237.3 Y573.955 I-1.587 J0
G1 X227.3
G2 X225.789 Y575.055 I0 J1.587
G1 X225.765 Y575.11 Z-1.488 F600
X225.731 Y575.161 Z-1.476
X225.695 Y575.197 Z-1.441
X225.653 Y575.228 Z-1.407
X225.591 Y575.257 Z-1.304
X225.568 Y575.264 Z-1.183
Z5
G0 X221.231 Y576.347
G1 Z2.817 F300
X221.209 Y576.34 Z2.698
X221.146 Y576.32 Z2.597
X221.053 Y576.284 Z2.527
X220.947 Y576.233 Z2.5
G3 X222.343 Y573.56 Z2.335 I0.698 J-1.337
X220.947 Y576.233 Z2.169 I-0.698 J1.337
X222.343 Y573.56 Z2.004 I0.698 J-1.337
X220.947 Y576.233 Z1.838 I-0.698 J1.337
X222.343 Y573.56 Z1.673 I0.698 J-1.337
X220.947 Y576.233 Z1.507 I-0.698 J1.337
X222.343 Y573.56 Z1.342 I0.698 J-1.337
X220.947 Y576.233 Z1.176 I-0.698 J1.337
X222.343 Y573.56 Z1.011 I0.698 J-1.337
X220.947 Y576.233 Z0.845 I-0.698 J1.337
X222.343 Y573.56 Z0.68 I0.698 J-1.337
X220.947 Y576.233 Z0.515 I-0.698 J1.337
X222.343 Y573.56 Z0.349 I0.698 J-1.337
X220.947 Y576.233 Z0.184 I-0.698 J1.337
X222.343 Y573.56 Z0.018 I0.698 J-1.337
X220.947 Y576.233 Z-0.147 I-0.698 J1.337
X222.343 Y573.56 Z-0.313 I0.698 J-1.337
X220.947 Y576.233 Z-0.478 I-0.698 J1.337
X222.343 Y573.56 Z-0.644 I0.698 J-1.337
X220.947 Y576.233 Z-0.809 I-0.698 J1.337
X222.343 Y573.56 Z-0.974 I0.698 J-1.337
X220.947 Y576.233 Z-1.14 I-0.698 J1.337
X222.343 Y573.56 Z-1.305 I0.698 J-1.337
X220.947 Y576.233 Z-1.471 I-0.698 J1.337
X220.348 Y575.667 Z-1.5 I0.698 J-1.337
X234.03 Y551.63 I13.682 J-8.125 F1000
G1 X258.85
X259.076 Y551.681
X259.587 Y551.802
X260.828 Y552.133
X262.05 Y552.55
X263.036 Y553.016
X263.687 Y553.47
X263.983 Y553.811
X264.04 Y553.966
X264.028 Y554.113
X263.848 Y554.489
X263.407 Y555.043
X261.855 Y556.453
X260.224 Y557.798
X260.124 Y557.888
X259.494 Y558.504
G2 X259.327 Y558.696 I1.11 J1.135
G1 X258.904 Y559.269
G2 X258.69 Y559.666 I1.277 J0.943
G1 X258.492 Y560.207
G2 X258.396 Y560.792 I1.491 J0.546
G1 X258.409 Y561.318
G2 X258.502 Y561.815 I1.587 J-0.039
G1 X258.691 Y562.342
G2 X258.826 Y562.627 I1.494 J-0.536
G1 X259.153 Y563.168
X259.209 Y563.254
X259.271 Y563.337
X260.185 Y564.483
X260.218 Y564.522
X261.242 Y565.726
X262.153 Y566.893
X262.797 Y567.914
X263.12 Y568.713
X263.146 Y568.875
Y568.895
X263.026 Y569.206
X262.598 Y569.723
X261.774 Y570.527
X261.761 Y570.54
X260.778 Y571.522
X260.697 Y571.61
X259.773 Y572.683
X259.704 Y572.77
X259.641 Y572.861
X258.932 Y573.967
G2 X258.764 Y574.315 I1.336 J0.857
G1 X258.396 Y575.401
G2 X258.316 Y575.81 I1.504 J0.509
G1 X258.283 Y576.333
G2 X258.296 Y576.661 I1.584 J0.1
G1 X258.37 Y577.171
G2 X258.485 Y577.576 I1.571 J-0.228
G1 X258.925 Y578.588
G2 X259.062 Y578.839 I1.456 J-0.633
G1 X259.791 Y579.927
X260.57 Y581.075
X261.142 Y582.173
X261.259 Y582.546
X261.289 Y582.803
X261.274 Y582.898
X261.26 Y582.924
X261.147 Y583.021
X260.766 Y583.196
X260.04 Y583.362
X258.962 Y583.455
X234.03
G3 X220.348 Y575.667 I0 J-15.913
G1 X220.322 Y575.612 Z-1.488 F600
X220.307 Y575.553 Z-1.476
X220.303 Y575.502 Z-1.441
X220.308 Y575.45 Z-1.407
X220.327 Y575.384 Z-1.304
X220.337 Y575.362 Z-1.183
Z5
G0 X221.863 Y573.455
G1 Z1.317 F300
X221.879 Y573.438 Z1.198
X221.927 Y573.393 Z1.097
X222.002 Y573.328 Z1.027
X222.097 Y573.258 Z1
G3 X223.798 Y575.748 Z0.835 I0.851 J1.245
X222.097 Y573.258 Z0.669 I-0.851 J-1.245
X223.798 Y575.748 Z0.504 I0.851 J1.245
X222.097 Y573.258 Z0.338 I-0.851 J-1.245
X223.798 Y575.748 Z0.173 I0.851 J1.245
X222.097 Y573.258 Z0.007 I-0.851 J-1.245
X223.798 Y575.748 Z-0.158 I0.851 J1.245
X222.097 Y573.258 Z-0.324 I-0.851 J-1.245
X223.798 Y575.748 Z-0.489 I0.851 J1.245
X222.097 Y573.258 Z-0.655 I-0.851 J-1.245
X223.798 Y575.748 Z-0.82 I0.851 J1.245
X222.097 Y573.258 Z-0.985 I-0.851 J-1.245
X223.798 Y575.748 Z-1.151 I0.851 J1.245
X222.097 Y573.258 Z-1.316 I-0.851 J-1.245
X223.798 Y575.748 Z-1.482 I0.851 J1.245
X222.097 Y573.258 Z-1.647 I-0.851 J-1.245
X223.798 Y575.748 Z-1.813 I0.851 J1.245
X222.097 Y573.258 Z-1.978 I-0.851 J-1.245
X223.798 Y575.748 Z-2.144 I0.851 J1.245
X222.097 Y573.258 Z-2.309 I-0.851 J-1.245
X223.798 Y575.748 Z-2.474 I0.851 J1.245
X222.097 Y573.258 Z-2.64 I-0.851 J-1.245
X223.798 Y575.748 Z-2.805 I0.851 J1.245
X222.097 Y573.258 Z-2.971 I-0.851 J-1.245
X222.878 Y572.996 Z-3 I0.851 J1.245
G1 X222.934 Y572.993 F1000
G3 X224.744 Y572.94 I1.811 J30.915
X224.849 Y573.187 I0 J0.146
G2 X224.125 Y574.269 I2.689 J2.584
X223.857 Y575.542 I2.892 J1.273
X223.88 Y576.288 I12.623 J0
G3 X223.902 Y577.034 I-12.601 J0.746
G1 X223.894 Y577.076
X223.873 Y577.114
X223.84 Y577.143
X223.8 Y577.159
X223.756 Y577.16
X223.715 Y577.147
X223.68 Y577.12
G3 X220.98 Y572.885 I10.35 J-9.578
G1 X220.971 Y572.844
X220.975 Y572.802
X220.993 Y572.764
X221.023 Y572.734
X221.06 Y572.715
X221.102 Y572.71
X221.143 Y572.718
G2 X222.878 Y572.996 I1.538 J-4.037
G1 X222.939 Y573.002 Z-2.988 F600
X222.997 Y573.019 Z-2.976
X223.043 Y573.042 Z-2.941
X223.085 Y573.072 Z-2.907
X223.132 Y573.122 Z-2.804
X223.146 Y573.142 Z-2.683
Z5
G0 X249.596 Y569.495
G1 Z1.317 F300
X249.58 Y569.478 Z1.198
X249.536 Y569.43 Z1.097
X249.473 Y569.353 Z1.027
X249.405 Y569.256 Z1
G3 X251.938 Y567.618 Z0.835 I1.266 J-0.819
X249.405 Y569.256 Z0.669 I-1.266 J0.819
X251.938 Y567.618 Z0.504 I1.266 J-0.819
X249.405 Y569.256 Z0.338 I-1.266 J0.819
X251.938 Y567.618 Z0.173 I1.266 J-0.819
X249.405 Y569.256 Z0.007 I-1.266 J0.819
X251.938 Y567.618 Z-0.158 I1.266 J-0.819
X249.405 Y569.256 Z-0.324 I-1.266 J0.819
X251.938 Y567.618 Z-0.489 I1.266 J-0.819
X249.405 Y569.256 Z-0.655 I-1.266 J0.819
X251.938 Y567.618 Z-0.82 I1.266 J-0.819
X249.405 Y569.256 Z-0.985 I-1.266 J0.819
X251.938 Y567.618 Z-1.151 I1.266 J-0.819
X249.405 Y569.256 Z-1.316 I-1.266 J0.819
X251.938 Y567.618 Z-1.482 I1.266 J-0.819
X249.405 Y569.256 Z-1.647 I-1.266 J0.819
X251.938 Y567.618 Z-1.813 I1.266 J-0.819
X249.405 Y569.256 Z-1.978 I-1.266 J0.819
X251.938 Y567.618 Z-2.144 I1.266 J-0.819
X249.405 Y569.256 Z-2.309 I-1.266 J0.819
X251.938 Y567.618 Z-2.474 I1.266 J-0.819
X249.405 Y569.256 Z-2.64 I-1.266 J0.819
X251.938 Y567.618 Z-2.805 I1.266 J-0.819
X249.405 Y569.256 Z-2.971 I-1.266 J0.819
X249.163 Y568.468 Z-3 I1.266 J-0.819
X249.144 Y566.529 I95.387 J-1.939 F1000
G1 X249.15 Y566.491
X249.169 Y566.457
X249.198 Y566.431
X249.234 Y566.417
X249.273 Y566.416
X249.31 Y566.428
X249.341 Y566.451
X249.362 Y566.484
G2 X249.757 Y567.302 I9.918 J-4.286
X250.207 Y568.092 I15.531 J-8.326
G3 X250.206 Y568.678 I-0.483 J0.292
G2 X249.317 Y570.454 I10.062 J6.146
G1 X249.297 Y570.486
X249.267 Y570.509
X249.232 Y570.52
X249.194 Y570.518
X249.16 Y570.504
X249.132 Y570.478
X249.116 Y570.444
X249.112 Y570.407
G2 X249.163 Y568.468 I-20.641 J-1.518
X248.586 Y567.623 I-0.935 J0.019
G3 X248.018 Y566.772 I0.352 J-0.851
G1 Y566.042
G2 X247.663 Y563.405 I-9.988 J0
X246.666 Y560.939 I-10.985 J3.007
G3 X246.83 Y560.661 I0.164 J-0.09
G1 X249.042
G3 X249.366 Y560.978 I0 J0.324
G2 X249.405 Y562.231 I63.729 J-1.352
X249.56 Y563.474 I7.531 J-0.308
X251.072 Y567.314 I12.086 J-2.542
X251.32 Y567.7 I6.837 J-4.133
G3 X251.574 Y568.082 I-12.345 J8.465
X251.574 Y568.709 I-0.489 J0.314
G1 X251.445 Y568.897
X251.316 Y569.085
G2 X250.126 Y571.497 I10.158 J6.512
X249.436 Y574.097 I14.463 J5.226
G3 X249.049 Y574.422 I-0.387 J-0.067
G1 X248.192
G3 X247.821 Y574.099 I0 J-0.375
G2 X247.584 Y572.893 I-10.521 J1.443
G3 X247.588 Y572.373 I0.976 J-0.251
G2 X248.018 Y569.21 I-11.434 J-3.162
G1 Y566.772
G2 X247.079 Y565.369 I-1.519 J0
G3 X245.986 Y564.081 I0.705 J-1.706
G2 X245.296 Y562.171 I-8.42 J1.961
X242.776 Y559.093 I-8.08 J4.047
G3 X242.857 Y558.856 I0.081 J-0.104
G1 X251.069
G3 X251.315 Y559.152 I0 J0.251
G2 X251.52 Y563.75 I10.05 J1.856
X253.614 Y567.848 I11.114 J-3.095
G1 X253.703 Y567.952
X253.791 Y568.056
G3 X253.805 Y568.594 I-0.349 J0.278
G2 X252.717 Y570.216 I26.734 J19.102
X251.878 Y571.981 I7.08 J4.448
X251.37 Y573.641 I27.41 J9.288
X251.086 Y575.354 I8.236 J2.25
X251.077 Y575.635 I4.467 J0.282
G3 X251.068 Y575.916 I-5.183 J-0.023
X250.737 Y576.228 I-0.331 J-0.019
G1 X246.427
G3 X246.114 Y575.915 I0 J-0.313
G1 X246.12 Y575.728
X246.126 Y575.542
G2 X246.037 Y574.336 I-8.246 J0
X245.785 Y573.154 I-9.379 J1.386
G3 X245.794 Y572.079 I1.851 J-0.521
G2 X246.224 Y569.076 I-9.721 J-2.922
G3 X246.212 Y566.042 I378.84 J-3.034
G2 X245.986 Y564.081 I-8.645 J0
X244.668 Y562.924 I-1.468 J0.342
G3 X243.156 Y562.032 I0.207 J-2.078
G2 X237.353 Y558.989 I-5.803 J4.01
G1 X228.309 Y559.034
X228.268 Y559.027
X228.231 Y559.008
X228.202 Y558.978
X228.184 Y558.941
X228.179 Y558.9
X228.186 Y558.859
X228.207 Y558.823
X228.237 Y558.795
G3 X231.008 Y557.519 I5.514 J8.325
X234.03 Y557.096 I3.022 J10.58
G1 X253.608 Y557.05
G3 X253.791 Y557.333 I0 J0.201
G2 X253.159 Y559.082 I11.08 J4.991
X252.932 Y560.927 I6.1 J1.689
X253.546 Y564.187 I10.316 J-0.255
X254.166 Y565.526 I7.751 J-2.78
X254.998 Y566.745 I8.557 J-4.943
X255.562 Y567.423 I16.574 J-13.218
G3 X256.137 Y568.092 I-72.002 J62.498
X256.135 Y568.599 I-0.297 J0.253
X255.564 Y569.236 I-15.555 J-13.381
G2 X255.039 Y569.911 I3.437 J3.215
X254.233 Y571.192 I79.409 J50.905
X253.588 Y572.56 I5.673 J3.51
X253.094 Y574.249 I19.561 J6.628
X252.827 Y575.989 I9.587 J2.361
X252.855 Y576.861 I4.608 J0.291
X252.973 Y577.725 I48.323 J-6.13
G3 X252.705 Y578.034 I-0.267 J0.039
G1 X244.628
G3 X244.309 Y577.714 I0 J-0.319
X244.331 Y576.628 I26.224 J0
G2 X244.354 Y575.542 I-26.201 J-1.086
X244.213 Y574.262 I-5.922 J0
X243.842 Y573.029 I-8.453 J1.872
G3 X243.85 Y572.17 I1.092 J-0.42
G2 X244.424 Y569.133 I-7.292 J-2.95
G3 X244.406 Y566.042 I278.815 J-3.091
G2 X243.156 Y562.032 I-7.053 J0
X241.443 Y561.446 I-1.253 J0.866
G3 X239.637 Y561.317 I-0.74 J-2.334
G2 X237.353 Y560.794 I-2.284 J4.725
G1 X224.05 Y560.839
G3 X223.905 Y560.564 I0 J-0.175
X228.317 Y556.678 I9.965 J6.868
X234.03 Y555.291 I5.713 J11.062
G1 X257.292 Y555.245
G3 X257.396 Y555.499 I0 J0.148
X256.868 Y555.99 I-10.345 J-10.581
G2 X256.382 Y556.522 I2.288 J2.58
X255.195 Y558.565 I8.662 J6.394
X254.736 Y560.883 I4.943 J2.184
X255.245 Y563.578 I8.511 J-0.21
X256.152 Y565.257 I5.968 J-2.14
X257.323 Y566.766 I57.217 J-43.192
X257.943 Y567.463 I6.863 J-5.474
G3 X258.559 Y568.164 I-5.68 J5.615
X258.528 Y568.658 I-0.294 J0.23
G2 X257.483 Y569.719 I67.324 J67.393
X256.558 Y570.885 I5.346 J5.187
G1 X255.849 Y571.992
G2 X255.297 Y573.14 I4.419 J2.832
X254.746 Y575.126 I17.452 J5.914
X254.673 Y577.187 I5.643 J1.231
X254.851 Y578.122 I10.584 J-1.536
X255.152 Y579.025 I5.24 J-1.244
X255.277 Y579.288 I4.272 J-1.858
G3 X255.401 Y579.551 I-4.148 J2.121
X255.213 Y579.839 I-0.188 J0.082
G1 X242.758
G3 X242.48 Y579.533 I0 J-0.279
G2 X242.562 Y577.538 I-18.485 J-1.752
G3 X242.548 Y575.542 I152.75 J-1.996
G2 X242.341 Y574.162 I-4.682 J0
X241.775 Y572.887 I-5.654 J1.744
G3 X241.781 Y572.276 I0.508 J-0.301
G2 X242.625 Y569.216 I-4.821 J-2.977
G3 X242.602 Y566.042 I216.081 J-3.174
G2 X239.637 Y561.317 I-5.249 J0
X237.843 Y561.763 I-0.629 J1.301
G3 X236.194 Y562.599 I-1.649 J-1.208
G1 X222.353
G2 X221.619 Y562.701 I0 J2.7
X220.923 Y562.959 I1.273 J4.501
G1 X220.882 Y562.97
X220.84 Y562.967
X220.801 Y562.951
X220.769 Y562.922
X220.749 Y562.884
X220.742 Y562.842
X220.749 Y562.8
G3 X234.03 Y553.484 I13.218 J4.719
G1 X258.493 Y553.44
G3 X258.796 Y553.476 I0 J1.318
X260.026 Y553.802 I-5.388 J22.826
X261.24 Y554.187 I-8.286 J28.168
X261.305 Y554.506 I-0.061 J0.179
X259.739 Y555.827 I-18.808 J-20.699
G2 X258.197 Y557.178 I11.504 J14.693
X257.34 Y558.293 I3.495 J3.574
X256.75 Y559.57 I7.501 J4.238
X256.501 Y561.006 I3.846 J1.407
X256.756 Y562.441 I4.341 J-0.03
X257.632 Y564.176 I7.436 J-2.667
X258.806 Y565.725 I14.092 J-9.456
X259.918 Y567.003 I60.344 J-51.408
G3 X260.936 Y568.357 I-7.699 J6.849
X260.875 Y568.874 I-0.35 J0.221
X259.392 Y570.288 I-59.802 J-61.257
G2 X258.079 Y571.86 I5.569 J5.984
G3 X257.487 Y572.757 I-33.395 J-21.408
G2 X257.008 Y573.719 I3.297 J2.242
X256.544 Y575.291 I19.402 J6.575
X256.46 Y576.927 I4.092 J1.031
X256.826 Y578.459 I8.644 J-1.254
X257.521 Y579.871 I5.632 J-1.895
X258.054 Y580.625 I15.07 J-10.097
G3 X258.587 Y581.378 I-18.532 J13.677
X258.446 Y581.644 I-0.141 J0.096
G1 X239.856
G3 X239.751 Y581.397 I0 J-0.146
G2 X240.475 Y580.315 I-2.689 J-2.584
X240.742 Y579.042 I-2.892 J-1.273
G3 X240.758 Y575.687 I359.66 J0
G2 X239.193 Y572.72 I-3.533 J-0.033
G3 X239.196 Y572.397 I0.108 J-0.16
G2 X240.805 Y569.423 I-1.907 J-2.954
G3 X240.796 Y566.042 I593.957 J-3.381
G2 X237.353 Y562.599 I-3.443 J0
G1 X236.194
G2 X234.803 Y563.527 I0 J1.507
G3 X233.412 Y564.455 I-1.391 J-0.58
G1 X222.353
G2 X220.766 Y566.042 I0 J1.587
G1 Y569.542
G2 X222.353 Y571.13 I1.587 J0
G1 X237.353
G2 X238.941 Y569.542 I0 J-1.588
G1 Y566.042
G2 X237.353 Y564.455 I-1.588 J0
G1 X233.412
X233.351 Y564.449 Z-2.988 F600
X233.293 Y564.432 Z-2.976
X233.247 Y564.409 Z-2.941
X233.205 Y564.378 Z-2.907
X233.158 Y564.328 Z-2.804
X233.145 Y564.309 Z-2.683
Z5
G0 X225.715 Y573.943
G1 Z1.317 F300
X225.725 Y573.964 Z1.198
X225.751 Y574.024 Z1.097
X225.785 Y574.117 Z1.027
X225.818 Y574.231 Z1
G3 X222.89 Y574.953 Z0.835 I-1.464 J0.361
X225.818 Y574.231 Z0.669 I1.464 J-0.361
X222.89 Y574.953 Z0.504 I-1.464 J0.361
X225.818 Y574.231 Z0.338 I1.464 J-0.361
X222.89 Y574.953 Z0.173 I-1.464 J0.361
X225.818 Y574.231 Z0.007 I1.464 J-0.361
X222.89 Y574.953 Z-0.158 I-1.464 J0.361
X225.818 Y574.231 Z-0.324 I1.464 J-0.361
X222.89 Y574.953 Z-0.489 I-1.464 J0.361
X225.818 Y574.231 Z-0.655 I1.464 J-0.361
X222.89 Y574.953 Z-0.82 I-1.464 J0.361
X225.818 Y574.231 Z-0.985 I1.464 J-0.361
X222.89 Y574.953 Z-1.151 I-1.464 J0.361
X225.818 Y574.231 Z-1.316 I1.464 J-0.361
X222.89 Y574.953 Z-1.482 I-1.464 J0.361
X225.818 Y574.231 Z-1.647 I1.464 J-0.361
X222.89 Y574.953 Z-1.813 I-1.464 J0.361
X225.818 Y574.231 Z-1.978 I1.464 J-0.361
X222.89 Y574.953 Z-2.144 I-1.464 J0.361
X225.818 Y574.231 Z-2.309 I1.464 J-0.361
X222.89 Y574.953 Z-2.474 I-1.464 J0.361
X225.818 Y574.231 Z-2.64 I1.464 J-0.361
X222.89 Y574.953 Z-2.805 I-1.464 J0.361
X225.818 Y574.231 Z-2.971 I1.464 J-0.361
X225.789 Y575.055 Z-3 I-1.464 J0.361
G2 X225.712 Y575.542 I1.511 J0.487 F1000
G1 Y579.042
G2 X227.3 Y580.63 I1.588 J0
G1 X237.3
G2 X238.887 Y579.042 I0 J-1.588
G1 Y575.542
G2 X237.3 Y573.955 I-1.587 J0
G1 X227.3
G2 X225.789 Y575.055 I0 J1.587
G1 X225.765 Y575.11 Z-2.988 F600
X225.731 Y575.161 Z-2.976
X225.695 Y575.197 Z-2.941
X225.653 Y575.228 Z-2.907
X225.591 Y575.257 Z-2.804
X225.568 Y575.264 Z-2.683
Z5
G0 X221.231 Y576.347
G1 Z1.317 F300
X221.209 Y576.34 Z1.198
X221.146 Y576.32 Z1.097
X221.053 Y576.284 Z1.027
X220.947 Y576.233 Z1
G3 X222.343 Y573.56 Z0.835 I0.698 J-1.337
X220.947 Y576.233 Z0.669 I-0.698 J1.337
X222.343 Y573.56 Z0.504 I0.698 J-1.337
X220.947 Y576.233 Z0.338 I-0.698 J1.337
X222.343 Y573.56 Z0.173 I0.698 J-1.337
X220.947 Y576.233 Z0.007 I-0.698 J1.337
X222.343 Y573.56 Z-0.158 I0.698 J-1.337
X220.947 Y576.233 Z-0.324 I-0.698 J1.337
X222.343 Y573.56 Z-0.489 I0.698 J-1.337
X220.947 Y576.233 Z-0.655 I-0.698 J1.337
X222.343 Y573.56 Z-0.82 I0.698 J-1.337
X220.947 Y576.233 Z-0.985 I-0.698 J1.337
X222.343 Y573.56 Z-1.151 I0.698 J-1.337
X220.947 Y576.233 Z-1.316 I-0.698 J1.337
X222.343 Y573.56 Z-1.482 I0.698 J-1.337
X220.947 Y576.233 Z-1.647 I-0.698 J1.337
X222.343 Y573.56 Z-1.813 I0.698 J-1.337
X220.947 Y576.233 Z-1.978 I-0.698 J1.337
X222.343 Y573.56 Z-2.144 I0.698 J-1.337
X220.947 Y576.233 Z-2.309 I-0.698 J1.337
X222.343 Y573.56 Z-2.474 I0.698 J-1.337
X220.947 Y576.233 Z-2.64 I-0.698 J1.337
X222.343 Y573.56 Z-2.805 I0.698 J-1.337
X220.947 Y576.233 Z-2.971 I-0.698 J1.337
X220.348 Y575.667 Z-3 I0.698 J-1.337
X234.03 Y551.63 I13.682 J-8.125 F1000
G1 X258.85
X259.076 Y551.681
X259.587 Y551.802
X260.828 Y552.133
X262.05 Y552.55
X263.036 Y553.016
X263.687 Y553.47
X263.983 Y553.811
X264.04 Y553.966
X264.028 Y554.113
X263.848 Y554.489
X263.407 Y555.043
X261.855 Y556.453
X260.224 Y557.798
X260.124 Y557.888
X259.494 Y558.504
G2 X259.327 Y558.696 I1.11 J1.135
G1 X258.904 Y559.269
G2 X258.69 Y559.666 I1.277 J0.943
G1 X258.492 Y560.207
G2 X258.396 Y560.792 I1.491 J0.546
G1 X258.409 Y561.318
G2 X258.502 Y561.815 I1.587 J-0.039
G1 X258.691 Y562.342
G2 X258.826 Y562.627 I1.494 J-0.536
G1 X259.153 Y563.168
X259.209 Y563.254
X259.271 Y563.337
X260.185 Y564.483
X260.218 Y564.522
X261.242 Y565.726
X262.153 Y566.893
X262.797 Y567.914
X263.12 Y568.713
X263.146 Y568.875
Y568.895
X263.026 Y569.206
X262.598 Y569.723
X261.774 Y570.527
X261.761 Y570.54
X260.778 Y571.522
X260.697 Y571.61
X259.773 Y572.683
X259.704 Y572.77
X259.641 Y572.861
X258.932 Y573.967
G2 X258.764 Y574.315 I1.336 J0.857
G1 X258.396 Y575.401
G2 X258.316 Y575.81 I1.504 J0.509
G1 X258.283 Y576.333
G2 X258.296 Y576.661 I1.584 J0.1
G1 X258.37 Y577.171
G2 X258.485 Y577.576 I1.571 J-0.228
G1 X258.925 Y578.588
G2 X259.062 Y578.839 I1.456 J-0.633
G1 X259.791 Y579.927
X260.57 Y581.075
X261.142 Y582.173
X261.259 Y582.546
X261.289 Y582.803
X261.274 Y582.898
X261.26 Y582.924
X261.147 Y583.021
X260.766 Y583.196
X260.04 Y583.362
X258.962 Y583.455
X234.03
G3 X220.348 Y575.667 I0 J-15.913
G1 X220.322 Y575.612 Z-2.988 F600
X220.307 Y575.553 Z-2.976
X220.303 Y575.502 Z-2.941
X220.308 Y575.45 Z-2.907
X220.327 Y575.384 Z-2.804
X220.337 Y575.362 Z-2.683
Z5
G0 X420.222 Y560.499
G1 Z2.817 F300
X420.205 Y560.514 Z2.698
X420.153 Y560.555 Z2.597
X420.072 Y560.612 Z2.527
X419.971 Y560.674 Z2.5
G3 X418.504 Y558.039 Z2.335 I-0.734 J-1.318
X419.971 Y560.674 Z2.169 I0.734 J1.318
X418.504 Y558.039 Z2.004 I-0.734 J-1.318
X419.971 Y560.674 Z1.838 I0.734 J1.318
X418.504 Y558.039 Z1.673 I-0.734 J-1.318
X419.971 Y560.674 Z1.507 I0.734 J1.318
X418.504 Y558.039 Z1.342 I-0.734 J-1.318
X419.971 Y560.674 Z1.176 I0.734 J1.318
X418.504 Y558.039 Z1.011 I-0.734 J-1.318
X419.971 Y560.674 Z0.845 I0.734 J1.318
X418.504 Y558.039 Z0.68 I-0.734 J-1.318
X419.971 Y560.674 Z0.515 I0.734 J1.318
X418.504 Y558.039 Z0.349 I-0.734 J-1.318
X419.971 Y560.674 Z0.184 I0.734 J1.318
X418.504 Y558.039 Z0.018 I-0.734 J-1.318
X419.971 Y560.674 Z-0.147 I0.734 J1.318
X418.504 Y558.039 Z-0.313 I-0.734 J-1.318
X419.971 Y560.674 Z-0.478 I0.734 J1.318
X418.504 Y558.039 Z-0.644 I-0.734 J-1.318
X419.971 Y560.674 Z-0.809 I0.734 J1.318
X418.504 Y558.039 Z-0.974 I-0.734 J-1.318
X419.971 Y560.674 Z-1.14 I0.734 J1.318
X418.504 Y558.039 Z-1.305 I-0.734 J-1.318
X419.971 Y560.674 Z-1.471 I0.734 J1.318
X419.169 Y560.863 Z-1.5 I-0.734 J-1.318
G2 X417.434 Y561.141 I-0.197 J4.315 F1000
G1 X417.393 Y561.149
X417.351 Y561.144
X417.314 Y561.125
X417.284 Y561.095
X417.266 Y561.057
X417.262 Y561.015
X417.271 Y560.974
G3 X419.97 Y556.74 I13.05 J5.343
G1 X420.005 Y556.714
X420.046 Y556.7
X420.09 Y556.702
X420.13 Y556.717
X420.163 Y556.746
X420.184 Y556.784
X420.192 Y556.827
G3 X420.17 Y557.572 I-12.605 J0
G2 X420.147 Y558.317 I12.583 J0.745
X420.415 Y559.59 I3.16 J0
X421.139 Y560.672 I3.413 J-1.503
G3 X421.034 Y560.919 I-0.105 J0.101
X419.224 Y560.866 I0 J-30.978
G1 X419.169 Y560.863
X419.109 Y560.857 Z-1.488 F600
X419.05 Y560.84 Z-1.476
X419.004 Y560.817 Z-1.441
X418.963 Y560.787 Z-1.407
X418.916 Y560.737 Z-1.304
X418.902 Y560.717 Z-1.183
Z5
G0 X445.845 Y566.435
G1 Z2.817 F300
X445.83 Y566.417 Z2.698
X445.787 Y566.367 Z2.597
X445.728 Y566.288 Z2.527
X445.664 Y566.188 Z2.5
G3 X448.261 Y564.655 Z2.335 I1.299 J-0.767
X445.664 Y566.188 Z2.169 I-1.299 J0.767
X448.261 Y564.655 Z2.004 I1.299 J-0.767
X445.664 Y566.188 Z1.838 I-1.299 J0.767
X448.261 Y564.655 Z1.673 I1.299 J-0.767
X445.664 Y566.188 Z1.507 I-1.299 J0.767
X448.261 Y564.655 Z1.342 I1.299 J-0.767
X445.664 Y566.188 Z1.176 I-1.299 J0.767
X448.261 Y564.655 Z1.011 I1.299 J-0.767
X445.664 Y566.188 Z0.845 I-1.299 J0.767
X448.261 Y564.655 Z0.68 I1.299 J-0.767
X445.664 Y566.188 Z0.515 I-1.299 J0.767
X448.261 Y564.655 Z0.349 I1.299 J-0.767
X445.664 Y566.188 Z0.184 I-1.299 J0.767
X448.261 Y564.655 Z0.018 I1.299 J-0.767
X445.664 Y566.188 Z-0.147 I-1.299 J0.767
X448.261 Y564.655 Z-0.313 I1.299 J-0.767
X445.664 Y566.188 Z-0.478 I-1.299 J0.767
X448.261 Y564.655 Z-0.644 I1.299 J-0.767
X445.664 Y566.188 Z-0.809 I-1.299 J0.767
X448.261 Y564.655 Z-0.974 I1.299 J-0.767
X445.664 Y566.188 Z-1.14 I-1.299 J0.767
X448.261 Y564.655 Z-1.305 I1.299 J-0.767
X445.664 Y566.188 Z-1.471 I-1.299 J0.767
X445.454 Y565.391 Z-1.5 I1.299 J-0.767
G2 X445.403 Y563.452 I-20.692 J-0.421 F1000
G1 X445.407 Y563.415
X445.423 Y563.381
X445.451 Y563.355
X445.485 Y563.341
X445.523 Y563.339
X445.559 Y563.35
X445.588 Y563.373
X445.608 Y563.405
G2 X446.497 Y565.181 I10.951 J-4.37
G3 X446.498 Y565.767 I-0.482 J0.294
G2 X446.048 Y566.557 I15.081 J9.115
X445.653 Y567.375 I9.523 J5.105
G1 X445.632 Y567.408
X445.601 Y567.431
X445.564 Y567.443
X445.525 Y567.442
X445.489 Y567.428
X445.46 Y567.402
X445.441 Y567.368
X445.435 Y567.33
G3 X445.454 Y565.391 I95.406 J0
G2 X444.883 Y564.505 I-0.943 J-0.019
G3 X444.266 Y563.65 I0.404 J-0.941
G2 X443.879 Y561.485 I-11.82 J0.999
G3 X443.874 Y560.965 I0.971 J-0.269
G2 X444.111 Y559.76 I-10.284 J-2.648
G3 X444.482 Y559.437 I0.371 J0.051
G1 X445.339
G3 X445.726 Y559.762 I0 J0.393
G2 X446.415 Y562.359 I15.13 J-2.622
X447.603 Y564.768 I11.37 J-4.109
G1 X447.734 Y564.959
X447.865 Y565.151
G3 X447.865 Y565.778 I-0.49 J0.314
G2 X447.079 Y567.067 I27.223 J17.463
X446.444 Y568.436 I7.366 J4.254
X445.89 Y570.354 I14.439 J5.206
X445.652 Y572.337 I10.122 J2.219
X445.655 Y572.609 I4.343 J0.099
G3 X445.657 Y572.881 I-4.597 J0.175
X445.333 Y573.198 I-0.323 J-0.007
G1 X443.121
G3 X442.957 Y572.92 I0 J-0.187
G2 X443.954 Y570.454 I-9.988 J-5.473
X444.309 Y567.817 I-9.634 J-2.637
G1 Y564.648
G2 X444.266 Y563.65 I-11.862 J0
X443.098 Y562.436 I-1.332 J0.112
G3 X442.005 Y561.153 I0.152 J-1.237
X442.075 Y560.704 I1.922 J0.071
G2 X442.328 Y559.522 I-9.127 J-2.567
X442.416 Y558.317 I-8.157 J-1.205
G1 X442.41 Y558.131
X442.404 Y557.944
G3 X442.717 Y557.631 I0.313 J0
G1 X447.028
G3 X447.359 Y557.943 I0 J0.331
X447.367 Y558.216 I-4.703 J0.277
G2 X447.375 Y558.488 I4.353 J0.007
X447.66 Y560.213 I8.519 J-0.521
X448.171 Y561.885 I27.547 J-7.514
X449.009 Y563.646 I7.935 J-2.696
X450.095 Y565.266 I27.681 J-17.385
G3 X450.081 Y565.803 I-0.363 J0.259
G2 X448.979 Y567.346 I14.129 J11.256
X448.143 Y569.049 I7.229 J4.61
X447.498 Y571.842 I11.325 J4.083
X447.606 Y574.707 I9.861 J1.063
G3 X447.36 Y575.003 I-0.246 J0.046
G1 X439.148
G3 X439.067 Y574.766 I0 J-0.132
G2 X441.587 Y571.688 I-5.56 J-7.124
X442.503 Y567.817 I-7.73 J-3.871
G3 X442.515 Y564.782 I380.089 J0
G2 X442.085 Y561.778 I-10.148 J-0.081
G3 X442.005 Y561.153 I1.842 J-0.554
G2 X441.338 Y559.694 I-1.787 J-0.066
G3 X440.643 Y558.248 I1.167 J-1.451
G2 X440.621 Y557.231 I-26.224 J0.069
G3 X440.599 Y556.145 I26.201 J-1.086
X440.918 Y555.826 I0.319 J0
G1 X448.995
G3 X449.263 Y556.134 I0 J0.27
G2 X449.147 Y556.992 I59.511 J8.518
X449.118 Y557.857 I4.551 J0.585
X449.384 Y559.606 I9.82 J-0.601
X449.88 Y561.304 I19.906 J-4.897
X450.744 Y563.114 I8.077 J-2.744
X451.937 Y564.726 I11.527 J-7.278
X452.181 Y564.993 I4.392 J-3.778
G3 X452.426 Y565.26 I-4.148 J4.045
X452.427 Y565.767 I-0.296 J0.254
G2 X450.958 Y567.597 I30.03 J25.607
X449.841 Y569.661 I6.254 J4.721
X449.222 Y572.944 I9.869 J3.558
X449.451 Y574.783 I6.341 J0.145
X450.081 Y576.526 I11.691 J-3.24
G3 X449.898 Y576.808 I-0.183 J0.082
G1 X430.321 Y576.763
G3 X427.299 Y576.34 I0 J-11.003
X424.528 Y575.064 I2.742 J-9.602
G1 X424.498 Y575.036
X424.477 Y575
X424.47 Y574.959
X424.475 Y574.918
X424.493 Y574.881
X424.522 Y574.851
X424.559 Y574.832
X424.6 Y574.826
G3 X433.559 Y574.875 I0 J803.395
G2 X440.546 Y569.269 I0.079 J-7.06
X440.698 Y567.817 I-6.902 J-1.452
G3 X440.715 Y564.725 I279.559 J0
G2 X440.141 Y561.687 I-7.865 J-0.087
G3 X440.133 Y560.829 I1.084 J-0.439
G2 X440.504 Y559.597 I-8.084 J-3.104
X440.643 Y558.317 I-5.781 J-1.28
G1 Y558.248
G2 X439.727 Y556.906 I-1.446 J0.004
G3 X438.811 Y555.565 I0.538 J-1.351
X438.809 Y554.817 I114.655 J-0.748
G1 X438.805 Y554.694
X438.795 Y554.571
X438.77 Y554.326
G3 X439.048 Y554.021 I0.278 J-0.026
G1 X451.503
G3 X451.692 Y554.308 I0 J0.205
G2 X451.301 Y555.218 I83.517 J36.394
X451.035 Y556.172 I3.547 J1.5
X451.362 Y560.112 I8.775 J1.256
X453.288 Y563.564 I9.415 J-2.99
X454.038 Y564.397 I18.974 J-16.321
X454.819 Y565.201 I26.573 J-25.014
G3 X454.849 Y565.695 I-0.264 J0.264
X454.23 Y566.396 I-6 J-4.682
G2 X453.611 Y567.096 I6.492 J6.366
X452.123 Y569.154 I21.241 J16.922
X451.15 Y571.5 I5.749 J3.76
X451.068 Y573.497 I5.899 J1.241
X451.538 Y575.44 I8.92 J-1.128
X452.251 Y576.796 I5.332 J-1.938
X453.249 Y577.96 I6.993 J-4.988
X453.468 Y578.16 I3.316 J-3.402
G3 X453.687 Y578.36 I-3.097 J3.603
X453.584 Y578.614 I-0.103 J0.106
G1 X430.321 Y578.568
G3 X424.608 Y577.18 I0 J-12.45
X420.196 Y573.295 I5.553 J-10.754
X420.341 Y573.021 I0.144 J-0.099
G1 X433.644 Y573.065
G2 X438.892 Y567.817 I0 J-5.248
G3 X438.916 Y564.643 I216.574 J0
G2 X438.071 Y561.583 I-5.664 J-0.083
G3 X438.066 Y560.971 I0.502 J-0.31
G2 X438.852 Y557.944 I-4.845 J-2.873
G3 X438.811 Y555.565 I114.615 J-3.127
G2 X437.828 Y554.125 I-1.561 J0.01
G3 X436.482 Y553.019 I1.063 J-2.668
G2 X436.041 Y552.462 I-3.13 J2.028
G3 X436.146 Y552.215 I0.105 J-0.101
G1 X454.736
G3 X454.877 Y552.481 I0 J0.17
X454.149 Y553.474 I-13.592 J-9.203
G2 X453.516 Y554.529 I3.731 J2.957
X452.935 Y556.035 I17.333 J7.553
X452.722 Y557.636 I3.982 J1.344
X452.927 Y558.909 I6.522 J-0.399
X453.3 Y560.143 I18.098 J-4.789
X453.777 Y561.102 I3.783 J-1.285
G3 X454.368 Y561.997 I-32.538 J22.102
G2 X455.681 Y563.571 I6.872 J-4.399
G3 X457.165 Y564.985 I-59.79 J64.25
X457.227 Y565.502 I-0.289 J0.296
X456.163 Y566.892 I-8.129 J-5.12
G2 X455.023 Y568.221 I17.945 J16.533
X453.757 Y569.923 I25.119 J20.012
X452.917 Y571.871 I4.394 J3.049
X452.87 Y573.369 I4.193 J0.882
X453.236 Y574.823 I7.27 J-1.056
X454.039 Y576.168 I3.902 J-1.418
X455.122 Y577.3 I16.725 J-14.917
X456.35 Y578.338 I7.911 J-8.117
G3 X457.596 Y579.354 I-8.891 J12.178
X457.53 Y579.672 I-0.127 J0.14
X456.317 Y580.057 I-9.586 J-28.056
X455.085 Y580.383 I-6.553 J-22.262
X454.783 Y580.419 I-0.302 J-1.283
G1 X430.321 Y580.375
G3 X417.04 Y571.059 I0 J-14.124
G1 X417.033 Y571.017
X417.04 Y570.975
X417.06 Y570.937
X417.092 Y570.908
X417.131 Y570.892
X417.173 Y570.889
X417.214 Y570.9
G2 X417.91 Y571.158 I1.968 J-4.244
X418.644 Y571.26 I0.734 J-2.598
G1 X433.644
G2 X437.086 Y567.817 I0 J-3.443
G3 X437.096 Y564.435 I597.704 J0
G2 X435.487 Y561.462 I-3.516 J-0.02
G3 X435.484 Y561.139 I0.105 J-0.162
G2 X437.048 Y558.171 I-1.969 J-2.934
G3 X437.033 Y554.817 I358.334 J-3.354
G2 X436.765 Y553.544 I-3.16 J0
X436.482 Y553.019 I-3.413 J1.503
G3 X436.714 Y551.111 I1.258 J-0.815
X438.501 Y550.404 I1.787 J1.905
G1 X455.253
X456.331 Y550.497
X457.056 Y550.663
X457.437 Y550.838
X457.551 Y550.936
X457.565 Y550.962
X457.579 Y551.055
X457.55 Y551.314
X457.433 Y551.684
X456.86 Y552.783
X456.086 Y553.925
X455.353 Y555.021
G2 X455.217 Y555.27 I1.319 J0.883
G1 X454.776 Y556.282
G2 X454.66 Y556.691 I1.455 J0.634
G1 X454.587 Y557.201
G2 X454.573 Y557.523 I1.571 J0.225
G1 X454.605 Y558.046
G2 X454.687 Y558.46 I1.585 J-0.097
G1 X455.056 Y559.546
G2 X455.222 Y559.891 I1.503 J-0.511
G1 X455.93 Y560.997
X455.994 Y561.089
X456.064 Y561.176
X456.987 Y562.249
X457.068 Y562.337
X458.051 Y563.319
X458.065 Y563.333
X458.889 Y564.136
X459.315 Y564.652
X459.436 Y564.965
X459.437 Y564.984
X459.41 Y565.145
X459.088 Y565.945
X458.444 Y566.966
X457.534 Y568.133
X456.508 Y569.336
X456.474 Y569.377
X455.561 Y570.523
X455.5 Y570.605
X455.444 Y570.691
X455.117 Y571.232
G2 X454.983 Y571.515 I1.359 J0.821
G1 X454.793 Y572.042
G2 X454.699 Y572.544 I1.493 J0.538
G1 X454.687 Y573.069
G2 X454.782 Y573.647 I1.587 J0.036
G1 X454.979 Y574.189
G2 X455.194 Y574.59 I1.492 J-0.542
G1 X455.617 Y575.163
G2 X455.786 Y575.357 I1.277 J-0.943
G1 X456.417 Y575.972
X456.514 Y576.059
X458.144 Y577.405
X459.697 Y578.816
X460.138 Y579.369
X460.318 Y579.746
X460.33 Y579.894
X460.274 Y580.048
X459.978 Y580.389
X459.326 Y580.843
X458.341 Y581.309
X457.118 Y581.726
X455.878 Y582.057
X455.366 Y582.178
X455.141 Y582.229
X430.321
G3 X430.321 Y550.404 I0 J-15.912
G1 X438.501
X438.561 Y550.41 Z-1.488 F600
X438.62 Y550.427 Z-1.476
X438.666 Y550.451 Z-1.441
X438.707 Y550.481 Z-1.407
X438.754 Y550.531 Z-1.304
X438.768 Y550.55 Z-1.183
Z5
G0 X433.078 Y553.134
G1 Z2.817 F300
X433.057 Y553.125 Z2.698
X432.996 Y553.099 Z2.597
X432.908 Y553.054 Z2.527
X432.807 Y552.993 Z2.5
G3 X434.373 Y550.641 Z2.345 I0.783 J-1.176
X432.807 Y552.993 Z2.19 I-0.783 J1.176
X434.373 Y550.641 Z2.035 I0.783 J-1.176
X432.807 Y552.993 Z1.88 I-0.783 J1.176
X434.373 Y550.641 Z1.725 I0.783 J-1.176
X432.807 Y552.993 Z1.57 I-0.783 J1.176
X434.373 Y550.641 Z1.415 I0.783 J-1.176
X432.807 Y552.993 Z1.26 I-0.783 J1.176
X434.373 Y550.641 Z1.105 I0.783 J-1.176
X432.807 Y552.993 Z0.95 I-0.783 J1.176
X434.373 Y550.641 Z0.795 I0.783 J-1.176
X432.807 Y552.993 Z0.64 I-0.783 J1.176
X434.373 Y550.641 Z0.486 I0.783 J-1.176
X432.807 Y552.993 Z0.331 I-0.783 J1.176
X434.373 Y550.641 Z0.176 I0.783 J-1.176
X432.807 Y552.993 Z0.021 I-0.783 J1.176
X434.373 Y550.641 Z-0.134 I0.783 J-1.176
X432.807 Y552.993 Z-0.289 I-0.783 J1.176
X434.373 Y550.641 Z-0.444 I0.783 J-1.176
X432.807 Y552.993 Z-0.599 I-0.783 J1.176
X434.373 Y550.641 Z-0.754 I0.783 J-1.176
X432.807 Y552.993 Z-0.909 I-0.783 J1.176
X434.373 Y550.641 Z-1.064 I0.783 J-1.176
X432.807 Y552.993 Z-1.219 I-0.783 J1.176
X434.373 Y550.641 Z-1.374 I0.783 J-1.176
X433.59 Y553.229 Z-1.5 I-0.783 J1.176
G1 X423.59 F1000
G2 X422.003 Y554.817 I0 J1.588
G1 Y558.317
G2 X423.59 Y559.904 I1.587 J0
G1 X433.59
G2 X435.177 Y558.317 I0 J-1.587
G1 Y554.817
G2 X433.59 Y553.229 I-1.587 J0
G1 X433.53 Y553.224 Z-1.488 F600
X433.471 Y553.207 Z-1.476
X433.425 Y553.184 Z-1.441
X433.384 Y553.153 Z-1.407
X433.337 Y553.103 Z-1.304
X433.323 Y553.084 Z-1.183
Z5
G0 X420.257 Y562.318
G1 Z2.817 F300
X420.24 Y562.333 Z2.698
X420.19 Y562.377 Z2.597
X420.112 Y562.438 Z2.527
X420.014 Y562.504 Z2.5
G3 X418.428 Y559.939 Z2.335 I-0.793 J-1.283
X420.014 Y562.504 Z2.169 I0.793 J1.283
X418.428 Y559.939 Z2.004 I-0.793 J-1.283
X420.014 Y562.504 Z1.838 I0.793 J1.283
X418.428 Y559.939 Z1.673 I-0.793 J-1.283
X420.014 Y562.504 Z1.507 I0.793 J1.283
X418.428 Y559.939 Z1.342 I-0.793 J-1.283
X420.014 Y562.504 Z1.176 I0.793 J1.283
X418.428 Y559.939 Z1.011 I-0.793 J-1.283
X420.014 Y562.504 Z0.845 I0.793 J1.283
X418.428 Y559.939 Z0.68 I-0.793 J-1.283
X420.014 Y562.504 Z0.515 I0.793 J1.283
X418.428 Y559.939 Z0.349 I-0.793 J-1.283
X420.014 Y562.504 Z0.184 I0.793 J1.283
X418.428 Y559.939 Z0.018 I-0.793 J-1.283
X420.014 Y562.504 Z-0.147 I0.793 J1.283
X418.428 Y559.939 Z-0.313 I-0.793 J-1.283
X420.014 Y562.504 Z-0.478 I0.793 J1.283
X418.428 Y559.939 Z-0.644 I-0.793 J-1.283
X420.014 Y562.504 Z-0.809 I0.793 J1.283
X418.428 Y559.939 Z-0.974 I-0.793 J-1.283
X420.014 Y562.504 Z-1.14 I0.793 J1.283
X418.428 Y559.939 Z-1.305 I-0.793 J-1.283
X420.014 Y562.504 Z-1.471 I0.793 J1.283
X419.221 Y562.729 Z-1.5 I-0.793 J-1.283
G1 X418.644 F1000
G2 X417.056 Y564.317 I0 J1.588
G1 Y567.817
G2 X418.644 Y569.404 I1.588 J0
G1 X433.644
G2 X435.232 Y567.817 I0 J-1.587
G1 Y564.317
G2 X433.644 Y562.729 I-1.587 J0
G1 X419.221
X419.161 Y562.724 Z-1.488 F600
X419.102 Y562.707 Z-1.476
X419.056 Y562.684 Z-1.441
X419.015 Y562.653 Z-1.407
X418.968 Y562.603 Z-1.304
X418.954 Y562.584 Z-1.183
Z5
G0 X420.222 Y560.499
G1 Z1.317 F300
X420.205 Y560.514 Z1.198
X420.153 Y560.555 Z1.097
X420.072 Y560.612 Z1.027
X419.971 Y560.674 Z1
G3 X418.504 Y558.039 Z0.835 I-0.734 J-1.318
X419.971 Y560.674 Z0.669 I0.734 J1.318
X418.504 Y558.039 Z0.504 I-0.734 J-1.318
X419.971 Y560.674 Z0.338 I0.734 J1.318
X418.504 Y558.039 Z0.173 I-0.734 J-1.318
X419.971 Y560.674 Z0.007 I0.734 J1.318
X418.504 Y558.039 Z-0.158 I-0.734 J-1.318
X419.971 Y560.674 Z-0.324 I0.734 J1.318
X418.504 Y558.039 Z-0.489 I-0.734 J-1.318
X419.971 Y560.674 Z-0.655 I0.734 J1.318
X418.504 Y558.039 Z-0.82 I-0.734 J-1.318
X419.971 Y560.674 Z-0.985 I0.734 J1.318
X418.504 Y558.039 Z-1.151 I-0.734 J-1.318
X419.971 Y560.674 Z-1.316 I0.734 J1.318
X418.504 Y558.039 Z-1.482 I-0.734 J-1.318
X419.971 Y560.674 Z-1.647 I0.734 J1.318
X418.504 Y558.039 Z-1.813 I-0.734 J-1.318
X419.971 Y560.674 Z-1.978 I0.734 J1.318
X418.504 Y558.039 Z-2.144 I-0.734 J-1.318
X419.971 Y560.674 Z-2.309 I0.734 J1.318
X418.504 Y558.039 Z-2.474 I-0.734 J-1.318
X419.971 Y560.674 Z-2.64 I0.734 J1.318
X418.504 Y558.039 Z-2.805 I-0.734 J-1.318
X419.971 Y560.674 Z-2.971 I0.734 J1.318
X419.169 Y560.863 Z-3 I-0.734 J-1.318
G2 X417.434 Y561.141 I-0.197 J4.315 F1000
G1 X417.393 Y561.149
X417.351 Y561.144
X417.314 Y561.125
X417.284 Y561.095
X417.266 Y561.057
X417.262 Y561.015
X417.271 Y560.974
G3 X419.97 Y556.74 I13.05 J5.343
G1 X420.005 Y556.714
X420.046 Y556.7
X420.09 Y556.702
X420.13 Y556.717
X420.163 Y556.746
X420.184 Y556.784
X420.192 Y556.827
G3 X420.17 Y557.572 I-12.605 J0
G2 X420.147 Y558.317 I12.583 J0.745
X420.415 Y559.59 I3.16 J0
X421.139 Y560.672 I3.413 J-1.503
G3 X421.034 Y560.919 I-0.105 J0.101
X419.224 Y560.866 I0 J-30.978
G1 X419.169 Y560.863
X419.109 Y560.857 Z-2.988 F600
X419.05 Y560.84 Z-2.976
X419.004 Y560.817 Z-2.941
X418.963 Y560.787 Z-2.907
X418.916 Y560.737 Z-2.804
X418.902 Y560.717 Z-2.683
Z5
G0 X445.845 Y566.435
G1 Z1.317 F300
X445.83 Y566.417 Z1.198
X445.787 Y566.367 Z1.097
X445.728 Y566.288 Z1.027
X445.664 Y566.188 Z1
G3 X448.261 Y564.655 Z0.835 I1.299 J-0.767
X445.664 Y566.188 Z0.669 I-1.299 J0.767
X448.261 Y564.655 Z0.504 I1.299 J-0.767
X445.664 Y566.188 Z0.338 I-1.299 J0.767
X448.261 Y564.655 Z0.173 I1.299 J-0.767
X445.664 Y566.188 Z0.007 I-1.299 J0.767
X448.261 Y564.655 Z-0.158 I1.299 J-0.767
X445.664 Y566.188 Z-0.324 I-1.299 J0.767
X448.261 Y564.655 Z-0.489 I1.299 J-0.767
X445.664 Y566.188 Z-0.655 I-1.299 J0.767
X448.261 Y564.655 Z-0.82 I1.299 J-0.767
X445.664 Y566.188 Z-0.985 I-1.299 J0.767
X448.261 Y564.655 Z-1.151 I1.299 J-0.767
X445.664 Y566.188 Z-1.316 I-1.299 J0.767
X448.261 Y564.655 Z-1.482 I1.299 J-0.767
X445.664 Y566.188 Z-1.647 I-1.299 J0.767
X448.261 Y564.655 Z-1.813 I1.299 J-0.767
X445.664 Y566.188 Z-1.978 I-1.299 J0.767
X448.261 Y564.655 Z-2.144 I1.299 J-0.767
X445.664 Y566.188 Z-2.309 I-1.299 J0.767
X448.261 Y564.655 Z-2.474 I1.299 J-0.767
X445.664 Y566.188 Z-2.64 I-1.299 J0.767
X448.261 Y564.655 Z-2.805 I1.299 J-0.767
X445.664 Y566.188 Z-2.971 I-1.299 J0.767
X445.454 Y565.391 Z-3 I1.299 J-0.767
G2 X445.403 Y563.452 I-20.692 J-0.421 F1000
G1 X445.407 Y563.415
X445.423 Y563.381
X445.451 Y563.355
X445.485 Y563.341
X445.523 Y563.339
X445.559 Y563.35
X445.588 Y563.373
X445.608 Y563.405
G2 X446.497 Y565.181 I10.951 J-4.37
G3 X446.498 Y565.767 I-0.482 J0.294
G2 X446.048 Y566.557 I15.081 J9.115
X445.653 Y567.375 I9.523 J5.105
G1 X445.632 Y567.408
X445.601 Y567.431
X445.564 Y567.443
X445.525 Y567.442
X445.489 Y567.428
X445.46 Y567.402
X445.441 Y567.368
X445.435 Y567.33
G3 X445.454 Y565.391 I95.406 J0
G2 X444.883 Y564.505 I-0.943 J-0.019
G3 X444.266 Y563.65 I0.404 J-0.941
G2 X443.879 Y561.485 I-11.82 J0.999
G3 X443.874 Y560.965 I0.971 J-0.269
G2 X444.111 Y559.76 I-10.284 J-2.648
G3 X444.482 Y559.437 I0.371 J0.051
G1 X445.339
G3 X445.726 Y559.762 I0 J0.393
G2 X446.415 Y562.359 I15.13 J-2.622
X447.603 Y564.768 I11.37 J-4.109
G1 X447.734 Y564.959
X447.865 Y565.151
G3 X447.865 Y565.778 I-0.49 J0.314
G2 X447.079 Y567.067 I27.223 J17.463
X446.444 Y568.436 I7.366 J4.254
X445.89 Y570.354 I14.439 J5.206
X445.652 Y572.337 I10.122 J2.219
X445.655 Y572.609 I4.343 J0.099
G3 X445.657 Y572.881 I-4.597 J0.175
X445.333 Y573.198 I-0.323 J-0.007
G1 X443.121
G3 X442.957 Y572.92 I0 J-0.187
G2 X443.954 Y570.454 I-9.988 J-5.473
X444.309 Y567.817 I-9.634 J-2.637
G1 Y564.648
G2 X444.266 Y563.65 I-11.862 J0
X443.098 Y562.436 I-1.332 J0.112
G3 X442.005 Y561.153 I0.152 J-1.237
X442.075 Y560.704 I1.922 J0.071
G2 X442.328 Y559.522 I-9.127 J-2.567
X442.416 Y558.317 I-8.157 J-1.205
G1 X442.41 Y558.131
X442.404 Y557.944
G3 X442.717 Y557.631 I0.313 J0
G1 X447.028
G3 X447.359 Y557.943 I0 J0.331
X447.367 Y558.216 I-4.703 J0.277
G2 X447.375 Y558.488 I4.353 J0.007
X447.66 Y560.213 I8.519 J-0.521
X448.171 Y561.885 I27.547 J-7.514
X449.009 Y563.646 I7.935 J-2.696
X450.095 Y565.266 I27.681 J-17.385
G3 X450.081 Y565.803 I-0.363 J0.259
G2 X448.979 Y567.346 I14.129 J11.256
X448.143 Y569.049 I7.229 J4.61
X447.498 Y571.842 I11.325 J4.083
X447.606 Y574.707 I9.861 J1.063
G3 X447.36 Y575.003 I-0.246 J0.046
G1 X439.148
G3 X439.067 Y574.766 I0 J-0.132
G2 X441.587 Y571.688 I-5.56 J-7.124
X442.503 Y567.817 I-7.73 J-3.871
G3 X442.515 Y564.782 I380.089 J0
G2 X442.085 Y561.778 I-10.148 J-0.081
G3 X442.005 Y561.153 I1.842 J-0.554
G2 X441.338 Y559.694 I-1.787 J-0.066
G3 X440.643 Y558.248 I1.167 J-1.451
G2 X440.621 Y557.231 I-26.224 J0.069
G3 X440.599 Y556.145 I26.201 J-1.086
X440.918 Y555.826 I0.319 J0
G1 X448.995
G3 X449.263 Y556.134 I0 J0.27
G2 X449.147 Y556.992 I59.511 J8.518
X449.118 Y557.857 I4.551 J0.585
X449.384 Y559.606 I9.82 J-0.601
X449.88 Y561.304 I19.906 J-4.897
X450.744 Y563.114 I8.077 J-2.744
X451.937 Y564.726 I11.527 J-7.278
X452.181 Y564.993 I4.392 J-3.778
G3 X452.426 Y565.26 I-4.148 J4.045
X452.427 Y565.767 I-0.296 J0.254
G2 X450.958 Y567.597 I30.03 J25.607
X449.841 Y569.661 I6.254 J4.721
X449.222 Y572.944 I9.869 J3.558
X449.451 Y574.783 I6.341 J0.145
X450.081 Y576.526 I11.691 J-3.24
G3 X449.898 Y576.808 I-0.183 J0.082
G1 X430.321 Y576.763
G3 X427.299 Y576.34 I0 J-11.003
X424.528 Y575.064 I2.742 J-9.602
G1 X424.498 Y575.036
X424.477 Y575
X424.47 Y574.959
X424.475 Y574.918
X424.493 Y574.881
X424.522 Y574.851
X424.559 Y574.832
X424.6 Y574.826
G3 X433.559 Y574.875 I0 J803.395
G2 X440.546 Y569.269 I0.079 J-7.06
X440.698 Y567.817 I-6.902 J-1.452
G3 X440.715 Y564.725 I279.559 J0
G2 X440.141 Y561.687 I-7.865 J-0.087
G3 X440.133 Y560.829 I1.084 J-0.439
G2 X440.504 Y559.597 I-8.084 J-3.104
X440.643 Y558.317 I-5.781 J-1.28
G1 Y558.248
G2 X439.727 Y556.906 I-1.446 J0.004
G3 X438.811 Y555.565 I0.538 J-1.351
X438.809 Y554.817 I114.655 J-0.748
G1 X438.805 Y554.694
X438.795 Y554.571
X438.77 Y554.326
G3 X439.048 Y554.021 I0.278 J-0.026
G1 X451.503
G3 X451.692 Y554.308 I0 J0.205
G2 X451.301 Y555.218 I83.517 J36.394
X451.035 Y556.172 I3.547 J1.5
X451.362 Y560.112 I8.775 J1.256
X453.288 Y563.564 I9.415 J-2.99
X454.038 Y564.397 I18.974 J-16.321
X454.819 Y565.201 I26.573 J-25.014
G3 X454.849 Y565.695 I-0.264 J0.264
X454.23 Y566.396 I-6 J-4.682
G2 X453.611 Y567.096 I6.492 J6.366
X452.123 Y569.154 I21.241 J16.922
X451.15 Y571.5 I5.749 J3.76
X451.068 Y573.497 I5.899 J1.241
X451.538 Y575.44 I8.92 J-1.128
X452.251 Y576.796 I5.332 J-1.938
X453.249 Y577.96 I6.993 J-4.988
X453.468 Y578.16 I3.316 J-3.402
G3 X453.687 Y578.36 I-3.097 J3.603
X453.584 Y578.614 I-0.103 J0.106
G1 X430.321 Y578.568
G3 X424.608 Y577.18 I0 J-12.45
X420.196 Y573.295 I5.553 J-10.754
X420.341 Y573.021 I0.144 J-0.099
G1 X433.644 Y573.065
G2 X438.892 Y567.817 I0 J-5.248
G3 X438.916 Y564.643 I216.574 J0
G2 X438.071 Y561.583 I-5.664 J-0.083
G3 X438.066 Y560.971 I0.502 J-0.31
G2 X438.852 Y557.944 I-4.845 J-2.873
G3 X438.811 Y555.565 I114.615 J-3.127
G2 X437.828 Y554.125 I-1.561 J0.01
G3 X436.482 Y553.019 I1.063 J-2.668
G2 X436.041 Y552.462 I-3.13 J2.028
G3 X436.146 Y552.215 I0.105 J-0.101
G1 X454.736
G3 X454.877 Y552.481 I0 J0.17
X454.149 Y553.474 I-13.592 J-9.203
G2 X453.516 Y554.529 I3.731 J2.957
X452.935 Y556.035 I17.333 J7.553
X452.722 Y557.636 I3.982 J1.344
X452.927 Y558.909 I6.522 J-0.399
X453.3 Y560.143 I18.098 J-4.789
X453.777 Y561.102 I3.783 J-1.285
G3 X454.368 Y561.997 I-32.538 J22.102
G2 X455.681 Y563.571 I6.872 J-4.399
G3 X457.165 Y564.985 I-59.79 J64.25
X457.227 Y565.502 I-0.289 J0.296
X456.163 Y566.892 I-8.129 J-5.12
G2 X455.023 Y568.221 I17.945 J16.533
X453.757 Y569.923 I25.119 J20.012
X452.917 Y571.871 I4.394 J3.049
X452.87 Y573.369 I4.193 J0.882
X453.236 Y574.823 I7.27 J-1.056
X454.039 Y576.168 I3.902 J-1.418
X455.122 Y577.3 I16.725 J-14.917
X456.35 Y578.338 I7.911 J-8.117
G3 X457.596 Y579.354 I-8.891 J12.178
X457.53 Y579.672 I-0.127 J0.14
X456.317 Y580.057 I-9.586 J-28.056
X455.085 Y580.383 I-6.553 J-22.262
X454.783 Y580.419 I-0.302 J-1.283
G1 X430.321 Y580.375
G3 X417.04 Y571.059 I0 J-14.124
G1 X417.033 Y571.017
X417.04 Y570.975
X417.06 Y570.937
X417.092 Y570.908
X417.131 Y570.892
X417.173 Y570.889
X417.214 Y570.9
G2 X417.91 Y571.158 I1.968 J-4.244
X418.644 Y571.26 I0.734 J-2.598
G1 X433.644
G2 X437.086 Y567.817 I0 J-3.443
G3 X437.096 Y564.435 I597.704 J0
G2 X435.487 Y561.462 I-3.516 J-0.02
G3 X435.484 Y561.139 I0.105 J-0.162
G2 X437.048 Y558.171 I-1.969 J-2.934
G3 X437.033 Y554.817 I358.334 J-3.354
G2 X436.765 Y553.544 I-3.16 J0
X436.482 Y553.019 I-3.413 J1.503
G3 X436.714 Y551.111 I1.258 J-0.815
X438.501 Y550.404 I1.787 J1.905
G1 X455.253
X456.331 Y550.497
X457.056 Y550.663
X457.437 Y550.838
X457.551 Y550.936
X457.565 Y550.962
X457.579 Y551.055
X457.55 Y551.314
X457.433 Y551.684
X456.86 Y552.783
X456.086 Y553.925
X455.353 Y555.021
G2 X455.217 Y555.27 I1.319 J0.883
G1 X454.776 Y556.282
G2 X454.66 Y556.691 I1.455 J0.634
G1 X454.587 Y557.201
G2 X454.573 Y557.523 I1.571 J0.225
G1 X454.605 Y558.046
G2 X454.687 Y558.46 I1.585 J-0.097
G1 X455.056 Y559.546
G2 X455.222 Y559.891 I1.503 J-0.511
G1 X455.93 Y560.997
X455.994 Y561.089
X456.064 Y561.176
X456.987 Y562.249
X457.068 Y562.337
X458.051 Y563.319
X458.065 Y563.333
X458.889 Y564.136
X459.315 Y564.652
X459.436 Y564.965
X459.437 Y564.984
X459.41 Y565.145
X459.088 Y565.945
X458.444 Y566.966
X457.534 Y568.133
X456.508 Y569.336
X456.474 Y569.377
X455.561 Y570.523
X455.5 Y570.605
X455.444 Y570.691
X455.117 Y571.232
G2 X454.983 Y571.515 I1.359 J0.821
G1 X454.793 Y572.042
G2 X454.699 Y572.544 I1.493 J0.538
G1 X454.687 Y573.069
G2 X454.782 Y573.647 I1.587 J0.036
G1 X454.979 Y574.189
G2 X455.194 Y574.59 I1.492 J-0.542
G1 X455.617 Y575.163
G2 X455.786 Y575.357 I1.277 J-0.943
G1 X456.417 Y575.972
X456.514 Y576.059
X458.144 Y577.405
X459.697 Y578.816
X460.138 Y579.369
X460.318 Y579.746
X460.33 Y579.894
X460.274 Y580.048
X459.978 Y580.389
X459.326 Y580.843
X458.341 Y581.309
X457.118 Y581.726
X455.878 Y582.057
X455.366 Y582.178
X455.141 Y582.229
X430.321
G3 X430.321 Y550.404 I0 J-15.912
G1 X438.501
X438.561 Y550.41 Z-2.988 F600
X438.62 Y550.427 Z-2.976
X438.666 Y550.451 Z-2.941
X438.707 Y550.481 Z-2.907
X438.754 Y550.531 Z-2.804
X438.768 Y550.55 Z-2.683
Z5
G0 X433.078 Y553.134
G1 Z1.317 F300
X433.057 Y553.125 Z1.198
X432.996 Y553.099 Z1.097
X432.908 Y553.054 Z1.027
X432.807 Y552.993 Z1
G3 X434.373 Y550.641 Z0.845 I0.783 J-1.176
X432.807 Y552.993 Z0.69 I-0.783 J1.176
X434.373 Y550.641 Z0.535 I0.783 J-1.176
X432.807 Y552.993 Z0.38 I-0.783 J1.176
X434.373 Y550.641 Z0.225 I0.783 J-1.176
X432.807 Y552.993 Z0.07 I-0.783 J1.176
X434.373 Y550.641 Z-0.085 I0.783 J-1.176
X432.807 Y552.993 Z-0.24 I-0.783 J1.176
X434.373 Y550.641 Z-0.395 I0.783 J-1.176
X432.807 Y552.993 Z-0.55 I-0.783 J1.176
X434.373 Y550.641 Z-0.705 I0.783 J-1.176
X432.807 Y552.993 Z-0.86 I-0.783 J1.176
X434.373 Y550.641 Z-1.014 I0.783 J-1.176
X432.807 Y552.993 Z-1.169 I-0.783 J1.176
X434.373 Y550.641 Z-1.324 I0.783 J-1.176
X432.807 Y552.993 Z-1.479 I-0.783 J1.176
X434.373 Y550.641 Z-1.634 I0.783 J-1.176
X432.807 Y552.993 Z-1.789 I-0.783 J1.176
X434.373 Y550.641 Z-1.944 I0.783 J-1.176
X432.807 Y552.993 Z-2.099 I-0.783 J1.176
X434.373 Y550.641 Z-2.254 I0.783 J-1.176
X432.807 Y552.993 Z-2.409 I-0.783 J1.176
X434.373 Y550.641 Z-2.564 I0.783 J-1.176
X432.807 Y552.993 Z-2.719 I-0.783 J1.176
X434.373 Y550.641 Z-2.874 I0.783 J-1.176
X433.59 Y553.229 Z-3 I-0.783 J1.176
G1 X423.59 F1000
G2 X422.003 Y554.817 I0 J1.588
G1 Y558.317
G2 X423.59 Y559.904 I1.587 J0
G1 X433.59
G2 X435.177 Y558.317 I0 J-1.587
G1 Y554.817
G2 X433.59 Y553.229 I-1.587 J0
G1 X433.53 Y553.224 Z-2.988 F600
X433.471 Y553.207 Z-2.976
X433.425 Y553.184 Z-2.941
X433.384 Y553.153 Z-2.907
X433.337 Y553.103 Z-2.804
X433.323 Y553.084 Z-2.683
Z5
G0 X420.257 Y562.318
G1 Z1.317 F300
X420.24 Y562.333 Z1.198
X420.19 Y562.377 Z1.097
X420.112 Y562.438 Z1.027
X420.014 Y562.504 Z1
G3 X418.428 Y559.939 Z0.835 I-0.793 J-1.283
X420.014 Y562.504 Z0.669 I0.793 J1.283
X418.428 Y559.939 Z0.504 I-0.793 J-1.283
X420.014 Y562.504 Z0.338 I0.793 J1.283
X418.428 Y559.939 Z0.173 I-0.793 J-1.283
X420.014 Y562.504 Z0.007 I0.793 J1.283
X418.428 Y559.939 Z-0.158 I-0.793 J-1.283
X420.014 Y562.504 Z-0.324 I0.793 J1.283
X418.428 Y559.939 Z-0.489 I-0.793 J-1.283
X420.014 Y562.504 Z-0.655 I0.793 J1.283
X418.428 Y559.939 Z-0.82 I-0.793 J-1.283
X420.014 Y562.504 Z-0.985 I0.793 J1.283
X418.428 Y559.939 Z-1.151 I-0.793 J-1.283
X420.014 Y562.504 Z-1.316 I0.793 J1.283
X418.428 Y559.939 Z-1.482 I-0.793 J-1.283
X420.014 Y562.504 Z-1.647 I0.793 J1.283
X418.428 Y559.939 Z-1.813 I-0.793 J-1.283
X420.014 Y562.504 Z-1.978 I0.793 J1.283
X418.428 Y559.939 Z-2.144 I-0.793 J-1.283
X420.014 Y562.504 Z-2.309 I0.793 J1.283
X418.428 Y559.939 Z-2.474 I-0.793 J-1.283
X420.014 Y562.504 Z-2.64 I0.793 J1.283
X418.428 Y559.939 Z-2.805 I-0.793 J-1.283
X420.014 Y562.504 Z-2.971 I0.793 J1.283
X419.221 Y562.729 Z-3 I-0.793 J-1.283
G1 X418.644 F1000
G2 X417.056 Y564.317 I0 J1.588
G1 Y567.817
G2 X418.644 Y569.404 I1.588 J0
G1 X433.644
G2 X435.232 Y567.817 I0 J-1.587
G1 Y564.317
G2 X433.644 Y562.729 I-1.587 J0
G1 X419.221
X419.161 Y562.724 Z-2.988 F600
X419.102 Y562.707 Z-2.976
X419.056 Y562.684 Z-2.941
X419.015 Y562.653 Z-2.907
X418.968 Y562.603 Z-2.804
X418.954 Y562.584 Z-2.683
Z5
G0 X439.336 Y452.096
G1 Z2.817 F300
X439.352 Y452.113 Z2.698
X439.395 Y452.163 Z2.597
X439.456 Y452.241 Z2.527
X439.522 Y452.339 Z2.5
G3 X436.957 Y453.925 Z2.335 I-1.283 J0.793
X439.522 Y452.339 Z2.169 I1.283 J-0.793
X436.957 Y453.925 Z2.004 I-1.283 J0.793
X439.522 Y452.339 Z1.838 I1.283 J-0.793
X436.957 Y453.925 Z1.673 I-1.283 J0.793
X439.522 Y452.339 Z1.507 I1.283 J-0.793
X436.957 Y453.925 Z1.342 I-1.283 J0.793
X439.522 Y452.339 Z1.176 I1.283 J-0.793
X436.957 Y453.925 Z1.011 I-1.283 J0.793
X439.522 Y452.339 Z0.845 I1.283 J-0.793
X436.957 Y453.925 Z0.68 I-1.283 J0.793
X439.522 Y452.339 Z0.515 I1.283 J-0.793
X436.957 Y453.925 Z0.349 I-1.283 J0.793
X439.522 Y452.339 Z0.184 I1.283 J-0.793
X436.957 Y453.925 Z0.018 I-1.283 J0.793
X439.522 Y452.339 Z-0.147 I1.283 J-0.793
X436.957 Y453.925 Z-0.313 I-1.283 J0.793
X439.522 Y452.339 Z-0.478 I1.283 J-0.793
X436.957 Y453.925 Z-0.644 I-1.283 J0.793
X439.522 Y452.339 Z-0.809 I1.283 J-0.793
X436.957 Y453.925 Z-0.974 I-1.283 J0.793
X439.522 Y452.339 Z-1.14 I1.283 J-0.793
X436.957 Y453.925 Z-1.305 I-1.283 J0.793
X439.522 Y452.339 Z-1.471 I1.283 J-0.793
X439.747 Y453.132 Z-1.5 I-1.283 J0.793
X438.402 Y453.132 I-0.672 J0 F1000
X441.652 Y453.132 I1.625 J0
X436.497 Y453.132 I-2.577 J0
X443.557 Y453.132 I3.53 J0
X434.592 Y453.132 I-4.482 J0
X445.462 Y453.132 I5.435 J0
X432.688 Y453.132 I-6.387 J0
X447.367 Y453.132 I7.34 J0
X430.783 Y453.132 I-8.292 J0
X449.272 Y453.132 I9.245 J0
X428.878 Y453.132 I-10.197 J0
X451.177 Y453.132 I11.15 J0
X426.973 Y453.132 I-12.102 J0
X453.082 Y453.132 I13.055 J0
X425.068 Y453.132 I-14.007 J0
X454.987 Y453.132 I14.96 J0
X423.163 Y453.132 I-15.912 J0
X454.987 Y453.132 I15.912 J0
G1 X454.982 Y453.192 Z-1.488 F600
X454.965 Y453.251 Z-1.476
X454.942 Y453.297 Z-1.441
X454.911 Y453.338 Z-1.407
X454.861 Y453.385 Z-1.304
X454.842 Y453.399 Z-1.183
Z5
G0 X439.336 Y452.096
G1 Z1.317 F300
X439.352 Y452.113 Z1.198
X439.395 Y452.163 Z1.097
X439.456 Y452.241 Z1.027
X439.522 Y452.339 Z1
G3 X436.957 Y453.925 Z0.835 I-1.283 J0.793
X439.522 Y452.339 Z0.669 I1.283 J-0.793
X436.957 Y453.925 Z0.504 I-1.283 J0.793
X439.522 Y452.339 Z0.338 I1.283 J-0.793
X436.957 Y453.925 Z0.173 I-1.283 J0.793
X439.522 Y452.339 Z0.007 I1.283 J-0.793
X436.957 Y453.925 Z-0.158 I-1.283 J0.793
X439.522 Y452.339 Z-0.324 I1.283 J-0.793
X436.957 Y453.925 Z-0.489 I-1.283 J0.793
X439.522 Y452.339 Z-0.655 I1.283 J-0.793
X436.957 Y453.925 Z-0.82 I-1.283 J0.793
X439.522 Y452.339 Z-0.985 I1.283 J-0.793
X436.957 Y453.925 Z-1.151 I-1.283 J0.793
X439.522 Y452.339 Z-1.316 I1.283 J-0.793
X436.957 Y453.925 Z-1.482 I-1.283 J0.793
X439.522 Y452.339 Z-1.647 I1.283 J-0.793
X436.957 Y453.925 Z-1.813 I-1.283 J0.793
X439.522 Y452.339 Z-1.978 I1.283 J-0.793
X436.957 Y453.925 Z-2.144 I-1.283 J0.793
X439.522 Y452.339 Z-2.309 I1.283 J-0.793
X436.957 Y453.925 Z-2.474 I-1.283 J0.793
X439.522 Y452.339 Z-2.64 I1.283 J-0.793
X436.957 Y453.925 Z-2.805 I-1.283 J0.793
X439.522 Y452.339 Z-2.971 I1.283 J-0.793
X439.747 Y453.132 Z-3 I-1.283 J0.793
X438.402 Y453.132 I-0.672 J0 F1000
X441.652 Y453.132 I1.625 J0
X436.497 Y453.132 I-2.577 J0
X443.557 Y453.132 I3.53 J0
X434.592 Y453.132 I-4.482 J0
X445.462 Y453.132 I5.435 J0
X432.688 Y453.132 I-6.387 J0
X447.367 Y453.132 I7.34 J0
X430.783 Y453.132 I-8.292 J0
X449.272 Y453.132 I9.245 J0
X428.878 Y453.132 I-10.197 J0
X451.177 Y453.132 I11.15 J0
X426.973 Y453.132 I-12.102 J0
X453.082 Y453.132 I13.055 J0
X425.068 Y453.132 I-14.007 J0
X454.987 Y453.132 I14.96 J0
X423.163 Y453.132 I-15.912 J0
X454.987 Y453.132 I15.912 J0
G1 X454.982 Y453.192 Z-2.988 F600
X454.965 Y453.251 Z-2.976
X454.942 Y453.297 Z-2.941
X454.911 Y453.338 Z-2.907
X454.861 Y453.385 Z-2.804
X454.842 Y453.399 Z-2.683
Z5
G0 Z15
G0 X0 Y0
G90
M5
M30
