(PetitePlaque2)
(T1  D=3.175 CR=0 - ZMIN=-18 - fraise deux tailles)
G90 G94
G17
G21

(Contour 2D1 2)
S99999 M3
G54
G0 Z15
G0 X91.96 Y482.182
Z15
Z5
G1 Z2.5 F300
Z-1.183
G18 G2 X92.277 Z-1.5 I0.317 K0 F600
G1 X92.595
G17 G3 X92.912 Y482.5 I0 J0.318
G1 Y517.5 F1000
G3 X89.5 Y520.912 I-3.412 J0
G1 X71.5
G3 X68.088 Y517.5 I0 J-3.412
G1 Y473.5
G3 X71.5 Y470.087 I3.412 J0
G1 X89.5
G3 X92.912 Y473.5 I0 J3.413
G1 Y482.5
G3 X92.595 Y482.818 I-0.317 J0 F600
G1 X92.277
G18 G3 X91.96 Z-1.183 I0 K0.317
G1 Z2.5
Z5
G0 Y482.182
G1 Z1 F300
Z-2.683
G2 X92.277 Z-3 I0.317 K0 F600
G1 X92.595
G17 G3 X92.912 Y482.5 I0 J0.318
G1 Y517.5 F1000
G3 X89.5 Y520.912 I-3.412 J0
G1 X71.5
G3 X68.088 Y517.5 I0 J-3.412
G1 Y473.5
G3 X71.5 Y470.087 I3.412 J0
G1 X89.5
G3 X92.912 Y473.5 I0 J3.413
G1 Y482.5
G3 X92.595 Y482.818 I-0.317 J0 F600
G1 X92.277
G18 G3 X91.96 Z-2.683 I0 K0.318
G1 Z1
Z5
G0 Y482.182
G1 Z-0.5 F300
Z-4.183
G2 X92.277 Z-4.5 I0.317 K0 F600
G1 X92.595
G17 G3 X92.912 Y482.5 I0 J0.318
G1 Y517.5 F1000
G3 X89.5 Y520.912 I-3.412 J0
G1 X71.5
G3 X68.088 Y517.5 I0 J-3.412
G1 Y473.5
G3 X71.5 Y470.087 I3.412 J0
G1 X89.5
G3 X92.912 Y473.5 I0 J3.413
G1 Y482.5
G3 X92.595 Y482.818 I-0.317 J0 F600
G1 X92.277
G18 G3 X91.96 Z-4.183 I0 K0.318
G1 Z-0.5
Z5
G0 Y482.182
G1 Z-2 F300
Z-5.683
G2 X92.277 Z-6 I0.317 K0 F600
G1 X92.595
G17 G3 X92.912 Y482.5 I0 J0.318
G1 Y517.5 F1000
G3 X89.5 Y520.912 I-3.412 J0
G1 X71.5
G3 X68.088 Y517.5 I0 J-3.412
G1 Y473.5
G3 X71.5 Y470.087 I3.412 J0
G1 X89.5
G3 X92.912 Y473.5 I0 J3.413
G1 Y482.5
G3 X92.595 Y482.818 I-0.317 J0 F600
G1 X92.277
G18 G3 X91.96 Z-5.683 I0 K0.318
G1 Z-2
Z5
G0 Y482.182
G1 Z-3.5 F300
Z-7.183
G2 X92.277 Z-7.5 I0.317 K0 F600
G1 X92.595
G17 G3 X92.912 Y482.5 I0 J0.318
G1 Y517.5 F1000
G3 X89.5 Y520.912 I-3.412 J0
G1 X71.5
G3 X68.088 Y517.5 I0 J-3.412
G1 Y473.5
G3 X71.5 Y470.087 I3.412 J0
G1 X89.5
G3 X92.912 Y473.5 I0 J3.413
G1 Y482.5
G3 X92.595 Y482.818 I-0.317 J0 F600
G1 X92.277
G18 G3 X91.96 Z-7.183 I0 K0.318
G1 Z-3.5
Z5
G0 Y482.182
G1 Z-5 F300
Z-8.683
G2 X92.277 Z-9 I0.317 K0 F600
G1 X92.595
G17 G3 X92.912 Y482.5 I0 J0.318
G1 Y517.5 F1000
G3 X89.5 Y520.912 I-3.412 J0
G1 X71.5
G3 X68.088 Y517.5 I0 J-3.412
G1 Y473.5
G3 X71.5 Y470.087 I3.412 J0
G1 X89.5
G3 X92.912 Y473.5 I0 J3.413
G1 Y482.5
G3 X92.595 Y482.818 I-0.317 J0 F600
G1 X92.277
G18 G3 X91.96 Z-8.683 I0 K0.318
G1 Z-5
Z5
G0 Y482.182
G1 Z-6.5 F300
Z-10.183
G2 X92.277 Z-10.5 I0.317 K0 F600
G1 X92.595
G17 G3 X92.912 Y482.5 I0 J0.318
G1 Y517.5 F1000
G3 X89.5 Y520.912 I-3.412 J0
G1 X71.5
G3 X68.088 Y517.5 I0 J-3.412
G1 Y473.5
G3 X71.5 Y470.087 I3.412 J0
G1 X89.5
G3 X92.912 Y473.5 I0 J3.413
G1 Y482.5
G3 X92.595 Y482.818 I-0.317 J0 F600
G1 X92.277
G18 G3 X91.96 Z-10.183 I0 K0.318
G1 Z-6.5
Z5
G0 Y482.182
G1 Z-8 F300
Z-11.683
G2 X92.277 Z-12 I0.317 K0 F600
G1 X92.595
G17 G3 X92.912 Y482.5 I0 J0.318
G1 Y517.5 F1000
G3 X89.5 Y520.912 I-3.412 J0
G1 X71.5
G3 X68.088 Y517.5 I0 J-3.412
G1 Y473.5
G3 X71.5 Y470.087 I3.412 J0
G1 X89.5
G3 X92.912 Y473.5 I0 J3.413
G1 Y482.5
G3 X92.595 Y482.818 I-0.317 J0 F600
G1 X92.277
G18 G3 X91.96 Z-11.683 I0 K0.318
G1 Z-8
Z5
G0 Y482.182
G1 Z-9.5 F300
Z-13.183
G2 X92.277 Z-13.5 I0.317 K0 F600
G1 X92.595
G17 G3 X92.912 Y482.5 I0 J0.318
G1 Y493.163 F1000
Y493.913 Z-12
Y497.087
Y497.837 Z-13.5 F300
Y517.5 F1000
G3 X89.5 Y520.912 I-3.412 J0
G1 X71.5
G3 X68.088 Y517.5 I0 J-3.412
G1 Y497.837
Y497.087 Z-12
Y493.913
Y493.163 Z-13.5 F300
Y473.5 F1000
G3 X71.5 Y470.087 I3.412 J0
G1 X89.5
G3 X92.912 Y473.5 I0 J3.413
G1 Y482.5
G3 X92.595 Y482.818 I-0.317 J0 F600
G1 X92.277
G18 G3 X91.96 Z-13.183 I0 K0.318
G1 Z-9.5
Z5
G0 Y482.182
G1 Z-11 F300
Z-14.683
G2 X92.277 Z-15 I0.317 K0 F600
G1 X92.595
G17 G3 X92.912 Y482.5 I0 J0.318
G1 Y492.413 F1000
Y493.913 Z-12
Y497.087
Y498.587 Z-15 F300
Y517.5 F1000
G3 X89.5 Y520.912 I-3.412 J0
G1 X71.5
G3 X68.088 Y517.5 I0 J-3.412
G1 Y498.587
Y497.087 Z-12
Y493.913
Y492.413 Z-15 F300
Y473.5 F1000
G3 X71.5 Y470.087 I3.412 J0
G1 X89.5
G3 X92.912 Y473.5 I0 J3.413
G1 Y482.5
G3 X92.595 Y482.818 I-0.317 J0 F600
G1 X92.277
G18 G3 X91.96 Z-14.683 I0 K0.318
G1 Z-11
Z5
G0 Y482.182
G1 Z-12.5 F300
Z-16.183
G2 X92.277 Z-16.5 I0.317 K0 F600
G1 X92.595
G17 G3 X92.912 Y482.5 I0 J0.318
G1 Y491.663 F1000
Y493.913 Z-12
Y497.087
Y499.337 Z-16.5 F300
Y517.5 F1000
G3 X89.5 Y520.912 I-3.412 J0
G1 X71.5
G3 X68.088 Y517.5 I0 J-3.412
G1 Y499.337
Y497.087 Z-12
Y493.913
Y491.663 Z-16.5 F300
Y473.5 F1000
G3 X71.5 Y470.087 I3.412 J0
G1 X89.5
G3 X92.912 Y473.5 I0 J3.413
G1 Y482.5
G3 X92.595 Y482.818 I-0.317 J0 F600
G1 X92.277
G18 G3 X91.96 Z-16.183 I0 K0.317
G1 Z-12.5
Z5
G0 Y482.182
G1 Z-14 F300
Z-17.683
G2 X92.277 Z-18 I0.317 K0 F600
G1 X92.595
G17 G3 X92.912 Y482.5 I0 J0.318
G1 Y490.913 F1000
Y493.913 Z-12
Y497.087
Y500.087 Z-18 F300
Y517.5 F1000
G3 X89.5 Y520.912 I-3.412 J0
G1 X71.5
G3 X68.088 Y517.5 I0 J-3.412
G1 Y500.087
Y497.087 Z-12
Y493.913
Y490.913 Z-18 F300
Y473.5 F1000
G3 X71.5 Y470.087 I3.412 J0
G1 X89.5
G3 X92.912 Y473.5 I0 J3.413
G1 Y482.5
G3 X92.595 Y482.818 I-0.317 J0 F600
G1 X92.277
G18 G3 X91.96 Z-17.683 I0 K0.317
G1 Z5
G0 Z15
G17
G0 X0 Y0
G90
M5
M30
