(PetitePlaque2)
(T1  D=3.175 CR=0 - ZMIN=-18 - fraise deux tailles)
G90 G94
G17
G21

(Contour 2D3 2)
S99999 M3
G54
G0 Z15
G0 X532.46 Y559.653
Z15
Z5
G1 Z2.5 F300
Z-1.183
G18 G2 X532.778 Z-1.5 I0.318 K0 F600
G1 X533.095
G17 G3 X533.412 Y559.97 I0 J0.317
G1 Y639.97 F1000
G3 X516.588 Y639.97 I-8.412 J0
G1 Y559.97
G3 X533.412 Y559.97 I8.412 J0
X533.095 Y560.287 I-0.318 J0 F600
G1 X532.778
G18 G3 X532.46 Z-1.183 I0 K0.317
G1 Z2.5
Z5
G0 Y559.653
G1 Z1 F300
Z-2.683
G2 X532.778 Z-3 I0.318 K0 F600
G1 X533.095
G17 G3 X533.412 Y559.97 I0 J0.317
G1 Y639.97 F1000
G3 X516.588 Y639.97 I-8.412 J0
G1 Y559.97
G3 X533.412 Y559.97 I8.412 J0
X533.095 Y560.287 I-0.318 J0 F600
G1 X532.778
G18 G3 X532.46 Z-2.683 I0 K0.318
G1 Z1
Z5
G0 Y559.653
G1 Z-0.5 F300
Z-4.183
G2 X532.778 Z-4.5 I0.318 K0 F600
G1 X533.095
G17 G3 X533.412 Y559.97 I0 J0.317
G1 Y639.97 F1000
G3 X516.588 Y639.97 I-8.412 J0
G1 Y559.97
G3 X533.412 Y559.97 I8.412 J0
X533.095 Y560.287 I-0.318 J0 F600
G1 X532.778
G18 G3 X532.46 Z-4.183 I0 K0.318
G1 Z-0.5
Z5
G0 Y559.653
G1 Z-2 F300
Z-5.683
G2 X532.778 Z-6 I0.318 K0 F600
G1 X533.095
G17 G3 X533.412 Y559.97 I0 J0.317
G1 Y639.97 F1000
G3 X516.588 Y639.97 I-8.412 J0
G1 Y559.97
G3 X533.412 Y559.97 I8.412 J0
X533.095 Y560.287 I-0.318 J0 F600
G1 X532.778
G18 G3 X532.46 Z-5.683 I0 K0.318
G1 Z-2
Z5
G0 Y559.653
G1 Z-3.5 F300
Z-7.183
G2 X532.778 Z-7.5 I0.318 K0 F600
G1 X533.095
G17 G3 X533.412 Y559.97 I0 J0.317
G1 Y639.97 F1000
G3 X516.588 Y639.97 I-8.412 J0
G1 Y559.97
G3 X533.412 Y559.97 I8.412 J0
X533.095 Y560.287 I-0.318 J0 F600
G1 X532.778
G18 G3 X532.46 Z-7.183 I0 K0.318
G1 Z-3.5
Z5
G0 Y559.653
G1 Z-5 F300
Z-8.683
G2 X532.778 Z-9 I0.318 K0 F600
G1 X533.095
G17 G3 X533.412 Y559.97 I0 J0.317
G1 Y639.97 F1000
G3 X516.588 Y639.97 I-8.412 J0
G1 Y559.97
G3 X533.412 Y559.97 I8.412 J0
X533.095 Y560.287 I-0.318 J0 F600
G1 X532.778
G18 G3 X532.46 Z-8.683 I0 K0.318
G1 Z-5
Z5
G0 Y559.653
G1 Z-6.5 F300
Z-10.183
G2 X532.778 Z-10.5 I0.318 K0 F600
G1 X533.095
G17 G3 X533.412 Y559.97 I0 J0.317
G1 Y639.97 F1000
G3 X516.588 Y639.97 I-8.412 J0
G1 Y559.97
G3 X533.412 Y559.97 I8.412 J0
X533.095 Y560.287 I-0.318 J0 F600
G1 X532.778
G18 G3 X532.46 Z-10.183 I0 K0.318
G1 Z-6.5
Z5
G0 Y559.653
G1 Z-8 F300
Z-11.683
G2 X532.778 Z-12 I0.318 K0 F600
G1 X533.095
G17 G3 X533.412 Y559.97 I0 J0.317
G1 Y639.97 F1000
G3 X516.588 Y639.97 I-8.412 J0
G1 Y559.97
G3 X533.412 Y559.97 I8.412 J0
X533.095 Y560.287 I-0.318 J0 F600
G1 X532.778
G18 G3 X532.46 Z-11.683 I0 K0.318
G1 Z-8
Z5
G0 Y559.653
G1 Z-9.5 F300
Z-13.183
G2 X532.778 Z-13.5 I0.318 K0 F600
G1 X533.095
G17 G3 X533.412 Y559.97 I0 J0.317
G1 Y575.383 F1000
Z-12
Y584.557
Z-13.5 F300
Y615.383 F1000
Z-12
Y624.557
Z-13.5 F300
Y639.97 F1000
G3 X516.588 Y639.97 I-8.412 J0
G1 Y624.557
Z-12
Y615.383
Z-13.5 F300
Y584.557 F1000
Z-12
Y575.383
Z-13.5 F300
Y559.97 F1000
G3 X533.412 Y559.97 I8.412 J0
X533.095 Y560.287 I-0.318 J0 F600
G1 X532.778
G18 G3 X532.46 Z-13.183 I0 K0.318
G1 Z-9.5
Z5
G0 Y559.653
G1 Z-11 F300
Z-14.683
G2 X532.778 Z-15 I0.318 K0 F600
G1 X533.095
G17 G3 X533.412 Y559.97 I0 J0.317
G1 Y575.383 F1000
Z-12
Y584.557
Z-15 F300
Y615.383 F1000
Z-12
Y624.557
Z-15 F300
Y639.97 F1000
G3 X516.588 Y639.97 I-8.412 J0
G1 Y624.557
Z-12
Y615.383
Z-15 F300
Y584.557 F1000
Z-12
Y575.383
Z-15 F300
Y559.97 F1000
G3 X533.412 Y559.97 I8.412 J0
X533.095 Y560.287 I-0.318 J0 F600
G1 X532.778
G18 G3 X532.46 Z-14.683 I0 K0.318
G1 Z-11
Z5
G0 Y559.653
G1 Z-12.5 F300
Z-16.183
G2 X532.778 Z-16.5 I0.318 K0 F600
G1 X533.095
G17 G3 X533.412 Y559.97 I0 J0.317
G1 Y575.383 F1000
Z-12
Y584.557
Z-16.5 F300
Y615.383 F1000
Z-12
Y624.557
Z-16.5 F300
Y639.97 F1000
G3 X516.588 Y639.97 I-8.412 J0
G1 Y624.557
Z-12
Y615.383
Z-16.5 F300
Y584.557 F1000
Z-12
Y575.383
Z-16.5 F300
Y559.97 F1000
G3 X533.412 Y559.97 I8.412 J0
X533.095 Y560.287 I-0.318 J0 F600
G1 X532.778
G18 G3 X532.46 Z-16.183 I0 K0.317
G1 Z-12.5
Z5
G0 Y559.653
G1 Z-14 F300
Z-17.683
G2 X532.778 Z-18 I0.318 K0 F600
G1 X533.095
G17 G3 X533.412 Y559.97 I0 J0.317
G1 Y575.383 F1000
Z-12
Y584.557
Z-18 F300
Y615.383 F1000
Z-12
Y624.557
Z-18 F300
Y639.97 F1000
G3 X516.588 Y639.97 I-8.412 J0
G1 Y624.557
Z-12
Y615.383
Z-18 F300
Y584.557 F1000
Z-12
Y575.383
Z-18 F300
Y559.97 F1000
G3 X533.412 Y559.97 I8.412 J0
X533.095 Y560.287 I-0.318 J0 F600
G1 X532.778
G18 G3 X532.46 Z-17.683 I0 K0.317
G1 Z5
G0 Z15
G17
G0 X0 Y0
G90
M5
M30
