(PetitePlaque2)
(T1  D=3.175 CR=0 - ZMIN=-18 - fraise deux tailles)
G90 G94
G17
G21

(Contour 2D3 4)
S99999 M3
G54
G0 Z15
G0 X22.448 Y574.803
Z15
Z5
G1 Z2.5 F300
Z-1.183
X22.456 Y574.802 Z-1.253 F600
X22.479 Y574.801 Z-1.32
X22.517 Y574.8 Z-1.38
X22.567 Y574.797 Z-1.431
X22.627 Y574.794 Z-1.469
X22.694 Y574.791 Z-1.492
X22.765 Y574.788 Z-1.5
X23.082 Y574.773
G3 X23.414 Y575.075 I0.015 J0.317
G2 X24.206 Y576.375 I1.586 J-0.075 F1000
G1 X110.809 Y626.375
G2 X112.136 Y626.495 I0.794 J-1.375
G3 X394.709 Y602.193 I187.566 J525.965
X473.413 Y675.196 I-16.744 J96.978
G1 Y775
G2 X475 Y776.588 I1.587 J0
G1 X575
G2 X576.588 Y775 I0 J-1.588
G1 Y425
G2 X575 Y423.413 I-1.588 J0
G1 X25
G2 X23.413 Y425 I0 J1.587
G1 Y575
X23.414 Y575.075
G3 X23.112 Y575.407 I-0.317 J0.015 F600
G1 X22.795 Y575.422
X22.724 Y575.425 Z-1.492
X22.657 Y575.429 Z-1.469
X22.597 Y575.431 Z-1.431
X22.547 Y575.434 Z-1.38
X22.509 Y575.436 Z-1.32
X22.486 Y575.437 Z-1.253
X22.478 Z-1.183
Z2.5
Z5
G0 X22.448 Y574.803
G1 Z1 F300
Z-2.683
X22.456 Y574.802 Z-2.753 F600
X22.479 Y574.801 Z-2.82
X22.517 Y574.8 Z-2.88
X22.567 Y574.797 Z-2.931
X22.627 Y574.794 Z-2.969
X22.694 Y574.791 Z-2.992
X22.765 Y574.788 Z-3
X23.082 Y574.773
G3 X23.414 Y575.075 I0.015 J0.317
G2 X24.206 Y576.375 I1.586 J-0.075 F1000
G1 X110.809 Y626.375
G2 X112.136 Y626.495 I0.794 J-1.375
G3 X394.709 Y602.193 I187.566 J525.965
X473.413 Y675.196 I-16.744 J96.978
G1 Y775
G2 X475 Y776.588 I1.587 J0
G1 X575
G2 X576.588 Y775 I0 J-1.588
G1 Y425
G2 X575 Y423.413 I-1.588 J0
G1 X25
G2 X23.413 Y425 I0 J1.587
G1 Y575
X23.414 Y575.075
G3 X23.112 Y575.407 I-0.317 J0.015 F600
G1 X22.795 Y575.422
X22.724 Y575.425 Z-2.992
X22.657 Y575.429 Z-2.969
X22.597 Y575.431 Z-2.931
X22.547 Y575.434 Z-2.88
X22.509 Y575.436 Z-2.82
X22.486 Y575.437 Z-2.753
X22.478 Z-2.683
Z1
Z5
G0 X22.448 Y574.803
G1 Z-0.5 F300
Z-4.183
X22.456 Y574.802 Z-4.253 F600
X22.479 Y574.801 Z-4.32
X22.517 Y574.8 Z-4.38
X22.567 Y574.797 Z-4.431
X22.627 Y574.794 Z-4.469
X22.694 Y574.791 Z-4.492
X22.765 Y574.788 Z-4.5
X23.082 Y574.773
G3 X23.414 Y575.075 I0.015 J0.317
G2 X24.206 Y576.375 I1.586 J-0.075 F1000
G1 X110.809 Y626.375
G2 X112.136 Y626.495 I0.794 J-1.375
G3 X394.709 Y602.193 I187.566 J525.965
X473.413 Y675.196 I-16.744 J96.978
G1 Y775
G2 X475 Y776.588 I1.587 J0
G1 X575
G2 X576.588 Y775 I0 J-1.588
G1 Y425
G2 X575 Y423.413 I-1.588 J0
G1 X25
G2 X23.413 Y425 I0 J1.587
G1 Y575
X23.414 Y575.075
G3 X23.112 Y575.407 I-0.317 J0.015 F600
G1 X22.795 Y575.422
X22.724 Y575.425 Z-4.492
X22.657 Y575.429 Z-4.469
X22.597 Y575.431 Z-4.431
X22.547 Y575.434 Z-4.38
X22.509 Y575.436 Z-4.32
X22.486 Y575.437 Z-4.253
X22.478 Z-4.183
Z-0.5
Z5
G0 X22.448 Y574.803
G1 Z-2 F300
Z-5.683
X22.456 Y574.802 Z-5.753 F600
X22.479 Y574.801 Z-5.82
X22.517 Y574.8 Z-5.88
X22.567 Y574.797 Z-5.931
X22.627 Y574.794 Z-5.969
X22.694 Y574.791 Z-5.992
X22.765 Y574.788 Z-6
X23.082 Y574.773
G3 X23.414 Y575.075 I0.015 J0.317
G2 X24.206 Y576.375 I1.586 J-0.075 F1000
G1 X110.809 Y626.375
G2 X112.136 Y626.495 I0.794 J-1.375
G3 X394.709 Y602.193 I187.566 J525.965
X473.413 Y675.196 I-16.744 J96.978
G1 Y775
G2 X475 Y776.588 I1.587 J0
G1 X575
G2 X576.588 Y775 I0 J-1.588
G1 Y425
G2 X575 Y423.413 I-1.588 J0
G1 X25
G2 X23.413 Y425 I0 J1.587
G1 Y575
X23.414 Y575.075
G3 X23.112 Y575.407 I-0.317 J0.015 F600
G1 X22.795 Y575.422
X22.724 Y575.425 Z-5.992
X22.657 Y575.429 Z-5.969
X22.597 Y575.431 Z-5.931
X22.547 Y575.434 Z-5.88
X22.509 Y575.436 Z-5.82
X22.486 Y575.437 Z-5.753
X22.478 Z-5.683
Z-2
Z5
G0 X22.448 Y574.803
G1 Z-3.5 F300
Z-7.183
X22.456 Y574.802 Z-7.253 F600
X22.479 Y574.801 Z-7.32
X22.517 Y574.8 Z-7.38
X22.567 Y574.797 Z-7.431
X22.627 Y574.794 Z-7.469
X22.694 Y574.791 Z-7.492
X22.765 Y574.788 Z-7.5
X23.082 Y574.773
G3 X23.414 Y575.075 I0.015 J0.317
G2 X24.206 Y576.375 I1.586 J-0.075 F1000
G1 X110.809 Y626.375
G2 X112.136 Y626.495 I0.794 J-1.375
G3 X394.709 Y602.193 I187.566 J525.965
X473.413 Y675.196 I-16.744 J96.978
G1 Y775
G2 X475 Y776.588 I1.587 J0
G1 X575
G2 X576.588 Y775 I0 J-1.588
G1 Y425
G2 X575 Y423.413 I-1.588 J0
G1 X25
G2 X23.413 Y425 I0 J1.587
G1 Y575
X23.414 Y575.075
G3 X23.112 Y575.407 I-0.317 J0.015 F600
G1 X22.795 Y575.422
X22.724 Y575.425 Z-7.492
X22.657 Y575.429 Z-7.469
X22.597 Y575.431 Z-7.431
X22.547 Y575.434 Z-7.38
X22.509 Y575.436 Z-7.32
X22.486 Y575.437 Z-7.253
X22.478 Z-7.183
Z-3.5
Z5
G0 X22.448 Y574.803
G1 Z-5 F300
Z-8.683
X22.456 Y574.802 Z-8.753 F600
X22.479 Y574.801 Z-8.82
X22.517 Y574.8 Z-8.88
X22.567 Y574.797 Z-8.931
X22.627 Y574.794 Z-8.969
X22.694 Y574.791 Z-8.992
X22.765 Y574.788 Z-9
X23.082 Y574.773
G3 X23.414 Y575.075 I0.015 J0.317
G2 X24.206 Y576.375 I1.586 J-0.075 F1000
G1 X110.809 Y626.375
G2 X112.136 Y626.495 I0.794 J-1.375
G3 X394.709 Y602.193 I187.566 J525.965
X473.413 Y675.196 I-16.744 J96.978
G1 Y775
G2 X475 Y776.588 I1.587 J0
G1 X575
G2 X576.588 Y775 I0 J-1.588
G1 Y425
G2 X575 Y423.413 I-1.588 J0
G1 X25
G2 X23.413 Y425 I0 J1.587
G1 Y575
X23.414 Y575.075
G3 X23.112 Y575.407 I-0.317 J0.015 F600
G1 X22.795 Y575.422
X22.724 Y575.425 Z-8.992
X22.657 Y575.429 Z-8.969
X22.597 Y575.431 Z-8.931
X22.547 Y575.434 Z-8.88
X22.509 Y575.436 Z-8.82
X22.486 Y575.437 Z-8.753
X22.478 Z-8.683
Z-5
Z5
G0 X22.448 Y574.803
G1 Z-6.5 F300
Z-10.183
X22.456 Y574.802 Z-10.253 F600
X22.479 Y574.801 Z-10.32
X22.517 Y574.8 Z-10.38
X22.567 Y574.797 Z-10.431
X22.627 Y574.794 Z-10.469
X22.694 Y574.791 Z-10.492
X22.765 Y574.788 Z-10.5
X23.082 Y574.773
G3 X23.414 Y575.075 I0.015 J0.317
G2 X24.206 Y576.375 I1.586 J-0.075 F1000
G1 X110.809 Y626.375
G2 X112.136 Y626.495 I0.794 J-1.375
G3 X394.709 Y602.193 I187.566 J525.965
X473.413 Y675.196 I-16.744 J96.978
G1 Y775
G2 X475 Y776.588 I1.587 J0
G1 X575
G2 X576.588 Y775 I0 J-1.588
G1 Y425
G2 X575 Y423.413 I-1.588 J0
G1 X25
G2 X23.413 Y425 I0 J1.587
G1 Y575
X23.414 Y575.075
G3 X23.112 Y575.407 I-0.317 J0.015 F600
G1 X22.795 Y575.422
X22.724 Y575.425 Z-10.492
X22.657 Y575.429 Z-10.469
X22.597 Y575.431 Z-10.431
X22.547 Y575.434 Z-10.38
X22.509 Y575.436 Z-10.32
X22.486 Y575.437 Z-10.253
X22.478 Z-10.183
Z-6.5
Z5
G0 X22.448 Y574.803
G1 Z-8 F300
Z-11.683
X22.456 Y574.802 Z-11.753 F600
X22.479 Y574.801 Z-11.82
X22.517 Y574.8 Z-11.88
X22.567 Y574.797 Z-11.931
X22.627 Y574.794 Z-11.969
X22.694 Y574.791 Z-11.992
X22.765 Y574.788 Z-12
X23.082 Y574.773
G3 X23.414 Y575.075 I0.015 J0.317
G2 X24.206 Y576.375 I1.586 J-0.075 F1000
G1 X110.809 Y626.375
G2 X112.136 Y626.495 I0.794 J-1.375
G3 X394.709 Y602.193 I187.566 J525.965
X473.413 Y675.196 I-16.744 J96.978
G1 Y775
G2 X475 Y776.588 I1.587 J0
G1 X575
G2 X576.588 Y775 I0 J-1.588
G1 Y425
G2 X575 Y423.413 I-1.588 J0
G1 X25
G2 X23.413 Y425 I0 J1.587
G1 Y575
X23.414 Y575.075
G3 X23.112 Y575.407 I-0.317 J0.015 F600
G1 X22.795 Y575.422
X22.724 Y575.425 Z-11.992
X22.657 Y575.429 Z-11.969
X22.597 Y575.431 Z-11.931
X22.547 Y575.434 Z-11.88
X22.509 Y575.436 Z-11.82
X22.486 Y575.437 Z-11.753
X22.478 Z-11.683
Z-8
Z5
G0 X22.448 Y574.803
G1 Z-9.5 F300
Z-13.183
X22.456 Y574.802 Z-13.253 F600
X22.479 Y574.801 Z-13.32
X22.517 Y574.8 Z-13.38
X22.567 Y574.797 Z-13.431
X22.627 Y574.794 Z-13.469
X22.694 Y574.791 Z-13.492
X22.765 Y574.788 Z-13.5
X23.082 Y574.773
G3 X23.414 Y575.075 I0.015 J0.317
G2 X24.206 Y576.375 I1.586 J-0.075 F1000
G1 X110.809 Y626.375
G2 X112.136 Y626.495 I0.794 J-1.375
G3 X176.54 Y607.803 I187.566 J525.965
G1 Z-12
G3 X185.505 Y605.853 I123.162 J544.657
G1 Z-13.5 F300
G3 X318.893 Y594.382 I114.197 J546.607 F1000
G1 Z-12
G3 X328.06 Y594.772 I-19.191 J558.078
G1 Z-13.5 F300
G3 X394.709 Y602.193 I-28.358 J557.688 F1000
X473.413 Y675.196 I-16.744 J96.978
G1 Y775
G2 X475 Y776.588 I1.587 J0
G1 X575
G2 X576.588 Y775 I0 J-1.588
G1 Y692.088
Z-12
Y682.912
Z-13.5 F300
Y517.088 F1000
Z-12
Y507.913
Z-13.5 F300
Y425 F1000
G2 X575 Y423.413 I-1.588 J0
G1 X510.837
Z-12
X501.663
Z-13.5 F300
X373.337 F1000
Z-12
X364.163
Z-13.5 F300
X235.837 F1000
Z-12
X226.663
Z-13.5 F300
X98.338 F1000
Z-12
X89.162
Z-13.5 F300
X25 F1000
G2 X23.413 Y425 I0 J1.587
G1 Y495.413
Z-12
Y504.587
Z-13.5 F300
Y575 F1000
X23.414 Y575.075
G3 X23.112 Y575.407 I-0.317 J0.015 F600
G1 X22.795 Y575.422
X22.724 Y575.425 Z-13.492
X22.657 Y575.429 Z-13.469
X22.597 Y575.431 Z-13.431
X22.547 Y575.434 Z-13.38
X22.509 Y575.436 Z-13.32
X22.486 Y575.437 Z-13.253
X22.478 Z-13.183
Z-9.5
Z5
G0 X22.448 Y574.803
G1 Z-11 F300
Z-14.683
X22.456 Y574.802 Z-14.753 F600
X22.479 Y574.801 Z-14.82
X22.517 Y574.8 Z-14.88
X22.567 Y574.797 Z-14.931
X22.627 Y574.794 Z-14.969
X22.694 Y574.791 Z-14.992
X22.765 Y574.788 Z-15
X23.082 Y574.773
G3 X23.414 Y575.075 I0.015 J0.317
G2 X24.206 Y576.375 I1.586 J-0.075 F1000
G1 X110.809 Y626.375
G2 X112.136 Y626.495 I0.794 J-1.375
G3 X176.54 Y607.803 I187.566 J525.965
G1 Z-12
G3 X185.505 Y605.853 I123.162 J544.657
G1 Z-15 F300
G3 X318.893 Y594.382 I114.197 J546.607 F1000
G1 Z-12
G3 X328.06 Y594.772 I-19.191 J558.078
G1 Z-15 F300
G3 X394.709 Y602.193 I-28.358 J557.688 F1000
X473.413 Y675.196 I-16.744 J96.978
G1 Y775
G2 X475 Y776.588 I1.587 J0
G1 X575
G2 X576.588 Y775 I0 J-1.588
G1 Y692.088
Z-12
Y682.912
Z-15 F300
Y517.088 F1000
Z-12
Y507.913
Z-15 F300
Y425 F1000
G2 X575 Y423.413 I-1.588 J0
G1 X510.837
Z-12
X501.663
Z-15 F300
X373.337 F1000
Z-12
X364.163
Z-15 F300
X235.837 F1000
Z-12
X226.663
Z-15 F300
X98.338 F1000
Z-12
X89.162
Z-15 F300
X25 F1000
G2 X23.413 Y425 I0 J1.587
G1 Y495.413
Z-12
Y504.587
Z-15 F300
Y575 F1000
X23.414 Y575.075
G3 X23.112 Y575.407 I-0.317 J0.015 F600
G1 X22.795 Y575.422
X22.724 Y575.425 Z-14.992
X22.657 Y575.429 Z-14.969
X22.597 Y575.431 Z-14.931
X22.547 Y575.434 Z-14.88
X22.509 Y575.436 Z-14.82
X22.486 Y575.437 Z-14.753
X22.478 Z-14.683
Z-11
Z5
G0 X22.448 Y574.803
G1 Z-12.5 F300
Z-16.183
X22.456 Y574.802 Z-16.253 F600
X22.479 Y574.801 Z-16.32
X22.517 Y574.8 Z-16.38
X22.567 Y574.797 Z-16.431
X22.627 Y574.794 Z-16.469
X22.694 Y574.791 Z-16.492
X22.765 Y574.788 Z-16.5
X23.082 Y574.773
G3 X23.414 Y575.075 I0.015 J0.317
G2 X24.206 Y576.375 I1.586 J-0.075 F1000
G1 X110.809 Y626.375
G2 X112.136 Y626.495 I0.794 J-1.375
G3 X176.54 Y607.803 I187.566 J525.965
G1 Z-12
G3 X185.505 Y605.853 I123.162 J544.657
G1 Z-16.5 F300
G3 X318.893 Y594.382 I114.197 J546.607 F1000
G1 Z-12
G3 X328.06 Y594.772 I-19.191 J558.078
G1 Z-16.5 F300
G3 X394.709 Y602.193 I-28.358 J557.688 F1000
X473.413 Y675.196 I-16.744 J96.978
G1 Y775
G2 X475 Y776.588 I1.587 J0
G1 X575
G2 X576.588 Y775 I0 J-1.588
G1 Y692.088
Z-12
Y682.912
Z-16.5 F300
Y517.088 F1000
Z-12
Y507.913
Z-16.5 F300
Y425 F1000
G2 X575 Y423.413 I-1.588 J0
G1 X510.837
Z-12
X501.663
Z-16.5 F300
X373.337 F1000
Z-12
X364.163
Z-16.5 F300
X235.837 F1000
Z-12
X226.663
Z-16.5 F300
X98.338 F1000
Z-12
X89.162
Z-16.5 F300
X25 F1000
G2 X23.413 Y425 I0 J1.587
G1 Y495.413
Z-12
Y504.587
Z-16.5 F300
Y575 F1000
X23.414 Y575.075
G3 X23.112 Y575.407 I-0.317 J0.015 F600
G1 X22.795 Y575.422
X22.724 Y575.425 Z-16.492
X22.657 Y575.429 Z-16.469
X22.597 Y575.431 Z-16.431
X22.547 Y575.434 Z-16.38
X22.509 Y575.436 Z-16.32
X22.486 Y575.437 Z-16.253
X22.478 Z-16.183
Z-12.5
Z5
G0 X22.448 Y574.803
G1 Z-14 F300
Z-17.683
X22.456 Y574.802 Z-17.753 F600
X22.479 Y574.801 Z-17.82
X22.517 Y574.8 Z-17.88
X22.567 Y574.797 Z-17.931
X22.627 Y574.794 Z-17.969
X22.694 Y574.791 Z-17.992
X22.765 Y574.788 Z-18
X23.082 Y574.773
G3 X23.414 Y575.075 I0.015 J0.317
G2 X24.206 Y576.375 I1.586 J-0.075 F1000
G1 X110.809 Y626.375
G2 X112.136 Y626.495 I0.794 J-1.375
G3 X176.54 Y607.803 I187.566 J525.965
G1 Z-12
G3 X185.505 Y605.853 I123.162 J544.657
G1 Z-18 F300
G3 X318.893 Y594.382 I114.197 J546.607 F1000
G1 Z-12
G3 X328.06 Y594.772 I-19.191 J558.078
G1 Z-18 F300
G3 X394.709 Y602.193 I-28.358 J557.688 F1000
X473.413 Y675.196 I-16.744 J96.978
G1 Y775
G2 X475 Y776.588 I1.587 J0
G1 X575
G2 X576.588 Y775 I0 J-1.588
G1 Y692.088
Z-12
Y682.912
Z-18 F300
Y517.088 F1000
Z-12
Y507.913
Z-18 F300
Y425 F1000
G2 X575 Y423.413 I-1.588 J0
G1 X510.837
Z-12
X501.663
Z-18 F300
X373.337 F1000
Z-12
X364.163
Z-18 F300
X235.837 F1000
Z-12
X226.663
Z-18 F300
X98.338 F1000
Z-12
X89.162
Z-18 F300
X25 F1000
G2 X23.413 Y425 I0 J1.587
G1 Y495.413
Z-12
Y504.587
Z-18 F300
Y575 F1000
X23.414 Y575.075
G3 X23.112 Y575.407 I-0.317 J0.015 F600
G1 X22.795 Y575.422
X22.724 Y575.425 Z-17.992
X22.657 Y575.429 Z-17.969
X22.597 Y575.431 Z-17.931
X22.547 Y575.434 Z-17.88
X22.509 Y575.436 Z-17.82
X22.486 Y575.437 Z-17.753
X22.478 Z-17.683
Z5
G0 Z15
G0 X0 Y0
G90
M5
M30
