(PetitePlaque2)
(T1  D=3.175 CR=0 - ZMIN=-3 - fraise deux tailles)
G90 G94
G17
G21

(Poche 2D5)
S99999 M3
G54
G0 Z15
G0 X80.054 Y320.536
Z15
Z5
G1 Z2.817 F300
X80.039 Y320.519 Z2.698
X79.995 Y320.469 Z2.597
X79.934 Y320.391 Z2.527
X79.868 Y320.293 Z2.5
G3 X82.433 Y318.707 Z2.335 I1.283 J-0.793
X79.868 Y320.293 Z2.169 I-1.283 J0.793
X82.433 Y318.707 Z2.004 I1.283 J-0.793
X79.868 Y320.293 Z1.838 I-1.283 J0.793
X82.433 Y318.707 Z1.673 I1.283 J-0.793
X79.868 Y320.293 Z1.507 I-1.283 J0.793
X82.433 Y318.707 Z1.342 I1.283 J-0.793
X79.868 Y320.293 Z1.176 I-1.283 J0.793
X82.433 Y318.707 Z1.011 I1.283 J-0.793
X79.868 Y320.293 Z0.845 I-1.283 J0.793
X82.433 Y318.707 Z0.68 I1.283 J-0.793
X79.868 Y320.293 Z0.515 I-1.283 J0.793
X82.433 Y318.707 Z0.349 I1.283 J-0.793
X79.868 Y320.293 Z0.184 I-1.283 J0.793
X82.433 Y318.707 Z0.018 I1.283 J-0.793
X79.868 Y320.293 Z-0.147 I-1.283 J0.793
X82.433 Y318.707 Z-0.313 I1.283 J-0.793
X79.868 Y320.293 Z-0.478 I-1.283 J0.793
X82.433 Y318.707 Z-0.644 I1.283 J-0.793
X79.868 Y320.293 Z-0.809 I-1.283 J0.793
X82.433 Y318.707 Z-0.974 I1.283 J-0.793
X79.868 Y320.293 Z-1.14 I-1.283 J0.793
X82.433 Y318.707 Z-1.305 I1.283 J-0.793
X79.868 Y320.293 Z-1.471 I-1.283 J0.793
X79.643 Y319.5 Z-1.5 I1.283 J-0.793
G1 Y288.962 F1000
G3 X79.962 Y288.642 I0.319 J0
G1 X81.038
G3 X81.357 Y288.962 I0 J0.319
G1 Y320.038
G3 X81.038 Y320.358 I-0.319 J0
G1 X79.962
G3 X79.643 Y320.038 I0 J-0.319
G1 Y319.5
G2 X78.74 Y318.146 I-1.467 J0
G3 X77.838 Y316.793 I0.564 J-1.354
G1 Y287.157
G3 X78.157 Y286.837 I0.319 J0
G1 X82.843
G3 X83.162 Y287.157 I0 J0.319
G1 Y321.843
G3 X82.843 Y322.163 I-0.319 J0
G1 X78.157
G3 X77.838 Y321.843 I0 J-0.319
G1 Y316.793
G2 X76.935 Y315.439 I-1.467 J0
G3 X76.033 Y314.085 I0.564 J-1.354
G1 Y285.352
G3 X76.352 Y285.033 I0.319 J0
G1 X84.648
G3 X84.967 Y285.352 I0 J0.319
G1 Y323.648
G3 X84.648 Y323.967 I-0.319 J0
G1 X76.352
G3 X76.033 Y323.648 I0 J-0.319
G1 Y314.085
G2 X75.13 Y312.731 I-1.467 J0
G3 X74.228 Y311.378 I0.564 J-1.354
G1 Y283.547
G3 X74.547 Y283.228 I0.319 J0
G1 X86.453
G3 X86.772 Y283.547 I0 J0.319
G1 Y325.453
G3 X86.453 Y325.772 I-0.319 J0
G1 X74.547
G3 X74.228 Y325.453 I0 J-0.319
G1 Y311.378
G2 X73.325 Y310.024 I-1.467 J0
G3 X72.423 Y308.67 I0.564 J-1.354
G1 Y281.742
G3 X72.742 Y281.422 I0.319 J0
G1 X88.258
G3 X88.577 Y281.742 I0 J0.319
G1 Y327.258
G3 X88.258 Y327.578 I-0.319 J0
G1 X72.742
G3 X72.423 Y327.258 I0 J-0.319
G1 Y308.67
G2 X71.52 Y307.316 I-1.467 J0
G3 X70.618 Y305.962 I0.564 J-1.354
G1 Y279.937
G3 X70.937 Y279.617 I0.319 J0
G1 X90.063
G3 X90.382 Y279.937 I0 J0.319
G1 Y329.063
G3 X90.063 Y329.383 I-0.319 J0
G1 X70.937
G3 X70.618 Y329.063 I0 J-0.319
G1 Y305.962
G2 X69.715 Y304.609 I-1.467 J0
G3 X68.813 Y303.255 I0.564 J-1.354
G1 Y278.132
G3 X69.132 Y277.813 I0.319 J0
G1 X91.868
G3 X92.188 Y278.132 I0 J0.319
G1 Y330.868
G3 X91.868 Y331.188 I-0.319 J0
G1 X69.132
G3 X68.813 Y330.868 I0 J-0.319
G1 Y303.255
G2 X67.91 Y301.901 I-1.467 J0
G3 X67.007 Y300.547 I0.564 J-1.354
G1 Y276.327
G3 X67.327 Y276.008 I0.319 J0
G1 X93.673
G3 X93.993 Y276.327 I0 J0.319
G1 Y332.673
G3 X93.673 Y332.992 I-0.319 J0
G1 X67.327
G3 X67.007 Y332.673 I0 J-0.319
G1 Y300.547
G2 X66.105 Y299.194 I-1.467 J0
G3 X65.202 Y297.84 I0.564 J-1.354
G1 Y274.522
G3 X65.522 Y274.203 I0.319 J0
G1 X95.478
G3 X95.798 Y274.522 I0 J0.319
G1 Y334.478
G3 X95.478 Y334.797 I-0.319 J0
G1 X65.522
G3 X65.202 Y334.478 I0 J-0.319
G1 Y297.84
G2 X64.323 Y296.52 I-1.43 J0
G3 X63.443 Y295.2 I0.55 J-1.32
G1 Y274
G3 X65 Y272.443 I1.557 J0
G1 X96
G3 X97.558 Y274 I0 J1.557
G1 Y335
G3 X96 Y336.557 I-1.558 J0
G1 X65
G3 X63.443 Y335 I0 J-1.557
G1 Y295.2
G2 X62.515 Y293.809 I-1.507 J0
G3 X61.588 Y292.418 I0.58 J-1.391
G1 Y274
G3 X65 Y270.587 I3.412 J0
G1 X96
G3 X99.412 Y274 I0 J3.413
G1 Y335
G3 X96 Y338.413 I-3.412 J0
G1 X65
G3 X61.588 Y335 I0 J-3.413
G1 Y292.418
X61.593 Y292.357 Z-1.488 F600
X61.61 Y292.299 Z-1.476
X61.633 Y292.253 Z-1.441
X61.664 Y292.211 Z-1.407
X61.714 Y292.164 Z-1.304
X61.733 Y292.15 Z-1.183
Z5
G0 X80.054 Y320.536
G1 Z1.317 F300
X80.039 Y320.519 Z1.198
X79.995 Y320.469 Z1.097
X79.934 Y320.391 Z1.027
X79.868 Y320.293 Z1
G3 X82.433 Y318.707 Z0.835 I1.283 J-0.793
X79.868 Y320.293 Z0.669 I-1.283 J0.793
X82.433 Y318.707 Z0.504 I1.283 J-0.793
X79.868 Y320.293 Z0.338 I-1.283 J0.793
X82.433 Y318.707 Z0.173 I1.283 J-0.793
X79.868 Y320.293 Z0.007 I-1.283 J0.793
X82.433 Y318.707 Z-0.158 I1.283 J-0.793
X79.868 Y320.293 Z-0.324 I-1.283 J0.793
X82.433 Y318.707 Z-0.489 I1.283 J-0.793
X79.868 Y320.293 Z-0.655 I-1.283 J0.793
X82.433 Y318.707 Z-0.82 I1.283 J-0.793
X79.868 Y320.293 Z-0.985 I-1.283 J0.793
X82.433 Y318.707 Z-1.151 I1.283 J-0.793
X79.868 Y320.293 Z-1.316 I-1.283 J0.793
X82.433 Y318.707 Z-1.482 I1.283 J-0.793
X79.868 Y320.293 Z-1.647 I-1.283 J0.793
X82.433 Y318.707 Z-1.813 I1.283 J-0.793
X79.868 Y320.293 Z-1.978 I-1.283 J0.793
X82.433 Y318.707 Z-2.144 I1.283 J-0.793
X79.868 Y320.293 Z-2.309 I-1.283 J0.793
X82.433 Y318.707 Z-2.474 I1.283 J-0.793
X79.868 Y320.293 Z-2.64 I-1.283 J0.793
X82.433 Y318.707 Z-2.805 I1.283 J-0.793
X79.868 Y320.293 Z-2.971 I-1.283 J0.793
X79.643 Y319.5 Z-3 I1.283 J-0.793
G1 Y288.962 F1000
G3 X79.962 Y288.642 I0.319 J0
G1 X81.038
G3 X81.357 Y288.962 I0 J0.319
G1 Y320.038
G3 X81.038 Y320.358 I-0.319 J0
G1 X79.962
G3 X79.643 Y320.038 I0 J-0.319
G1 Y319.5
G2 X78.74 Y318.146 I-1.467 J0
G3 X77.838 Y316.793 I0.564 J-1.354
G1 Y287.157
G3 X78.157 Y286.837 I0.319 J0
G1 X82.843
G3 X83.162 Y287.157 I0 J0.319
G1 Y321.843
G3 X82.843 Y322.163 I-0.319 J0
G1 X78.157
G3 X77.838 Y321.843 I0 J-0.319
G1 Y316.793
G2 X76.935 Y315.439 I-1.467 J0
G3 X76.033 Y314.085 I0.564 J-1.354
G1 Y285.352
G3 X76.352 Y285.033 I0.319 J0
G1 X84.648
G3 X84.967 Y285.352 I0 J0.319
G1 Y323.648
G3 X84.648 Y323.967 I-0.319 J0
G1 X76.352
G3 X76.033 Y323.648 I0 J-0.319
G1 Y314.085
G2 X75.13 Y312.731 I-1.467 J0
G3 X74.228 Y311.378 I0.564 J-1.354
G1 Y283.547
G3 X74.547 Y283.228 I0.319 J0
G1 X86.453
G3 X86.772 Y283.547 I0 J0.319
G1 Y325.453
G3 X86.453 Y325.772 I-0.319 J0
G1 X74.547
G3 X74.228 Y325.453 I0 J-0.319
G1 Y311.378
G2 X73.325 Y310.024 I-1.467 J0
G3 X72.423 Y308.67 I0.564 J-1.354
G1 Y281.742
G3 X72.742 Y281.422 I0.319 J0
G1 X88.258
G3 X88.577 Y281.742 I0 J0.319
G1 Y327.258
G3 X88.258 Y327.578 I-0.319 J0
G1 X72.742
G3 X72.423 Y327.258 I0 J-0.319
G1 Y308.67
G2 X71.52 Y307.316 I-1.467 J0
G3 X70.618 Y305.962 I0.564 J-1.354
G1 Y279.937
G3 X70.937 Y279.617 I0.319 J0
G1 X90.063
G3 X90.382 Y279.937 I0 J0.319
G1 Y329.063
G3 X90.063 Y329.383 I-0.319 J0
G1 X70.937
G3 X70.618 Y329.063 I0 J-0.319
G1 Y305.962
G2 X69.715 Y304.609 I-1.467 J0
G3 X68.813 Y303.255 I0.564 J-1.354
G1 Y278.132
G3 X69.132 Y277.813 I0.319 J0
G1 X91.868
G3 X92.188 Y278.132 I0 J0.319
G1 Y330.868
G3 X91.868 Y331.188 I-0.319 J0
G1 X69.132
G3 X68.813 Y330.868 I0 J-0.319
G1 Y303.255
G2 X67.91 Y301.901 I-1.467 J0
G3 X67.007 Y300.547 I0.564 J-1.354
G1 Y276.327
G3 X67.327 Y276.008 I0.319 J0
G1 X93.673
G3 X93.993 Y276.327 I0 J0.319
G1 Y332.673
G3 X93.673 Y332.992 I-0.319 J0
G1 X67.327
G3 X67.007 Y332.673 I0 J-0.319
G1 Y300.547
G2 X66.105 Y299.194 I-1.467 J0
G3 X65.202 Y297.84 I0.564 J-1.354
G1 Y274.522
G3 X65.522 Y274.203 I0.319 J0
G1 X95.478
G3 X95.798 Y274.522 I0 J0.319
G1 Y334.478
G3 X95.478 Y334.797 I-0.319 J0
G1 X65.522
G3 X65.202 Y334.478 I0 J-0.319
G1 Y297.84
G2 X64.323 Y296.52 I-1.43 J0
G3 X63.443 Y295.2 I0.55 J-1.32
G1 Y274
G3 X65 Y272.443 I1.557 J0
G1 X96
G3 X97.558 Y274 I0 J1.557
G1 Y335
G3 X96 Y336.557 I-1.558 J0
G1 X65
G3 X63.443 Y335 I0 J-1.557
G1 Y295.2
G2 X62.515 Y293.809 I-1.507 J0
G3 X61.588 Y292.418 I0.58 J-1.391
G1 Y274
G3 X65 Y270.587 I3.412 J0
G1 X96
G3 X99.412 Y274 I0 J3.413
G1 Y335
G3 X96 Y338.413 I-3.412 J0
G1 X65
G3 X61.588 Y335 I0 J-3.413
G1 Y292.418
X61.593 Y292.357 Z-2.988 F600
X61.61 Y292.299 Z-2.976
X61.633 Y292.253 Z-2.941
X61.664 Y292.211 Z-2.907
X61.714 Y292.164 Z-2.804
X61.733 Y292.15 Z-2.683
Z5
G0 Z15
G0 X0 Y0
G90
M5
M30
